assets/luts/Adventure.cube
LUT_3D_SIZE 16
0.171293 0.000000 0.023065
0.171293 0.000000 0.023065
0.234656 0.000000 0.023065
0.315961 0.000000 0.023065
0.393869 0.000000 0.023065
0.461436 0.000000 0.023065
0.518612 0.000000 0.023065
0.568452 0.000000 0.023065
0.615308 0.000000 0.023065
0.662803 0.000000 0.023065
0.713806 0.000000 0.023065
0.769762 0.000000 0.023065
0.830206 0.000000 0.023065
0.880396 0.000000 0.023065
0.880396 0.000000 0.023065
0.880396 0.000000 0.023065
0.171293 0.040006 0.023065
0.171293 0.040006 0.023065
0.234656 0.041518 0.023065
0.315961 0.043731 0.023065
0.393869 0.045995 0.023065
0.461436 0.047844 0.023065
0.518612 0.049015 0.023065
0.568452 0.049549 0.023065
0.615308 0.049742 0.023065
0.662803 0.049755 0.023065
0.713806 0.049603 0.023065
0.769762 0.049227 0.023065
0.830206 0.048579 0.023065
0.880396 0.047643 0.023065
0.880396 0.046494 0.023065
0.880396 0.045242 0.023065
0.171293 0.115702 0.023065
0.171293 0.115702 0.023065
0.234656 0.115702 0.023065
0.315961 0.121474 0.023065
0.393869 0.127275 0.023065
0.461436 0.131919 0.023065
0.518612 0.134815 0.023065
0.568452 0.136137 0.023065
0.615308 0.136583 0.023065
0.662803 0.136620 0.023065
0.713806 0.136271 0.023065
0.769762 0.135337 0.023065
0.830206 0.133731 0.023065
0.880396 0.131406 0.023065
0.880396 0.128531 0.023065
0.880396 0.125336 0.023065
0.171293 0.203266 0.023065
0.171293 0.203266 0.023065
0.240000 0.203266 0.023065
0.315961 0.203266 0.023065
0.393869 0.211380 0.023065
0.461436 0.217854 0.023065
0.518612 0.221869 0.023065
0.568452 0.223686 0.023065
0.615308 0.224366 0.023065
0.662803 0.224395 0.023065
0.713806 0.223891 0.023065
0.769762 0.222573 0.023065
0.830206 0.220373 0.023065
0.880396 0.217144 0.023065
0.880396 0.213129 0.023065
0.880396 0.208685 0.023065
0.171293 0.289047 0.023065
0.171293 0.289047 0.023065
0.245363 0.289047 0.023065
0.323479 0.289047 0.023065
0.393869 0.289047 0.023065
0.461436 0.296997 0.023065
0.518612 0.301947 0.023065
0.568452 0.304180 0.023065
0.615308 0.304986 0.023065
0.662803 0.305020 0.023065
0.713806 0.304429 0.023065
0.769762 0.302815 0.023065
0.830206 0.300103 0.023065
0.880396 0.296116 0.023065
0.880396 0.291219 0.023065
0.880396 0.285731 0.023065
0.171293 0.370671 0.023065
0.171293 0.370671 0.023065
0.249672 0.370671 0.023065
0.329500 0.370671 0.023065
0.400784 0.370671 0.023065
0.461436 0.370671 0.023065
0.518612 0.376501 0.023065
0.568452 0.379087 0.023065
0.615308 0.380037 0.023065
0.662803 0.380086 0.023065
0.713806 0.379375 0.023065
0.769762 0.377516 0.023065
0.830206 0.374325 0.023065
0.880396 0.369626 0.023065
0.880396 0.363862 0.023065
0.880396 0.357438 0.023065
0.171293 0.447298 0.023065
0.171293 0.447298 0.023065
0.252358 0.447298 0.023065
0.333219 0.447298 0.023065
0.405072 0.447298 0.023065
0.465974 0.447298 0.023065
0.518612 0.447298 0.023065
0.568452 0.450331 0.023065
0.615308 0.451427 0.023065
0.662803 0.451501 0.023065
0.713806 0.450658 0.023065
0.769762 0.448480 0.023065
0.830206 0.444796 0.023065
0.880396 0.439424 0.023065
0.880396 0.432742 0.023065
0.880396 0.425394 0.023065
0.171293 0.519743 0.023065
0.171293 0.519743 0.023065
0.253572 0.519743 0.023065
0.334855 0.519743 0.023065
0.406958 0.519743 0.023065
0.467994 0.519743 0.023065
0.520755 0.519743 0.023065
0.568452 0.519743 0.023065
0.615308 0.521053 0.023065
0.662803 0.521073 0.023065
0.713806 0.520125 0.023065
0.769762 0.517627 0.023065
0.830206 0.513362 0.023065
0.880396 0.507223 0.023065
0.880396 0.499571 0.023065
0.880396 0.491142 0.023065
0.171293 0.590591 0.023065
0.171293 0.590591 0.023065
0.254015 0.590591 0.023065
0.335490 0.590591 0.023065
0.407675 0.590591 0.023065
0.468758 0.590591 0.023065
0.521576 0.590591 0.023065
0.569313 0.590591 0.023065
0.615308 0.590591 0.023065
0.662803 0.590661 0.023065
0.713806 0.589551 0.023065
0.769762 0.586648 0.023065
0.830206 0.581751 0.023065
0.880396 0.574611 0.023065
0.880396 0.565824 0.023065
0.880396 0.556245 0.023065
0.171293 0.662086 0.023065
0.171293 0.662086 0.023065
0.254038 0.662086 0.023065
0.335509 0.662086 0.023065
0.407690 0.662086 0.023065
0.468792 0.662086 0.023065
0.521610 0.662086 0.023065
0.569337 0.662086 0.023065
0.615345 0.662086 0.023065
0.662803 0.662086 0.023065
0.713806 0.660867 0.023065
0.769762 0.657455 0.023065
0.830206 0.651776 0.023065
0.880396 0.643479 0.023065
0.880396 0.633306 0.023065
0.880396 0.622154 0.023065
0.171293 0.734301 0.023065
0.171293 0.734301 0.023065
0.253708 0.734301 0.023065
0.335057 0.734301 0.023065
0.407186 0.734301 0.023065
0.468205 0.734301 0.023065
0.521009 0.734301 0.023065
0.568730 0.734301 0.023065
0.614613 0.734301 0.023065
0.661942 0.734301 0.023065
0.713806 0.734301 0.023065
0.769762 0.730597 0.023065
0.830206 0.724093 0.023065
0.880396 0.714594 0.023065
0.880396 0.702949 0.023065
0.880396 0.690143 0.023065
0.171293 0.805468 0.023065
0.171293 0.805468 0.023065
0.252839 0.805468 0.023065
0.333839 0.805468 0.023065
0.405807 0.805468 0.023065
0.466789 0.805468 0.023065
0.519454 0.805468 0.023065
0.567057 0.805468 0.023065
0.612701 0.805468 0.023065
0.659622 0.805468 0.023065
0.710985 0.805468 0.023065
0.769762 0.805468 0.023065
0.830206 0.798149 0.023065
0.880396 0.787493 0.023065
0.880396 0.774422 0.023065
0.880396 0.760012 0.023065
0.171293 0.873790 0.023065
0.171293 0.873790 0.023065
0.251356 0.873790 0.023065
0.331811 0.873790 0.023065
0.403485 0.873790 0.023065
0.464309 0.873790 0.023065
0.516841 0.873790 0.023065
0.564205 0.873790 0.023065
0.609491 0.873790 0.023065
0.655881 0.873790 0.023065
0.706270 0.873790 0.023065
0.763636 0.873790 0.023065
0.830206 0.873790 0.023065
0.880396 0.861932 0.023065
0.880396 0.847328 0.023065
0.880396 0.831380 0.023065
0.171293 0.934929 0.023065
0.171293 0.934929 0.023065
0.249199 0.934929 0.023065
0.328825 0.934929 0.023065
0.400058 0.934929 0.023065
0.460656 0.934929 0.023065
0.512987 0.934929 0.023065
0.560075 0.934929 0.023065
0.604795 0.934929 0.023065
0.650246 0.934929 0.023065
0.699428 0.934929 0.023065
0.754906 0.934929 0.023065
0.819327 0.934929 0.023065
0.880396 0.934929 0.023065
0.880396 0.920646 0.023065
0.880396 0.903839 0.023065
0.171293 0.978700 0.023065
0.171293 0.978700 0.023065
0.246525 0.978700 0.023065
0.325098 0.978700 0.023065
0.395738 0.978700 0.023065
0.456071 0.978700 0.023065
0.508174 0.978700 0.023065
0.554880 0.978700 0.023065
0.599034 0.978700 0.023065
0.643476 0.978700 0.023065
0.691086 0.978700 0.023065
0.744493 0.978700 0.023065
0.806155 0.978700 0.023065
0.874753 0.978700 0.023065
0.880396 0.978700 0.023065
0.880396 0.966284 0.023065
0.171293 0.999979 0.023065
0.171293 0.999979 0.023065
0.243579 0.999979 0.023065
0.321004 0.999979 0.023065
0.390998 0.999979 0.023065
0.450992 0.999979 0.023065
0.502807 0.999979 0.023065
0.549160 0.999979 0.023065
0.592671 0.999979 0.023065
0.636089 0.999979 0.023065
0.682057 0.999979 0.023065
0.733283 0.999979 0.023065
0.791950 0.999979 0.023065
0.858216 0.999979 0.023065
0.880396 0.999979 0.023065
0.880396 0.999979 0.023065
0.171293 0.000000 0.058376
0.171293 0.000000 0.058376
0.234656 0.000000 0.059436
0.315961 0.000000 0.060971
0.393869 0.000000 0.062535
0.461436 0.000000 0.063804
0.518612 0.000000 0.064602
0.568452 0.000000 0.064966
0.615308 0.000000 0.065099
0.662803 0.000000 0.065109
0.713806 0.000000 0.065006
0.769762 0.000000 0.064745
0.830206 0.000000 0.064308
0.880396 0.000000 0.063665
0.880396 0.000000 0.062876
0.880396 0.000000 0.062013
0.171293 0.040006 0.058376
0.171293 0.040006 0.058376
0.234656 0.040006 0.058376
0.315961 0.040006 0.058376
0.393869 0.040006 0.058376
0.461436 0.040006 0.058376
0.518612 0.040006 0.058376
0.568452 0.040006 0.058376
0.615308 0.040006 0.058376
0.662803 0.040006 0.058376
0.713806 0.040006 0.058376
0.769762 0.040006 0.058376
0.830206 0.040006 0.058376
0.880396 0.040006 0.058376
0.880396 0.040006 0.058376
0.880396 0.040006 0.058376
0.171293 0.115702 0.059436
0.171293 0.115702 0.058376
0.234656 0.115702 0.058376
0.315961 0.120278 0.058376
0.393869 0.124924 0.058376
0.461436 0.128679 0.058376
0.518612 0.131022 0.058376
0.568452 0.132057 0.058376
0.615308 0.132401 0.058376
0.662803 0.132393 0.058376
0.713806 0.132077 0.058376
0.769762 0.131266 0.058376
0.830206 0.129917 0.058376
0.880396 0.127954 0.058376
0.880396 0.125546 0.058376
0.880396 0.122908 0.058376
0.171293 0.203266 0.060971
0.171293 0.203266 0.058376
0.238882 0.203266 0.058376
0.315961 0.203266 0.058376
0.393869 0.210631 0.058376
0.461436 0.216500 0.058376
0.518612 0.220143 0.058376
0.568452 0.221760 0.058376
0.615308 0.222311 0.058376
0.662803 0.222280 0.058376
0.713806 0.221784 0.058376
0.769762 0.220534 0.058376
0.830206 0.218444 0.058376
0.880396 0.215365 0.058376
0.880396 0.211596 0.058376
0.880396 0.207429 0.058376
0.171293 0.289047 0.062535
0.171293 0.289047 0.058376
0.243195 0.289047 0.058376
0.322783 0.289047 0.058376
0.393869 0.289047 0.058376
0.461436 0.296513 0.058376
0.518612 0.301134 0.058376
0.568452 0.303164 0.058376
0.615308 0.303887 0.058376
0.662803 0.303848 0.058376
0.713806 0.303211 0.058376
0.769762 0.301633 0.058376
0.830206 0.298950 0.058376
0.880396 0.295035 0.058376
0.880396 0.290257 0.058376
0.880396 0.284971 0.058376
0.171293 0.370671 0.063804
0.171293 0.370671 0.058376
0.246677 0.370671 0.058376
0.328247 0.370671 0.058376
0.400370 0.370671 0.058376
0.461436 0.370671 0.058376
0.518612 0.376180 0.058376
0.568452 0.378611 0.058376
0.615308 0.379443 0.058376
0.662803 0.379377 0.058376
0.713806 0.378680 0.058376
0.769762 0.376752 0.058376
0.830206 0.373617 0.058376
0.880396 0.368971 0.058376
0.880396 0.363232 0.058376
0.880396 0.356914 0.058376
0.171293 0.447298 0.064602
0.171293 0.447298 0.058376
0.248834 0.447298 0.058376
0.331593 0.447298 0.058376
0.404359 0.447298 0.058376
0.465714 0.447298 0.058376
0.518612 0.447298 0.058376
0.568452 0.450108 0.058376
0.615308 0.451093 0.058376
0.662803 0.451043 0.058376
0.713806 0.450176 0.058376
0.769762 0.447969 0.058376
0.830206 0.444272 0.058376
0.880396 0.438927 0.058376
0.880396 0.432308 0.058376
0.880396 0.425048 0.058376
0.171293 0.519743 0.064966
0.171293 0.519743 0.058376
0.249798 0.519743 0.058376
0.333077 0.519743 0.058376
0.406109 0.519743 0.058376
0.467587 0.519743 0.058376
0.520605 0.519743 0.058376
0.568452 0.519743 0.058376
0.615308 0.520896 0.058376
0.662803 0.520854 0.058376
0.713806 0.519822 0.058376
0.769762 0.517264 0.058376
0.830206 0.513008 0.058376
0.880396 0.506867 0.058376
0.880396 0.499247 0.058376
0.880396 0.490868 0.058376
0.171293 0.590591 0.065099
0.171293 0.590591 0.058376
0.250125 0.590591 0.058376
0.333610 0.590591 0.058376
0.406689 0.590591 0.058376
0.468237 0.590591 0.058376
0.521308 0.590591 0.058376
0.569249 0.590591 0.058376
0.615308 0.590591 0.058376
0.662803 0.590548 0.058376
0.713806 0.589351 0.058376
0.769762 0.586420 0.058376
0.830206 0.581492 0.058376
0.880396 0.574383 0.058376
0.880396 0.565604 0.058376
0.880396 0.555992 0.058376
0.171293 0.662086 0.065109
0.171293 0.662086 0.058376
0.250112 0.662086 0.058376
0.333592 0.662086 0.058376
0.406683 0.662086 0.058376
0.468207 0.662086 0.058376
0.521283 0.662086 0.058376
0.569192 0.662086 0.058376
0.615289 0.662086 0.058376
0.662803 0.662086 0.058376
0.713806 0.660727 0.058376
0.769762 0.657327 0.058376
0.830206 0.651576 0.058376
0.880396 0.643267 0.058376
0.880396 0.633093 0.058376
0.880396 0.621978 0.058376
0.171293 0.734301 0.065006
0.171293 0.734301 0.058376
0.249814 0.734301 0.058376
0.333123 0.734301 0.058376
0.406134 0.734301 0.058376
0.467655 0.734301 0.058376
0.520663 0.734301 0.058376
0.568526 0.734301 0.058376
0.614521 0.734301 0.058376
0.661857 0.734301 0.058376
0.713806 0.734301 0.058376
0.769762 0.730494 0.058376
0.830206 0.723958 0.058376
0.880396 0.714454 0.058376
0.880396 0.702814 0.058376
0.880396 0.690092 0.058376
0.171293 0.805468 0.064745
0.171293 0.805468 0.058376
0.249070 0.805468 0.058376
0.331940 0.805468 0.058376
0.404769 0.805468 0.058376
0.466190 0.805468 0.058376
0.519076 0.805468 0.058376
0.566814 0.805468 0.058376
0.612527 0.805468 0.058376
0.659555 0.805468 0.058376
0.710914 0.805468 0.058376
0.769762 0.805468 0.058376
0.830206 0.798161 0.058376
0.880396 0.787458 0.058376
0.880396 0.774265 0.058376
0.880396 0.759937 0.058376
0.171293 0.873790 0.064308
0.171293 0.873790 0.058376
0.247822 0.873790 0.058376
0.330030 0.873790 0.058376
0.402491 0.873790 0.058376
0.463734 0.873790 0.058376
0.516474 0.873790 0.058376
0.563965 0.873790 0.058376
0.609331 0.873790 0.058376
0.655715 0.873790 0.058376
0.706189 0.873790 0.058376
0.763646 0.873790 0.058376
0.830206 0.873790 0.058376
0.880396 0.861848 0.058376
0.880396 0.847259 0.058376
0.880396 0.831300 0.058376
0.171293 0.934929 0.063665
0.171293 0.934929 0.058376
0.245998 0.934929 0.058376
0.327177 0.934929 0.058376
0.399112 0.934929 0.058376
0.460060 0.934929 0.058376
0.512610 0.934929 0.058376
0.559837 0.934929 0.058376
0.604641 0.934929 0.058376
0.650166 0.934929 0.058376
0.699336 0.934929 0.058376
0.754915 0.934929 0.058376
0.819325 0.934929 0.058376
0.880396 0.934929 0.058376
0.880396 0.920579 0.058376
0.880396 0.903818 0.058376
0.171293 0.978700 0.062876
0.171293 0.978700 0.058376
0.243766 0.978700 0.058376
0.323700 0.978700 0.058376
0.394938 0.978700 0.058376
0.455601 0.978700 0.058376
0.507846 0.978700 0.058376
0.554668 0.978700 0.058376
0.598851 0.978700 0.058376
0.643323 0.978700 0.058376
0.691000 0.978700 0.058376
0.744363 0.978700 0.058376
0.806063 0.978700 0.058376
0.874731 0.978700 0.058376
0.880396 0.978700 0.058376
0.880396 0.966244 0.058376
0.171293 0.999979 0.062013
0.171293 0.999979 0.058376
0.241319 0.999979 0.058376
0.319818 0.999979 0.058376
0.390317 0.999979 0.058376
0.450583 0.999979 0.058376
0.502547 0.999979 0.058376
0.548965 0.999979 0.058376
0.592541 0.999979 0.058376
0.635976 0.999979 0.058376
0.682046 0.999979 0.058376
0.733153 0.999979 0.058376
0.791900 0.999979 0.058376
0.858233 0.999979 0.058376
0.880396 0.999979 0.058376
0.880396 0.999979 0.058376
0.171293 0.000000 0.107870
0.171293 0.000000 0.107870
0.234656 0.000000 0.107870
0.315961 0.000000 0.111447
0.393869 0.000000 0.115039
0.461436 0.000000 0.117937
0.518612 0.000000 0.119744
0.568452 0.000000 0.120570
0.615308 0.000000 0.120865
0.662803 0.000000 0.120874
0.713806 0.000000 0.120659
0.769762 0.000000 0.120062
0.830206 0.000000 0.119076
0.880396 0.000000 0.117622
0.880396 0.000000 0.115827
0.880396 0.000000 0.113845
0.171293 0.041518 0.107870
0.171293 0.040006 0.107870
0.234656 0.040006 0.107870
0.315961 0.040006 0.110699
0.393869 0.040006 0.113601
0.461436 0.040006 0.115921
0.518612 0.040006 0.117377
0.568452 0.040006 0.118013
0.615308 0.040006 0.118236
0.662803 0.040006 0.118230
0.713806 0.040006 0.118030
0.769762 0.040006 0.117534
0.830206 0.040006 0.116694
0.880396 0.040006 0.115460
0.880396 0.040006 0.113976
0.880396 0.040006 0.112334
0.171293 0.115702 0.107870
0.171293 0.115702 0.107870
0.234656 0.115702 0.107870
0.315961 0.115702 0.107870
0.393869 0.115702 0.107870
0.461436 0.115702 0.107870
0.518612 0.115702 0.107870
0.568452 0.115702 0.107870
0.615308 0.115702 0.107870
0.662803 0.115702 0.107870
0.713806 0.115702 0.107870
0.769762 0.115702 0.107870
0.830206 0.115702 0.107870
0.880396 0.115702 0.107870
0.880396 0.115702 0.107870
0.880396 0.115702 0.107870
0.171293 0.203266 0.111447
0.171293 0.203266 0.110699
0.234656 0.203266 0.107870
0.315961 0.203266 0.107870
0.393869 0.207770 0.107870
0.461436 0.211399 0.107870
0.518612 0.213591 0.107870
0.568452 0.214438 0.107870
0.615308 0.214632 0.107870
0.662803 0.214490 0.107870
0.713806 0.214061 0.107870
0.769762 0.213085 0.107870
0.830206 0.211560 0.107870
0.880396 0.209368 0.107870
0.880396 0.206715 0.107870
0.880396 0.203788 0.107870
0.171293 0.289047 0.115039
0.171293 0.289047 0.113601
0.234656 0.289047 0.107870
0.320136 0.289047 0.107870
0.393869 0.289047 0.107870
0.461436 0.294693 0.107870
0.518612 0.298082 0.107870
0.568452 0.299425 0.107870
0.615308 0.299727 0.107870
0.662803 0.299521 0.107870
0.713806 0.298829 0.107870
0.769762 0.297323 0.107870
0.830206 0.294948 0.107870
0.880396 0.291545 0.107870
0.880396 0.287378 0.107870
0.880396 0.282796 0.107870
0.171293 0.370671 0.117937
0.171293 0.370671 0.115921
0.234656 0.370671 0.107870
0.323501 0.370671 0.107870
0.398783 0.370671 0.107870
0.461436 0.370671 0.107870
0.518612 0.374992 0.107870
0.568452 0.376691 0.107870
0.615308 0.377052 0.107870
0.662803 0.376787 0.107870
0.713806 0.375902 0.107870
0.769762 0.374022 0.107870
0.830206 0.370980 0.107870
0.880396 0.366691 0.107870
0.880396 0.361343 0.107870
0.880396 0.355485 0.107870
0.171293 0.447298 0.119744
0.171293 0.447298 0.117377
0.234656 0.447298 0.107870
0.325528 0.447298 0.107870
0.401737 0.447298 0.107870
0.464831 0.447298 0.107870
0.518612 0.447298 0.107870
0.568452 0.449337 0.107870
0.615308 0.449801 0.107870
0.662803 0.449455 0.107870
0.713806 0.448389 0.107870
0.769762 0.446154 0.107870
0.830206 0.442533 0.107870
0.880396 0.437326 0.107870
0.880396 0.430983 0.107870
0.880396 0.423972 0.107870
0.171293 0.519743 0.120570
0.171293 0.519743 0.118013
0.234656 0.519743 0.107870
0.326313 0.519743 0.107870
0.402895 0.519743 0.107870
0.466111 0.519743 0.107870
0.520040 0.519743 0.107870
0.568452 0.519743 0.107870
0.615308 0.520323 0.107870
0.662803 0.519912 0.107870
0.713806 0.518687 0.107870
0.769762 0.516006 0.107870
0.830206 0.511790 0.107870
0.880396 0.505696 0.107870
0.880396 0.498259 0.107870
0.880396 0.490116 0.107870
0.171293 0.590591 0.120865
0.171293 0.590591 0.118236
0.234656 0.590591 0.107870
0.326493 0.590591 0.107870
0.403154 0.590591 0.107870
0.466426 0.590591 0.107870
0.520392 0.590591 0.107870
0.568840 0.590591 0.107870
0.615308 0.590591 0.107870
0.662803 0.590099 0.107870
0.713806 0.588653 0.107870
0.769762 0.585564 0.107870
0.830206 0.580628 0.107870
0.880396 0.573485 0.107870
0.880396 0.564832 0.107870
0.880396 0.555353 0.107870
0.171293 0.662086 0.120874
0.171293 0.662086 0.118230
0.234656 0.662086 0.107870
0.326369 0.662086 0.107870
0.402952 0.662086 0.107870
0.466198 0.662086 0.107870
0.520144 0.662086 0.107870
0.568600 0.662086 0.107870
0.614976 0.662086 0.107870
0.662803 0.662086 0.107870
0.713806 0.660424 0.107870
0.769762 0.656787 0.107870
0.830206 0.650999 0.107870
0.880396 0.642654 0.107870
0.880396 0.632525 0.107870
0.880396 0.621502 0.107870
0.171293 0.734301 0.120659
0.171293 0.734301 0.118030
0.234656 0.734301 0.107870
0.325963 0.734301 0.107870
0.402382 0.734301 0.107870
0.465519 0.734301 0.107870
0.519411 0.734301 0.107870
0.567745 0.734301 0.107870
0.614029 0.734301 0.107870
0.661636 0.734301 0.107870
0.713806 0.734301 0.107870
0.769762 0.730133 0.107870
0.830206 0.723587 0.107870
0.880396 0.714026 0.107870
0.880396 0.702375 0.107870
0.880396 0.689705 0.107870
0.171293 0.805468 0.120062
0.171293 0.805468 0.117534
0.234656 0.805468 0.107870
0.325076 0.805468 0.107870
0.401081 0.805468 0.107870
0.464051 0.805468 0.107870
0.517801 0.805468 0.107870
0.566005 0.805468 0.107870
0.611967 0.805468 0.107870
0.659205 0.805468 0.107870
0.710697 0.805468 0.107870
0.769762 0.805468 0.107870
0.830206 0.797973 0.107870
0.880396 0.787145 0.107870
0.880396 0.773977 0.107870
0.880396 0.759637 0.107870
0.171293 0.873790 0.119076
0.171293 0.873790 0.116694
0.234656 0.873790 0.107870
0.323646 0.873790 0.107870
0.399035 0.873790 0.107870
0.461688 0.873790 0.107870
0.515201 0.873790 0.107870
0.563111 0.873790 0.107870
0.608735 0.873790 0.107870
0.655316 0.873790 0.107870
0.705927 0.873790 0.107870
0.763494 0.873790 0.107870
0.830206 0.873790 0.107870
0.880396 0.861765 0.107870
0.880396 0.847108 0.107870
0.880396 0.831138 0.107870
0.171293 0.934929 0.117622
0.171293 0.934929 0.115460
0.234656 0.934929 0.107870
0.321620 0.934929 0.107870
0.396042 0.934929 0.107870
0.458296 0.934929 0.107870
0.511486 0.934929 0.107870
0.559025 0.934929 0.107870
0.604071 0.934929 0.107870
0.649692 0.934929 0.107870
0.699007 0.934929 0.107870
0.754660 0.934929 0.107870
0.819161 0.934929 0.107870
0.880396 0.934929 0.107870
0.880396 0.920481 0.107870
0.880396 0.903703 0.107870
0.171293 0.978700 0.115827
0.171293 0.978700 0.113976
0.234656 0.978700 0.107870
0.319146 0.978700 0.107870
0.392388 0.978700 0.107870
0.454075 0.978700 0.107870
0.506887 0.978700 0.107870
0.553992 0.978700 0.107870
0.598362 0.978700 0.107870
0.642945 0.978700 0.107870
0.690704 0.978700 0.107870
0.744077 0.978700 0.107870
0.805957 0.978700 0.107870
0.874625 0.978700 0.107870
0.880396 0.978700 0.107870
0.880396 0.966227 0.107870
0.171293 0.999979 0.113845
0.171293 0.999979 0.112334
0.234656 0.999979 0.107870
0.316440 0.999979 0.107870
0.388389 0.999979 0.107870
0.449415 0.999979 0.107870
0.501782 0.999979 0.107870
0.548446 0.999979 0.107870
0.592144 0.999979 0.107870
0.635643 0.999979 0.107870
0.681776 0.999979 0.107870
0.732934 0.999979 0.107870
0.791735 0.999979 0.107870
0.858120 0.999979 0.107870
0.880396 0.999979 0.107870
0.880396 0.999979 0.107870
0.171293 0.000000 0.163768
0.171293 0.000000 0.163768
0.240000 0.000000 0.163768
0.315961 0.000000 0.163768
0.393869 0.000000 0.169173
0.461436 0.000000 0.173523
0.518612 0.000000 0.176242
0.568452 0.000000 0.177455
0.615308 0.000000 0.177895
0.662803 0.000000 0.177920
0.713806 0.000000 0.177586
0.769762 0.000000 0.176696
0.830206 0.000000 0.175224
0.880396 0.000000 0.173036
0.880396 0.000000 0.170345
0.880396 0.000000 0.167378
0.171293 0.043731 0.163768
0.171293 0.040006 0.163768
0.238882 0.040006 0.163768
0.315961 0.040006 0.163768
0.393869 0.040006 0.168657
0.461436 0.040006 0.172614
0.518612 0.040006 0.175064
0.568452 0.040006 0.176141
0.615308 0.040006 0.176515
0.662803 0.040006 0.176503
0.713806 0.040006 0.176171
0.769762 0.040006 0.175337
0.830206 0.040006 0.173905
0.880396 0.040006 0.171849
0.880396 0.040006 0.169319
0.880396 0.040006 0.166524
0.171293 0.121474 0.163768
0.171293 0.120278 0.163768
0.234656 0.115702 0.163768
0.315961 0.115702 0.163768
0.393869 0.115702 0.166754
0.461436 0.115702 0.169196
0.518612 0.115702 0.170646
0.568452 0.115702 0.171231
0.615308 0.115702 0.171371
0.662803 0.115702 0.171259
0.713806 0.115702 0.170961
0.769762 0.115702 0.170310
0.830206 0.115702 0.169298
0.880396 0.115702 0.167833
0.880396 0.115702 0.166042
0.880396 0.115702 0.164119
0.171293 0.203266 0.163768
0.171293 0.203266 0.163768
0.234656 0.203266 0.163768
0.315961 0.203266 0.163768
0.393869 0.203266 0.163768
0.461436 0.203266 0.163768
0.518612 0.203266 0.163768
0.568452 0.203266 0.163768
0.615308 0.203266 0.163768
0.662803 0.203266 0.163768
0.713806 0.203266 0.163768
0.769762 0.203266 0.163768
0.830206 0.203266 0.163768
0.880396 0.203266 0.163768
0.880396 0.203266 0.163768
0.880396 0.203266 0.163768
0.171293 0.289047 0.169173
0.171293 0.289047 0.168657
0.234656 0.289047 0.166754
0.315961 0.289047 0.163768
0.393869 0.289047 0.163768
0.461436 0.291930 0.163768
0.518612 0.293508 0.163768
0.568452 0.293894 0.163768
0.615308 0.293813 0.163768
0.662803 0.293499 0.163768
0.713806 0.292924 0.163768
0.769762 0.291867 0.163768
0.830206 0.290227 0.163768
0.880396 0.288005 0.163768
0.880396 0.285365 0.163768
0.880396 0.282488 0.163768
0.171293 0.370671 0.173523
0.171293 0.370671 0.172614
0.234656 0.370671 0.169196
0.315961 0.370671 0.163768
0.396392 0.370671 0.163768
0.461436 0.370671 0.163768
0.518612 0.373223 0.163768
0.568452 0.373907 0.163768
0.615308 0.373773 0.163768
0.662803 0.373207 0.163768
0.713806 0.372299 0.163768
0.769762 0.370555 0.163768
0.830206 0.368002 0.163768
0.880396 0.364369 0.163768
0.880396 0.360026 0.163768
0.880396 0.355283 0.163768
0.171293 0.447298 0.176242
0.171293 0.447298 0.175064
0.234656 0.447298 0.170646
0.315961 0.447298 0.163768
0.397730 0.447298 0.163768
0.463431 0.447298 0.163768
0.518612 0.447298 0.163768
0.568452 0.448172 0.163768
0.615308 0.447988 0.163768
0.662803 0.447298 0.163768
0.713806 0.446061 0.163768
0.769762 0.443854 0.163768
0.830206 0.440484 0.163768
0.880396 0.435754 0.163768
0.880396 0.430044 0.163768
0.880396 0.423819 0.163768
0.171293 0.519743 0.177455
0.171293 0.519743 0.176141
0.234656 0.519743 0.171231
0.315961 0.519743 0.163768
0.398087 0.519743 0.163768
0.463976 0.519743 0.163768
0.519228 0.519743 0.163768
0.568452 0.519743 0.163768
