assets/luts/Adventure.cube
LUT_3D_SIZE 6
0.171293 0.000000 0.023065
0.315961 0.000000 0.023065
0.518612 0.000000 0.023065
0.662803 0.000000 0.023065
0.830206 0.000000 0.023065
0.880396 0.000000 0.023065
0.171293 0.203266 0.023065
0.315961 0.203266 0.023065
0.518612 0.221869 0.023065
0.662803 0.224395 0.023065
0.830206 0.220373 0.023065
0.880396 0.208685 0.023065
0.171293 0.447298 0.023065
0.333219 0.447298 0.023065
0.518612 0.447298 0.023065
0.662803 0.451501 0.023065
0.830206 0.444796 0.023065
0.880396 0.425394 0.023065
0.171293 0.662086 0.023065
0.335509 0.662086 0.023065
0.521610 0.662086 0.023065
0.662803 0.662086 0.023065
0.830206 0.651776 0.023065
0.880396 0.622154 0.023065
0.171293 0.873790 0.023065
0.331811 0.873790 0.023065
0.516841 0.873790 0.023065
0.655881 0.873790 0.023065
0.830206 0.873790 0.023065
0.880396 0.831380 0.023065
0.171293 0.999979 0.023065
0.321004 0.999979 0.023065
0.502807 0.999979 0.023065
0.636089 0.999979 0.023065
0.791950 0.999979 0.023065
0.880396 0.999979 0.023065
0.171293 0.000000 0.163768
0.315961 0.000000 0.163768
0.518612 0.000000 0.176242
0.662803 0.000000 0.177920
0.830206 0.000000 0.175224
0.880396 0.000000 0.167378
0.171293 0.203266 0.163768
0.315961 0.203266 0.163768
0.518612 0.203266 0.163768
0.662803 0.203266 0.163768
0.830206 0.203266 0.163768
0.880396 0.203266 0.163768
0.171293 0.447298 0.176242
0.315961 0.447298 0.163768
0.518612 0.447298 0.163768
0.662803 0.447298 0.163768
0.830206 0.440484 0.163768
0.880396 0.423819 0.163768
0.171293 0.662086 0.177920
0.315961 0.662086 0.163768
0.518610 0.662086 0.163768
0.662803 0.662086 0.163768
0.830206 0.650242 0.163768
0.880396 0.621468 0.163768
0.171293 0.873790 0.175224
0.315961 0.873790 0.163768
0.513752 0.873790 0.163768
0.654790 0.873790 0.163768
0.830206 0.873790 0.163768
0.880396 0.831086 0.163768
0.171293 0.999979 0.167378
0.315961 0.999979 0.163768
0.501672 0.999979 0.163768
0.635622 0.999979 0.163768
0.791707 0.999979 0.163768
0.880396 0.999979 0.163768
0.171293 0.000000 0.345613
0.333219 0.000000 0.345613
0.518612 0.000000 0.345613
0.662803 0.000000 0.349059
0.830206 0.000000 0.343637
0.880396 0.000000 0.327913
0.171293 0.221869 0.345613
0.315961 0.203266 0.345613
0.518612 0.203266 0.345613
0.662803 0.203266 0.345603
0.830206 0.203266 0.340103
0.880396 0.203266 0.326660
0.171293 0.447298 0.345613
0.315961 0.447298 0.345613
0.518612 0.447298 0.345613
0.662803 0.447298 0.345613
0.830206 0.447298 0.345613
0.880396 0.447298 0.345613
0.171293 0.662086 0.349059
0.315961 0.662086 0.345603
0.518612 0.662086 0.345613
0.662803 0.662086 0.345613
0.830206 0.652637 0.345613
0.880396 0.632385 0.345613
0.171293 0.873790 0.343637
0.315961 0.873790 0.340103
0.518612 0.873790 0.345613
0.656443 0.873790 0.345613
0.830206 0.873790 0.345613
0.880396 0.835762 0.345613
0.171293 0.999979 0.327913
0.315961 0.999979 0.326660
0.518612 0.999979 0.345613
0.642831 0.999979 0.345613
0.795809 0.999979 0.345613
0.880396 0.999979 0.345613
0.171293 0.000000 0.520159
0.335509 0.000000 0.520159
0.521610 0.000000 0.520159
0.662803 0.000000 0.520159
0.830206 0.000000 0.512030
0.880396 0.000000 0.488487
0.171293 0.224395 0.520159
0.315961 0.203266 0.520159
0.518610 0.203266 0.520159
0.662803 0.203266 0.520159
0.830206 0.203266 0.510819
0.880396 0.203266 0.487936
0.171293 0.451501 0.520159
0.315961 0.447298 0.520159
0.518612 0.447298 0.520159
0.662803 0.447298 0.520159
0.830206 0.447298 0.512668
0.880396 0.447298 0.496631
0.171293 0.662086 0.520159
0.315961 0.662086 0.520159
0.518612 0.662086 0.520159
0.662803 0.662086 0.520159
0.830206 0.662086 0.520159
0.880396 0.662086 0.520159
0.171293 0.873790 0.512030
0.315961 0.873790 0.510819
0.518612 0.873790 0.512668
0.662803 0.873790 0.520159
0.830206 0.873790 0.520159
0.880396 0.848606 0.520159
0.171293 0.999979 0.488487
0.315961 0.999979 0.487936
0.518612 0.999979 0.496631
0.662803 0.999979 0.520159
0.807299 0.999979 0.520159
0.880396 0.999979 0.520159
0.171293 0.000000 0.680396
0.331811 0.000000 0.680396
0.516841 0.000000 0.680396
0.655881 0.000000 0.680396
0.830206 0.000000 0.680396
0.880396 0.000000 0.649050
0.171293 0.220373 0.680396
0.315961 0.203266 0.680396
0.513752 0.203266 0.680396
0.654790 0.203266 0.680396
0.830206 0.203266 0.680396
0.880396 0.203266 0.648832
0.171293 0.444796 0.680396
0.315961 0.440484 0.680396
0.518612 0.447298 0.680396
0.656443 0.447298 0.680396
0.830206 0.447298 0.680396
0.880396 0.447298 0.652270
0.171293 0.651776 0.680396
0.315961 0.650242 0.680396
0.518612 0.652637 0.680396
0.662803 0.662086 0.680396
0.830206 0.662086 0.680396
0.880396 0.662086 0.661838
0.171293 0.873790 0.680396
0.315961 0.873790 0.680396
0.518612 0.873790 0.680396
0.662803 0.873790 0.680396
0.830206 0.873790 0.680396
0.880396 0.873790 0.680396
0.171293 0.999979 0.649050
0.315961 0.999979 0.648832
0.518612 0.999979 0.652270
0.662803 0.999979 0.661838
0.830206 0.999979 0.680396
0.880396 0.999979 0.680396
0.171293 0.000000 0.808955
0.321004 0.000000 0.808955
0.502807 0.000000 0.808955
0.636089 0.000000 0.808955
0.791950 0.000000 0.808955
0.880396 0.000000 0.808955
0.171293 0.208685 0.808955
0.315961 0.203266 0.808955
0.501672 0.203266 0.808955
0.635622 0.203266 0.808955
0.791707 0.203266 0.808955
0.880396 0.203266 0.808955
0.171293 0.425394 0.808955
0.315961 0.423819 0.808955
0.518612 0.447298 0.808955
0.642831 0.447298 0.808955
0.795809 0.447298 0.808955
0.880396 0.447298 0.808955
0.171293 0.622154 0.808955
0.315961 0.621468 0.808955
0.518612 0.632385 0.808955
0.662803 0.662086 0.808955
0.807299 0.662086 0.808955
0.880396 0.662086 0.808955
0.171293 0.831380 0.808955
0.315961 0.831086 0.808955
0.518612 0.835762 0.808955
0.662803 0.848606 0.808955
0.830206 0.873790 0.808955
0.880396 0.873790 0.808955
0.171293 0.999979 0.808955
0.315961 0.999979 0.808955
0.518612 0.999979 0.808955
0.662803 0.999979 0.808955
0.830206 0.999979 0.808955
0.880396 0.999979 0.808955
