assets/luts/African.cube
LUT_3D_SIZE 6
0.117144 0.000000 0.000000
0.241168 0.056424 0.015353
0.424280 0.166972 0.099203
0.612998 0.282929 0.223554
0.743097 0.362906 0.309297
0.826712 0.414302 0.364398
0.212820 0.146037 0.027910
0.285449 0.157489 -0.140449
0.460966 0.231686 0.126578
0.635479 0.327813 0.246441
0.757394 0.392731 0.324978
0.836151 0.434569 0.375174
0.354078 0.393773 0.167423
0.388988 0.399060 0.157981
0.533979 0.422181 -0.347833
0.726657 0.465074 0.251538
0.817891 0.494773 0.365079
0.876742 0.509240 0.410674
0.499649 0.649135 0.333691
0.521515 0.652405 0.328644
0.608687 0.664943 0.296456
0.790069 0.695042 -0.561529
0.924319 0.650582 0.253822
0.949722 0.627926 0.428040
0.600067 0.825206 0.448345
0.613997 0.827344 0.445270
0.671220 0.835847 0.429080
0.780091 0.850509 0.377231
0.957704 0.883059 -0.708892
0.999958 0.784429 0.035787
0.664559 0.938375 0.522055
0.673915 0.939757 0.520036
0.712636 0.945629 0.510263
0.787390 0.956526 0.484149
0.901441 0.970829 0.418446
1.018927 1.003509 -0.803641
0.137775 0.012362 0.007337
0.238676 0.059606 0.021322
0.421686 0.170232 0.112867
0.611303 0.285158 0.233563
0.742523 0.363943 0.314852
0.826845 0.414615 0.367103
0.216935 0.145602 0.037720
0.285008 0.157021 -0.114523
0.445101 0.209816 0.124958
0.623709 0.307156 0.238610
0.750838 0.380810 0.320447
0.833253 0.429435 0.373847
0.357639 0.393416 0.183345
0.376239 0.396901 0.168093
0.533831 0.422045 -0.341383
0.719568 0.456208 0.262636
0.812430 0.487588 0.365672
0.873945 0.505553 0.410716
0.502223 0.648806 0.345319
0.511278 0.650725 0.334159
0.602345 0.664035 0.303140
0.789940 0.694914 -0.558275
0.921832 0.647081 0.269374
0.948073 0.625650 0.430960
0.601498 0.824980 0.455035
0.608532 0.826396 0.448721
0.666804 0.835102 0.432918
0.777403 0.850206 0.381669
0.957684 0.883020 -0.706548
0.999895 0.783135 0.069905
0.665348 0.938298 0.525629
0.671694 0.939312 0.522354
0.710695 0.945251 0.512742
0.785854 0.956278 0.486869
0.900529 0.970710 0.421704
1.018886 1.003468 -0.801647
0.211845 0.079454 0.158863
0.286554 0.110572 0.167046
0.421980 0.189658 0.208086
0.601530 0.303851 0.311423
0.731755 0.378312 0.371550
0.818754 0.424393 0.406080
0.283232 0.193557 0.197237
0.296359 0.169104 0.186812
0.435787 0.229846 0.226357
0.609555 0.326199 0.318516
0.739349 0.394457 0.376575
0.825476 0.438453 0.411766
0.392536 0.391013 0.299043
0.410308 0.393765 0.301703
0.529081 0.416997 0.221056
0.685360 0.454740 0.378548
0.796671 0.502390 0.436001
0.872170 0.537302 0.476075
0.527572 0.646398 0.443578
0.535728 0.648123 0.436424
0.603515 0.661002 0.413396
0.787563 0.692281 -0.406460
0.909409 0.653223 0.421681
0.943946 0.646290 0.506945
0.617791 0.823341 0.523446
0.623985 0.824615 0.516844
0.679766 0.833948 0.509068
0.782468 0.849745 0.472354
0.956406 0.881169 -0.607969
0.999245 0.791900 0.341647
0.675733 0.937168 0.570955
0.681552 0.938264 0.567083
0.733083 0.945637 0.574023
0.801181 0.956609 0.553827
0.907650 0.970990 0.502917
1.017341 1.001888 -0.721391
0.290035 0.162364 0.375165
0.341463 0.180696 0.379129
0.468227 0.242102 0.398071
0.613965 0.327895 0.441262
0.732676 0.398012 0.471031
0.810287 0.442577 0.481666
0.339073 0.245666 0.396405
0.340737 0.216373 0.387854
0.472378 0.269518 0.406277
0.621045 0.349524 0.449849
0.737798 0.414627 0.476760
0.815170 0.456872 0.487873
0.459484 0.431943 0.474476
0.465579 0.423701 0.470748
0.539467 0.428030 0.474435
0.672348 0.478891 0.511400
0.777281 0.524250 0.535619
0.853681 0.554901 0.550943
0.577907 0.644726 0.587780
0.586902 0.646113 0.589252
0.649964 0.656672 0.600605
0.779485 0.683738 0.570223
0.882559 0.704554 0.654713
0.942717 0.727242 0.681815
0.654926 0.820405 0.649880
0.661121 0.821512 0.647764
0.712981 0.829839 0.652544
0.823547 0.850240 0.674388
0.952053 0.874919 0.364847
0.995484 0.831600 0.659405
0.701354 0.934810 0.668233
0.706975 0.935769 0.666093
0.755843 0.942807 0.676563
0.863093 0.959523 0.722472
0.936351 0.972689 0.697017
1.012173 0.996604 -0.192667
0.345614 0.221584 0.529054
0.379359 0.232841 0.531353
0.480295 0.275026 0.541880
0.609030 0.342541 0.565607
0.747060 0.424200 0.606725
0.818402 0.461019 0.585818
0.377683 0.278068 0.541900
0.382940 0.261316 0.537718
0.484292 0.298915 0.548004
0.613540 0.361626 0.571498
0.752213 0.439897 0.612651
0.822769 0.474931 0.591169
0.474408 0.431236 0.592946
0.479605 0.423815 0.590070
0.558519 0.448332 0.600534
0.666350 0.487327 0.620114
0.790318 0.542980 0.656927
0.856417 0.570498 0.641343
0.595043 0.618196 0.681121
0.600856 0.615853 0.680329
0.659833 0.629319 0.689641
0.785979 0.690652 0.727396
0.872352 0.721375 0.751915
0.929436 0.742509 0.755450
0.707356 0.819975 0.789774
0.713714 0.820973 0.790864
0.760646 0.828576 0.799095
0.858463 0.846778 0.818700
0.946358 0.867127 0.816217
0.986253 0.880973 0.856259
0.741608 0.932243 0.793773
0.747118 0.933119 0.793576
0.791923 0.939798 0.803995
0.889485 0.955778 0.838986
0.966703 0.973644 0.869390
1.005674 0.989925 0.723082
0.381827 0.260152 0.629328
0.404543 0.267507 0.630693
0.480791 0.296540 0.637319
0.588111 0.346829 0.651700
0.707876 0.412244 0.676708
0.832922 0.486414 0.714259
0.403365 0.298881 0.637641
0.413149 0.293485 0.636320
0.487611 0.319598 0.642745
0.593627 0.366043 0.656888
0.712639 0.428028 0.681781
0.837143 0.499555 0.719123
0.476339 0.418396 0.671711
0.484063 0.415449 0.670804
0.574153 0.464984 0.688707
0.656902 0.493614 0.700617
0.758126 0.535945 0.722329
0.869473 0.589372 0.756068
0.578938 0.576383 0.734839
0.585297 0.575128 0.734340
0.652613 0.604196 0.748825
0.794895 0.700147 0.799136
0.861626 0.722854 0.813461
0.937629 0.753831 0.837659
0.689509 0.750049 0.821446
0.695193 0.749922 0.821735
0.746063 0.765553 0.832443
0.857236 0.817061 0.866015
0.950190 0.872317 0.901922
0.984472 0.890938 0.917100
0.790863 0.932720 0.920355
0.796168 0.933597 0.921223
0.835851 0.940007 0.928112
0.920665 0.955320 0.944542
0.980447 0.971698 0.962106
0.999980 0.984170 0.975487
