assets/luts/African.cube
LUT_3D_SIZE 16
0.117144 0.000000 0.000000
0.152907 0.012363 0.001190
0.193622 0.031270 0.005679
0.241168 0.056424 0.015353
0.296771 0.088703 0.032905
0.358636 0.126641 0.060495
0.424280 0.166972 0.099203
0.490724 0.207802 0.142995
0.554758 0.247165 0.185192
0.612998 0.282929 0.223554
0.663485 0.313976 0.256824
0.706657 0.340498 0.285295
0.743097 0.362906 0.309297
0.773527 0.381559 0.329308
0.799795 0.397726 0.346679
0.826712 0.414302 0.364398
0.144730 0.032401 0.002161
0.165674 0.035121 -0.040498
0.202777 0.044822 0.007373
0.246794 0.066722 0.017646
0.300854 0.097170 0.035528
0.361865 0.133533 0.063395
0.426931 0.172688 0.102251
0.492928 0.212655 0.145598
0.556637 0.251290 0.187400
0.614626 0.286471 0.225452
0.664864 0.317000 0.258459
0.707822 0.343144 0.286695
0.744067 0.365143 0.310486
0.774404 0.383532 0.330361
0.800588 0.399418 0.347553
0.827473 0.415776 0.365196
0.176137 0.081986 0.010324
0.184835 0.083248 0.009597
0.220952 0.088869 -0.086624
0.269572 0.099988 0.018186
0.318249 0.126466 0.042722
0.375628 0.158898 0.073433
0.438218 0.194742 0.113377
0.502469 0.231859 0.155510
0.564734 0.268008 0.196160
0.621504 0.300966 0.233082
0.670767 0.329575 0.265097
0.712841 0.353939 0.292460
0.748497 0.374559 0.315510
0.778184 0.391664 0.334705
0.803895 0.406572 0.351355
0.830380 0.422125 0.368578
0.212820 0.146037 0.027910
0.218279 0.146867 0.027248
0.240081 0.150000 0.023239
0.285449 0.157489 -0.140449
0.349151 0.171189 0.024432
0.402594 0.199238 0.078699
0.460966 0.231686 0.126578
0.521721 0.265420 0.170251
0.581132 0.298164 0.210544
0.635479 0.327813 0.246441
0.682723 0.353197 0.277101
0.723205 0.374697 0.303139
0.757394 0.392731 0.324978
0.785752 0.407611 0.343060
0.810500 0.420570 0.358733
0.836151 0.434569 0.375174
0.255725 0.221291 0.059819
0.259730 0.221882 0.059138
0.276152 0.224358 0.055600
0.307408 0.228560 0.045021
0.360923 0.237887 -0.203434
0.438263 0.252426 0.004703
0.494684 0.279801 0.116545
0.551568 0.310056 0.178053
0.607066 0.339355 0.224203
0.657831 0.365336 0.261792
0.701946 0.386921 0.292378
0.739631 0.404835 0.317522
0.771511 0.419523 0.338193
0.798056 0.431370 0.355012
0.821190 0.441651 0.369495
0.845605 0.453492 0.384927
0.303463 0.305007 0.109604
0.306621 0.305490 0.108913
0.319775 0.307492 0.105608
0.345204 0.311168 0.096735
0.383959 0.316032 0.075870
0.444914 0.327353 -0.273515
0.532434 0.340546 -0.148026
0.589587 0.364249 0.141900
0.641940 0.389374 0.221055
0.688702 0.411409 0.270352
0.728676 0.429051 0.305523
0.762888 0.443016 0.332171
0.791638 0.453950 0.352934
0.815519 0.462280 0.369147
0.836372 0.469423 0.382728
0.859017 0.478603 0.397236
0.354078 0.393773 0.167423
0.356674 0.394201 0.166873
0.367627 0.395846 0.164297
0.388988 0.399060 0.157981
0.421609 0.403577 0.144373
0.466464 0.408842 0.114669
0.533979 0.422181 -0.347833
0.627151 0.431576 -0.236517
0.682335 0.448308 0.146350
0.726657 0.465074 0.251538
0.762837 0.478166 0.305915
0.792887 0.487910 0.340765
0.817891 0.494773 0.365079
0.838411 0.499319 0.382652
0.856389 0.502989 0.396428
0.876742 0.509240 0.410674
0.405353 0.483717 0.225983
0.407569 0.484044 0.225532
0.416788 0.485470 0.223421
0.435034 0.488187 0.218527
0.463071 0.492297 0.208869
0.501465 0.497463 0.190407
0.551133 0.502934 0.153668
0.624151 0.518256 -0.423083
0.718915 0.520945 -0.326281
0.768242 0.527386 0.115531
0.802194 0.534148 0.267450
0.828814 0.538782 0.330510
0.849980 0.541203 0.367320
0.866716 0.541624 0.390848
0.881334 0.541565 0.407492
0.898966 0.544725 0.422979
0.454729 0.570378 0.282374
0.456625 0.570645 0.281999
0.464511 0.571812 0.280244
0.480190 0.574197 0.276291
0.504460 0.577818 0.268915
0.537790 0.582565 0.255837
0.580603 0.588037 0.232660
0.633500 0.593899 0.183376
0.711026 0.610799 -0.495596
0.802637 0.603795 -0.413191
0.843594 0.598462 0.025616
0.868359 0.595967 0.268695
0.886536 0.592833 0.344655
0.899778 0.588618 0.385449
0.910692 0.584518 0.410717
0.924227 0.584383 0.430715
0.499649 0.649135 0.333691
0.501242 0.649368 0.333349
0.508026 0.650382 0.331856
0.521515 0.652405 0.328644
0.542514 0.655645 0.322735
0.571480 0.659871 0.312853
0.608687 0.664943 0.296456
0.654647 0.670661 0.269024
0.708486 0.677599 0.182385
0.790069 0.695042 -0.561529
0.875219 0.677172 -0.492084
0.908328 0.661542 -0.207620
0.924319 0.650582 0.253822
0.933829 0.640505 0.348819
0.940455 0.631745 0.396709
0.949722 0.627926 0.428040
0.538627 0.717432 0.378198
0.539983 0.717640 0.377905
0.545781 0.718582 0.376626
0.557396 0.720278 0.373914
0.575555 0.723068 0.369140
0.600696 0.726743 0.361377
0.633018 0.731370 0.349072
0.672943 0.736684 0.329690
0.720668 0.742437 0.298699
0.774285 0.750820 0.145567
0.858557 0.767906 -0.618722
0.934372 0.741228 -0.562107
0.955395 0.716663 -0.301388
0.963239 0.698235 0.218910
0.967120 0.683626 0.344594
0.972941 0.675364 0.404194
0.571935 0.775821 0.416204
0.573081 0.776046 0.415968
0.578081 0.776756 0.414895
0.588077 0.778306 0.412606
0.603821 0.780649 0.408660
0.625656 0.783943 0.402392
0.653766 0.788049 0.392785
0.688503 0.792879 0.378305
0.729945 0.798238 0.356329
0.778714 0.803809 0.322376
0.831372 0.813906 0.048327
0.916623 0.830359 -0.667613
0.972508 0.796454 -0.622717
0.983868 0.764353 -0.372770
0.987782 0.740872 0.158437
0.990919 0.727229 0.333763
0.600067 0.825206 0.448345
0.601051 0.825313 0.448147
0.605352 0.825993 0.447207
0.613997 0.827344 0.445270
0.627679 0.829330 0.441951
0.646631 0.832242 0.436805
0.671220 0.835847 0.429080
0.701510 0.840199 0.417797
0.737680 0.845203 0.401368
0.780091 0.850509 0.377231
0.829079 0.855909 0.340866
0.880415 0.867623 -0.201444
0.957704 0.883059 -0.708892
0.993556 0.843401 -0.674391
0.998368 0.806531 -0.432025
0.999958 0.784429 0.035787
0.623481 0.866250 0.475099
0.624363 0.866426 0.474904
0.628091 0.867014 0.474101
0.635576 0.868111 0.472449
0.647443 0.869924 0.469639
0.663957 0.872377 0.465317
0.685444 0.875635 0.459026
0.712009 0.879488 0.449981
0.743673 0.883992 0.437197
0.780766 0.888933 0.419046
0.823481 0.894131 0.393053
0.872194 0.899323 0.354822
0.921109 0.912508 -0.299788
0.983151 0.926987 -0.743284
1.006919 0.884411 -0.718886
1.029111 0.849973 -0.493997
0.643815 0.901910 0.498307
0.644576 0.902051 0.498143
0.647790 0.902528 0.497443
0.654318 0.903496 0.495947
0.664667 0.905092 0.493605
0.679173 0.907252 0.489942
0.698063 0.910124 0.484687
0.721348 0.913553 0.477305
0.749237 0.917558 0.467045
0.781843 0.922098 0.452916
0.819405 0.927022 0.433267
0.862069 0.932057 0.405769
0.909929 0.937015 0.366175
0.951811 0.951501 -0.369752
0.997137 0.964985 -0.773128
1.046568 0.927151 -0.764774
0.664559 0.938375 0.522055
0.665230 0.938433 0.521915
0.668137 0.938936 0.521282
0.673915 0.939757 0.520036
0.683043 0.941197 0.517933
0.695952 0.943105 0.514786
0.712636 0.945629 0.510263
0.733347 0.948711 0.504064
0.758317 0.952362 0.495588
0.787390 0.956526 0.484149
0.820850 0.961077 0.468632
0.858832 0.965944 0.447526
0.901441 0.970829 0.418446
0.944278 0.975574 0.376545
0.977173 0.991010 -0.437809
1.018927 1.003509 -0.803641
0.117144 0.000000 0.000000
0.152907 0.012363 0.001190
0.193622 0.031270 0.005679
0.241168 0.056424 0.015353
0.296771 0.088703 0.032905
0.358636 0.126641 0.060495
0.424280 0.166972 0.099203
0.490724 0.207802 0.142995
0.554758 0.247165 0.185192
0.612998 0.282929 0.223554
0.663485 0.313976 0.256824
0.706657 0.340498 0.285295
0.743097 0.362906 0.309297
0.773527 0.381559 0.329308
0.799795 0.397726 0.346679
0.826712 0.414302 0.364398
0.144730 0.032401 0.002161
0.165674 0.035121 -0.040498
0.201437 0.043067 0.007242
0.245137 0.063879 0.017037
0.299144 0.093709 0.034462
0.360212 0.130046 0.061926
0.425396 0.169426 0.100519
0.491571 0.209685 0.143997
0.555452 0.248659 0.186001
0.613553 0.284184 0.224237
0.663979 0.315075 0.257416
0.707091 0.341491 0.285813
0.743557 0.363802 0.309790
0.773891 0.382390 0.329764
0.800136 0.398522 0.347081
0.827096 0.415040 0.364802
0.176137 0.081986 0.010324
0.183579 0.083066 0.009720
0.220952 0.088869 -0.086624
0.268637 0.098650 0.018616
0.316829 0.124339 0.042410
0.374138 0.156379 0.072538
0.436798 0.192134 0.112129
0.501133 0.229320 0.154250
0.563543 0.265666 0.194947
0.620453 0.298893 0.232015
0.669902 0.327760 0.264155
0.712197 0.352407 0.291658
0.747902 0.373253 0.314824
0.777651 0.390646 0.334148
0.803482 0.405723 0.350924
0.830006 0.421399 0.368192
0.212820 0.146037 0.027910
0.216701 0.146612 0.027453
0.239111 0.149866 0.023469
0.285449 0.157489 -0.140449
0.348478 0.170156 0.025808
0.401477 0.197705 0.078986
0.459749 0.229839 0.126190
0.520529 0.263469 0.169542
0.580034 0.296288 0.209742
0.634519 0.326026 0.245593
0.681919 0.351581 0.276341
0.722451 0.373300 0.302470
0.756786 0.391541 0.324373
0.785344 0.406624 0.342538
0.810149 0.419774 0.358323
0.835825 0.433892 0.374821
0.255725 0.221291 0.059819
0.258052 0.221623 0.059433
0.274832 0.224158 0.055934
0.306615 0.228457 0.045350
0.360923 0.237887 -0.203434
0.437823 0.251616 0.007909
0.493847 0.278610 0.117470
0.550599 0.308691 0.178143
0.606111 0.337933 0.223887
0.656933 0.363891 0.261300
0.701137 0.385621 0.291873
0.738982 0.403645 0.316980
0.770962 0.418480 0.337709
0.797538 0.430508 0.354592
0.820809 0.440928 0.369158
0.845268 0.452873 0.384591
0.303463 0.305007 0.109604
0.304988 0.305231 0.109275
0.318370 0.307256 0.105992
0.344148 0.311006 0.097177
0.383337 0.315964 0.076257
0.444914 0.327353 -0.273515
0.532134 0.339924 -0.144478
0.588977 0.363339 0.143278
0.641196 0.388341 0.221461
0.687912 0.410371 0.270329
0.728065 0.428019 0.305301
0.762310 0.442060 0.331892
0.791079 0.453095 0.352593
0.814983 0.461520 0.368814
0.835993 0.468767 0.382440
0.858727 0.478020 0.396944
0.354078 0.393773 0.167423
0.355192 0.393958 0.167191
0.366265 0.395640 0.164637
0.387816 0.398861 0.158363
0.420754 0.403492 0.144799
0.465963 0.408808 0.115083
0.533979 0.422181 -0.347833
0.626975 0.431076 -0.234437
0.681915 0.447604 0.148320
0.726108 0.464290 0.252176
0.762285 0.477378 0.306091
0.792330 0.487133 0.340729
0.817364 0.494074 0.364926
0.837956 0.498663 0.382438
0.856032 0.502417 0.396253
0.876486 0.508765 0.410460
0.405353 0.483717 0.225983
0.406198 0.483850 0.225804
0.415511 0.485267 0.223701
0.433891 0.488026 0.218866
0.462158 0.492153 0.209247
0.500812 0.497357 0.190793
0.550778 0.502892 0.154009
0.624151 0.518256 -0.423083
0.718708 0.520544 -0.324552
0.767887 0.526830 0.118460
0.801752 0.533540 0.268228
0.828414 0.538182 0.330830
0.849500 0.540603 0.367387
0.866360 0.541104 0.390796
0.881005 0.541074 0.407380
0.898688 0.544287 0.422852
0.454729 0.570378 0.282374
0.455412 0.570465 0.282222
0.463370 0.571635 0.280482
0.479142 0.574045 0.276579
0.503553 0.577668 0.269224
0.537076 0.582455 0.256159
0.580077 0.587987 0.232982
0.633282 0.593822 0.184346
0.711026 0.610799 -0.495596
0.802528 0.603454 -0.411938
0.843325 0.598039 0.029781
0.868068 0.595546 0.269572
0.886267 0.592371 0.345055
0.899479 0.588208 0.385585
0.910423 0.584138 0.410720
0.924015 0.584006 0.430684
0.499649 0.649135 0.333691
0.500231 0.649240 0.333551
0.507017 0.650231 0.332092
0.520606 0.652289 0.328863
0.541686 0.655520 0.322983
0.570785 0.659717 0.313159
0.608132 0.664888 0.296749
0.654228 0.670624 0.269320
0.708280 0.677546 0.184005
0.790068 0.695042 -0.561529
0.875136 0.676967 -0.491325
0.908170 0.661214 -0.205142
0.924122 0.650245 0.254745
0.933601 0.640245 0.349223
0.940290 0.631389 0.396881
0.949553 0.627589 0.428126
0.538627 0.717432 0.378198
0.539113 0.717490 0.378074
0.544929 0.718365 0.376832
0.556599 0.720161 0.374104
0.574830 0.722949 0.369339
0.600040 0.726666 0.361599
0.632480 0.731310 0.349307
0.672462 0.736613 0.329934
0.720320 0.742368 0.298939
0.774174 0.750759 0.147445
0.858557 0.767906 -0.618722
0.934371 0.741119 -0.561670
0.955270 0.716467 -0.300007
0.963166 0.698016 0.219924
0.966980 0.683435 0.344976
0.972849 0.675165 0.404350
0.571935 0.775821 0.416204
0.572381 0.775903 0.416122
0.577352 0.776677 0.415049
0.587401 0.778247 0.412769
0.603185 0.780527 0.408814
0.625057 0.783838 0.402583
0.653253 0.788010 0.392979
0.688089 0.792865 0.378489
0.729568 0.798183 0.356507
0.778470 0.803815 0.322552
0.831286 0.813877 0.050659
0.916623 0.830359 -0.667613
0.972530 0.796221 -0.622167
0.983860 0.764131 -0.371777
0.987743 0.740644 0.159821
0.990887 0.726960 0.334268
0.600067 0.825206 0.448345
0.600460 0.825241 0.448267
0.604804 0.825896 0.447337
0.613438 0.827246 0.445412
0.627123 0.829253 0.442084
0.646123 0.832199 0.436929
0.670743 0.835763 0.429241
0.701107 0.840189 0.417988
0.737389 0.845131 0.401532
0.779821 0.850487 0.377364
0.828857 0.855876 0.341005
0.880328 0.867547 -0.198624
0.957704 0.883059 -0.708892
0.993572 0.843269 -0.674056
0.998362 0.806474 -0.431474
0.999954 0.784220 0.038314
0.623481 0.866250 0.475099
0.623879 0.866318 0.475034
0.627599 0.866919 0.474224
0.635126 0.868009 0.472568
0.646956 0.869839 0.469729
0.663528 0.872301 0.465440
0.685034 0.875556 0.459148
0.711634 0.879472 0.450110
0.743324 0.883918 0.437335
0.780516 0.888927 0.419190
0.823225 0.894128 0.393172
0.872014 0.899294 0.354983
0.921089 0.912501 -0.298559
0.983151 0.926987 -0.743284
1.006917 0.884328 -0.718591
1.029071 0.849881 -0.493634
0.643815 0.901910 0.498307
0.644158 0.901939 0.498225
0.647392 0.902447 0.497558
0.653958 0.903444 0.496078
0.664307 0.905063 0.493671
0.678820 0.907199 0.490053
0.697674 0.910061 0.484788
0.721061 0.913519 0.477391
0.748953 0.917487 0.467156
0.781587 0.922093 0.453022
0.819192 0.927031 0.433385
0.861866 0.932023 0.405858
0.909862 0.936997 0.366237
0.951699 0.951457 -0.368815
0.997137 0.964985 -0.773128
1.046571 0.927089 -0.764521
0.664559 0.938375 0.522055
0.664900 0.938402 0.521978
0.667809 0.938838 0.521351
0.673538 0.939721 0.520089
0.682725 0.941141 0.518005
0.695597 0.943030 0.514859
0.712411 0.945561 0.510343
0.733112 0.948673 0.504133
0.758084 0.952349 0.495660
0.787148 0.956533 0.484268
0.820732 0.961106 0.468715
0.858615 0.965902 0.447634
0.901359 0.970842 0.418553
0.944248 0.975560 0.376631
0.977132 0.990980 -0.437169
1.018927 1.003509 -0.803641
0.118672 0.000558 0.000035
0.155395 0.013425 0.001381
0.193623 0.031276 0.005693
0.241177 0.056454 0.015467
0.296813 0.088771 0.033274
0.358662 0.126752 0.061254
0.424331 0.167100 0.100350
0.490765 0.207934 0.144207
0.554795 0.247285 0.186352
0.613011 0.283044 0.224591
0.663516 0.314077 0.257662
0.706682 0.340540 0.285925
0.743121 0.362977 0.309807
0.773535 0.381614 0.329663
0.799797 0.397752 0.346922
0.826708 0.414321 0.364593
0.146689 0.035163 0.002511
0.165670 0.035118 -0.040247
0.201413 0.043078 0.007262
0.245078 0.063927 0.017140
0.299025 0.093835 0.034770
0.360029 0.130227 0.062538
0.425205 0.169641 0.101442
0.491360 0.209919 0.144967
0.555258 0.248890 0.186925
0.613374 0.284402 0.225052
0.663823 0.315233 0.258084
0.706984 0.341617 0.286330
0.743423 0.363905 0.310176
0.773874 0.382481 0.330043
0.800156 0.398562 0.347307
0.827054 0.415086 0.364928
0.176149 0.081984 0.010346
0.183595 0.083065 0.009747
0.220949 0.088871 -0.086534
0.265138 0.093753 0.019737
0.311434 0.115945 0.040769
0.368356 0.146177 0.068630
0.431199 0.181465 0.106850
0.495981 0.219064 0.148961
0.558993 0.256267 0.190040
0.616530 0.290635 0.227648
0.666592 0.320704 0.260437
0.709418 0.346572 0.288566
0.745690 0.368529 0.312307
0.775858 0.386811 0.332090
0.802036 0.402744 0.349324
0.828912 0.418983 0.366949
0.212906 0.146031 0.028112
0.216748 0.146611 0.027604
0.235645 0.149393 0.024274
0.285448 0.157496 -0.140408
0.345897 0.166255 0.030329
0.397230 0.191641 0.079648
0.454982 0.222570 0.124323
0.515842 0.255756 0.166518
0.575734 0.288741 0.206317
0.630769 0.319078 0.242245
0.678702 0.345411 0.273296
0.719760 0.368042 0.299799
0.754614 0.387201 0.322135
0.783527 0.403071 0.340717
0.808760 0.416930 0.356830
0.834748 0.431628 0.373624
0.255907 0.221271 0.060485
0.258173 0.221611 0.059883
0.269775 0.223407 0.057136
0.303730 0.228103 0.046576
0.360922 0.237887 -0.203404
0.435978 0.248519 0.018422
0.490599 0.274061 0.120660
0.546836 0.303280 0.178230
0.602345 0.332262 0.222566
0.653476 0.358386 0.259363
0.698142 0.380571 0.289729
0.736438 0.399197 0.314964
0.768888 0.414676 0.335874
0.795861 0.427314 0.353033
0.819415 0.438377 0.367854
0.844277 0.450780 0.383556
0.303715 0.304965 0.110862
0.305183 0.305223 0.110122
0.312894 0.306431 0.107458
0.340034 0.310443 0.098846
0.381037 0.315701 0.077781
0.444913 0.327352 -0.273495
0.530970 0.337415 -0.130016
0.586563 0.359842 0.148364
0.638326 0.384289 0.222939
0.685016 0.406167 0.270187
0.725424 0.423991 0.304427
0.759887 0.438384 0.330703
0.789117 0.449853 0.351345
0.813411 0.458778 0.367667
0.834719 0.466510 0.381409
0.857677 0.476176 0.396051
0.354382 0.393793 0.168939
0.355377 0.393914 0.168227
0.360883 0.394844 0.165937
0.383372 0.398173 0.159829
0.417505 0.403051 0.146408
0.464157 0.408639 0.116636
0.533979 0.422180 -0.347821
0.626279 0.429079 -0.226361
0.680073 0.444887 0.155495
0.723976 0.461231 0.254522
0.760014 0.474272 0.306718
0.790310 0.484191 0.340542
0.815583 0.491397 0.364344
0.836461 0.496350 0.381753
0.854839 0.500467 0.395533
0.875472 0.507101 0.409768
0.405693 0.483692 0.227579
0.406421 0.483820 0.226888
0.410550 0.484522 0.224878
0.429519 0.487385 0.220133
0.458597 0.491656 0.210627
0.498224 0.497047 0.192268
0.549346 0.502738 0.155344
0.624151 0.518256 -0.423074
0.718143 0.519006 -0.318012
0.766559 0.524767 0.128724
0.800208 0.531242 0.271086
0.826713 0.535823 0.331929
0.847983 0.538487 0.367686
0.865029 0.539175 0.390667
0.879951 0.539401 0.407058
0.897767 0.542881 0.422438
0.455078 0.570312 0.283898
0.455659 0.570448 0.283299
0.458924 0.570962 0.281480
0.475077 0.573439 0.277651
0.500039 0.577183 0.270413
0.534237 0.582083 0.257427
0.578061 0.587712 0.234308
0.632284 0.593639 0.187654
0.711026 0.610799 -0.495587
0.802127 0.602209 -0.406994
0.842406 0.596414 0.044694
0.866916 0.593782 0.272774
0.885084 0.590682 0.346394
0.898368 0.586642 0.386120
0.909517 0.582754 0.410822
0.923217 0.582780 0.430557
0.499957 0.649131 0.335038
0.500426 0.649231 0.334454
0.503142 0.649644 0.332950
0.516963 0.651721 0.329749
0.538476 0.654996 0.323962
0.568007 0.659343 0.314163
0.605907 0.664576 0.297835
0.652647 0.670396 0.270416
0.707667 0.677283 0.189946
0.790068 0.695042 -0.561523
0.874867 0.676036 -0.487835
0.907589 0.660012 -0.195389
0.923324 0.648962 0.258363
0.932814 0.638982 0.350674
0.939643 0.630293 0.397489
0.949016 0.626595 0.428358
0.538864 0.717354 0.379287
0.539282 0.717481 0.378822
0.541690 0.717886 0.377528
0.553490 0.719726 0.374852
0.571987 0.722414 0.370139
0.597526 0.726251 0.362432
0.630320 0.731000 0.350220
0.670774 0.736447 0.330893
0.719124 0.742195 0.299868
0.773637 0.750628 0.155696
0.858557 0.767905 -0.618716
0.934260 0.740400 -0.559166
0.954969 0.715489 -0.294996
0.962704 0.697075 0.223813
0.966583 0.682479 0.346522
0.972509 0.674293 0.405070
0.572119 0.775791 0.417092
0.572493 0.775890 0.416699
0.574671 0.776289 0.415610
0.584814 0.777803 0.413383
0.600757 0.780198 0.409438
0.622866 0.783525 0.403237
0.651363 0.787714 0.393688
0.686488 0.792633 0.379247
0.728341 0.798121 0.357306
0.777581 0.803755 0.323277
0.830878 0.813753 0.063500
0.916623 0.830359 -0.667608
0.972485 0.795801 -0.620640
0.983757 0.763401 -0.368689
0.987562 0.740049 0.164448
0.990664 0.726322 0.335690
0.600200 0.825181 0.449004
0.600556 0.825225 0.448695
0.602565 0.825571 0.447804
0.611327 0.826918 0.445891
0.625139 0.828974 0.442612
0.644252 0.831881 0.437483
0.669072 0.835507 0.429793
0.699663 0.839962 0.418536
0.736172 0.844993 0.402167
0.778874 0.850398 0.377999
0.828194 0.855855 0.341605
0.880005 0.867411 -0.190508
0.957704 0.883059 -0.708884
0.993554 0.842882 -0.672990
0.998335 0.805879 -0.429358
0.999940 0.783722 0.045530
0.623583 0.866249 0.475557
0.623952 0.866337 0.475325
0.625834 0.866639 0.474598
0.633398 0.867754 0.472974
0.645342 0.869595 0.470146
0.662018 0.872086 0.465841
0.683637 0.875347 0.459591
0.710385 0.879269 0.450568
0.742260 0.883759 0.437816
0.779566 0.888777 0.419698
0.822556 0.894036 0.393675
0.871466 0.899247 0.355435
0.920822 0.912385 -0.294677
0.983151 0.926987 -0.743276
1.006911 0.884000 -0.717772
1.028914 0.849486 -0.491900
0.643837 0.901896 0.498616
0.644173 0.901930 0.498427
0.646044 0.902263 0.497825
0.652596 0.903242 0.496386
0.662973 0.904872 0.493966
0.677653 0.907030 0.490375
0.696562 0.909847 0.485120
0.719979 0.913320 0.477754
0.748019 0.917421 0.467516
0.780838 0.921993 0.453399
0.818518 0.926892 0.433796
0.861399 0.931967 0.406258
0.909482 0.936927 0.366612
0.951581 0.951423 -0.366401
0.997137 0.964985 -0.773123
1.046579 0.926825 -0.764037
0.664606 0.938364 0.522272
0.664934 0.938395 0.522106
0.666686 0.938661 0.521623
0.672502 0.939542 0.520339
0.681722 0.940988 0.518245
0.694633 0.942907 0.515106
0.711444 0.945473 0.510631
0.732359 0.948526 0.504412
0.757313 0.952221 0.495948
0.786492 0.956373 0.484561
0.820031 0.960985 0.469043
0.858147 0.965846 0.447949
0.900944 0.970748 0.418883
0.943988 0.975543 0.377010
0.977032 0.990960 -0.435656
1.018927 1.003509 -0.803636
0.137775 0.012362 0.007337
0.160654 0.019842 0.008177
0.198324 0.038065 0.012698
0.238676 0.059606 0.021322
0.294102 0.092174 0.041597
0.355926 0.130086 0.072123
0.421686 0.170232 0.112867
0.488389 0.210790 0.155747
0.552722 0.249784 0.196692
0.611303 0.285158 0.233563
0.662148 0.315770 0.265249
0.705722 0.341901 0.292191
0.742523 0.363943 0.314852
0.773202 0.382291 0.333700
0.799722 0.398186 0.350066
0.826845 0.414615 0.367103
0.159474 0.039134 0.011208
0.166469 0.035818 0.010622
0.201619 0.048723 0.014957
0.241924 0.067058 0.023454
0.296227 0.097051 0.043148
0.357478 0.133285 0.073146
0.422887 0.172449 0.113392
0.489369 0.212432 0.155905
0.553566 0.251071 0.196666
0.612037 0.286221 0.233471
0.662800 0.316692 0.265188
0.706285 0.342764 0.292154
0.742981 0.364737 0.314880
0.773635 0.383071 0.333784
0.800133 0.398946 0.350258
0.827063 0.415405 0.367410
0.187657 0.089563 0.022257
0.192748 0.088752 0.022071
0.220053 0.087950 0.005859
0.260738 0.096127 0.030631
0.307973 0.118629 0.050131
0.365574 0.148739 0.078593
0.428848 0.183819 0.116953
0.494174 0.221053 0.157800
0.557561 0.257963 0.197710
0.615331 0.292081 0.234245
0.665538 0.321961 0.266033
0.708430 0.347696 0.293254
0.744830 0.369484 0.316264
0.775136 0.387573 0.335392
0.801472 0.403373 0.352034
0.828406 0.419558 0.369216
0.216935 0.145602 0.037720
0.220606 0.146167 0.037565
0.237661 0.149098 0.035324
0.285008 0.157021 -0.114523
0.338762 0.160142 0.049129
0.387573 0.181467 0.086777
0.445101 0.209816 0.124958
0.506619 0.242116 0.164089
0.567483 0.275495 0.202751
0.623709 0.307156 0.238610
0.672894 0.335367 0.270135
0.715034 0.359899 0.297319
0.750838 0.380810 0.320447
0.780716 0.398373 0.339809
0.806602 0.413671 0.356606
0.833253 0.429435 0.373847
0.259669 0.220858 0.073803
0.261788 0.221212 0.073129
0.272353 0.223078 0.069630
0.299330 0.227335 0.058887
0.360670 0.237607 -0.189270
0.431169 0.243344 0.049966
0.483511 0.266399 0.132690
0.539098 0.294131 0.182310
0.594952 0.322605 0.223161
0.646892 0.349144 0.258416
0.692504 0.372314 0.288352
0.731827 0.392243 0.313681
0.765268 0.409098 0.334940
0.793091 0.423135 0.352552
0.817320 0.435429 0.367892
0.842672 0.448780 0.383955
0.307254 0.304591 0.126249
0.308561 0.304831 0.125224
0.315422 0.306118 0.120674
0.333667 0.309245 0.110030
0.377224 0.315188 0.090075
0.444714 0.327137 -0.264382
0.528043 0.333115 -0.039111
0.581449 0.353876 0.163836
0.632471 0.377504 0.229423
0.679296 0.399259 0.272894
0.720320 0.417515 0.305365
0.755633 0.432752 0.330934
0.785688 0.445199 0.351403
0.810715 0.455194 0.367797
0.832673 0.463921 0.381818
0.856126 0.474385 0.396707
0.357639 0.393416 0.183345
0.358518 0.393594 0.182192
0.363217 0.394551 0.177491
0.376239 0.396901 0.168093
0.412154 0.402206 0.155656
0.461081 0.408278 0.127360
0.533831 0.422045 -0.341383
0.624543 0.425574 -0.197982
0.676360 0.440275 0.174785
0.719568 0.456208 0.262636
0.755829 0.469356 0.310807
0.786440 0.479711 0.342749
0.812430 0.487588 0.365672
0.833930 0.493363 0.382705
0.852850 0.498277 0.396428
0.873945 0.505553 0.410716
0.408656 0.483360 0.240749
0.409240 0.483514 0.239611
0.412666 0.484269 0.235039
0.422428 0.486099 0.226601
