assets/luts/Angelic.cube
LUT_3D_SIZE 16
0.128433 0.102529 0.120448
0.191385 0.102529 0.120448
0.242998 0.102529 0.120448
0.294248 0.102529 0.120448
0.347198 0.102529 0.120448
0.401736 0.102529 0.120448
0.456914 0.102529 0.120448
0.511973 0.102529 0.120448
0.566282 0.102529 0.120448
0.621412 0.102529 0.120448
0.677402 0.102529 0.120448
0.734293 0.102529 0.120448
0.792902 0.102529 0.120448
0.853516 0.102529 0.120448
0.919040 0.102529 0.120448
0.999969 0.102529 0.120448
0.128433 0.153377 0.120448
0.191385 0.153377 0.120448
0.242998 0.128009 0.120448
0.294248 0.120372 0.120448
0.347198 0.117061 0.120448
0.401736 0.115358 0.120448
0.456914 0.114388 0.120448
0.511973 0.113812 0.120448
0.566282 0.113449 0.120448
0.621412 0.113331 0.120448
0.677402 0.113387 0.120448
0.734293 0.113588 0.120448
0.792902 0.113926 0.120448
0.853516 0.114394 0.120448
0.919040 0.115074 0.120448
0.999969 0.116374 0.120448
0.128433 0.195586 0.120448
0.160064 0.195586 0.120448
0.242998 0.195586 0.120448
0.294248 0.172336 0.120448
0.347198 0.161516 0.120448
0.401736 0.155720 0.120448
0.456914 0.152325 0.120448
0.511973 0.150229 0.120448
0.566282 0.148953 0.120448
0.621412 0.148523 0.120448
0.677402 0.148736 0.120448
0.734293 0.149446 0.120448
0.792902 0.150658 0.120448
0.853516 0.152334 0.120448
0.919040 0.154710 0.120448
0.999969 0.159181 0.120448
0.128433 0.238129 0.120448
0.150600 0.238129 0.120448
0.214644 0.238129 0.120448
0.294248 0.238129 0.120448
0.347198 0.219745 0.120448
0.401736 0.209681 0.120448
0.456914 0.203706 0.120448
0.511973 0.200034 0.120448
0.566282 0.197766 0.120448
0.621412 0.196996 0.120448
0.677402 0.197367 0.120448
0.734293 0.198647 0.120448
0.792902 0.200780 0.120448
0.853516 0.203731 0.120448
0.919040 0.207910 0.120448
0.999969 0.215700 0.120448
0.128433 0.282954 0.120448
0.146497 0.282954 0.120448
0.201382 0.282954 0.120448
0.272188 0.282954 0.120448
0.347198 0.282954 0.120448
0.401736 0.268858 0.120448
0.456914 0.260436 0.120448
0.511973 0.255217 0.120448
0.566282 0.252004 0.120448
0.621412 0.250904 0.120448
0.677402 0.251429 0.120448
0.734293 0.253250 0.120448
0.792902 0.256279 0.120448
0.853516 0.260467 0.120448
0.919040 0.266365 0.120448
0.999969 0.277303 0.120448
0.128433 0.330263 0.120448
0.144382 0.330263 0.120448
0.194265 0.330263 0.120448
0.260066 0.330263 0.120448
0.330664 0.330263 0.120448
0.401736 0.330263 0.120448
0.456914 0.319467 0.120448
0.511973 0.312756 0.120448
0.566282 0.308652 0.120448
0.621412 0.307222 0.120448
0.677402 0.307918 0.120448
0.734293 0.310237 0.120448
0.792902 0.314129 0.120448
0.853516 0.319499 0.120448
0.919040 0.327086 0.120448
0.999969 0.341066 0.120448
0.128433 0.379634 0.120448
0.143177 0.379634 0.120448
0.190087 0.379634 0.120448
0.252847 0.379634 0.120448
0.320737 0.379634 0.120448
0.389440 0.379634 0.120448
0.456914 0.379634 0.120448
0.511973 0.371437 0.120448
0.566282 0.366450 0.120448
0.621412 0.364705 0.120448
0.677402 0.365550 0.120448
0.734293 0.368407 0.120448
0.792902 0.373125 0.120448
0.853516 0.379691 0.120448
0.919040 0.388845 0.120448
0.999969 0.405910 0.120448
0.128433 0.430862 0.120448
0.142458 0.430862 0.120448
0.187512 0.430862 0.120448
0.248381 0.430862 0.120448
0.314566 0.430862 0.120448
0.381719 0.430862 0.120448
0.447889 0.430862 0.120448
0.511973 0.430862 0.120448
0.566282 0.424926 0.120448
0.621412 0.422894 0.120448
0.677402 0.423856 0.120448
0.734293 0.427216 0.120448
0.792902 0.432799 0.120448
0.853516 0.440476 0.120448
0.919040 0.451311 0.120448
0.999969 0.471307 0.120448
0.128433 0.483765 0.120448
0.142005 0.483765 0.120448
0.185927 0.483765 0.120448
0.245642 0.483765 0.120448
0.310748 0.483765 0.120448
0.376989 0.483765 0.120448
0.442355 0.483765 0.120448
0.505727 0.483765 0.120448
0.566282 0.483765 0.120448
0.621412 0.481461 0.120448
0.677402 0.482559 0.120448
0.734293 0.486400 0.120448
0.792902 0.492801 0.120448
0.853516 0.501674 0.120448
0.919040 0.514077 0.120448
0.999969 0.537026 0.120448
0.128433 0.540271 0.120448
0.141858 0.540271 0.120448
0.185410 0.540271 0.120448
0.244705 0.540271 0.120448
0.309449 0.540271 0.120448
0.375367 0.540271 0.120448
0.440425 0.540271 0.120448
0.503586 0.540271 0.120448
0.563944 0.540271 0.120448
0.621412 0.540271 0.120448
0.677402 0.541499 0.120448
0.734293 0.545869 0.120448
0.792902 0.553087 0.120448
0.853516 0.563057 0.120448
0.919040 0.577093 0.120448
0.999969 0.602970 0.120448
0.128433 0.600706 0.120448
0.141928 0.600706 0.120448
0.185662 0.600706 0.120448
0.245153 0.600706 0.120448
0.310075 0.600706 0.120448
0.376165 0.600706 0.120448
0.441353 0.600706 0.120448
0.504591 0.600706 0.120448
0.565070 0.600706 0.120448
0.622556 0.600706 0.120448
0.677402 0.600706 0.120448
0.734293 0.605537 0.120448
0.792902 0.613578 0.120448
0.853516 0.624706 0.120448
0.919040 0.640300 0.120448
0.999969 0.669175 0.120448
0.128433 0.665248 0.120448
0.142179 0.665248 0.120448
0.186543 0.665248 0.120448
0.246710 0.665248 0.120448
0.312251 0.665248 0.120448
0.378827 0.665248 0.120448
0.444513 0.665248 0.120448
0.508161 0.665248 0.120448
0.568916 0.665248 0.120448
0.626736 0.665248 0.120448
0.681785 0.665248 0.120448
0.734293 0.665248 0.120448
0.792902 0.674105 0.120448
0.853516 0.686450 0.120448
0.919040 0.703556 0.120448
0.999969 0.735357 0.120448
0.128433 0.734824 0.120448
0.142599 0.734824 0.120448
0.188035 0.734824 0.120448
0.249288 0.734824 0.120448
0.315815 0.734824 0.120448
0.383296 0.734824 0.120448
0.449750 0.734824 0.120448
0.514021 0.734824 0.120448
0.575292 0.734824 0.120448
0.633507 0.734824 0.120448
0.689000 0.734824 0.120448
0.741965 0.734824 0.120448
0.792902 0.734824 0.120448
0.853516 0.748114 0.120448
0.919040 0.766919 0.120448
0.999969 0.801571 0.120448
0.128433 0.809936 0.120448
0.143183 0.809936 0.120448
0.190095 0.809936 0.120448
0.252875 0.809936 0.120448
0.320768 0.809936 0.120448
0.389486 0.809936 0.120448
0.456952 0.809936 0.120448
0.522060 0.809936 0.120448
0.584046 0.809936 0.120448
0.642869 0.809936 0.120448
0.698949 0.809936 0.120448
0.752452 0.809936 0.120448
0.803815 0.809936 0.120448
0.853516 0.809936 0.120448
0.919040 0.830339 0.120448
0.999969 0.867910 0.120448
0.128433 0.893885 0.120448
0.144025 0.893885 0.120448
0.193022 0.893885 0.120448
0.257939 0.893885 0.120448
0.327752 0.893885 0.120448
0.398087 0.893885 0.120448
0.467006 0.893885 0.120448
0.533309 0.893885 0.120448
0.596166 0.893885 0.120448
0.655873 0.893885 0.120448
0.712642 0.893885 0.120448
0.766910 0.893885 0.120448
0.819019 0.893885 0.120448
0.869599 0.893885 0.120448
0.919040 0.893885 0.120448
0.999969 0.934422 0.120448
0.128433 0.999965 0.120448
0.145640 0.999965 0.120448
0.198515 0.999965 0.120448
0.267326 0.999965 0.120448
0.340592 0.999965 0.120448
0.413971 0.999965 0.120448
0.485439 0.999965 0.120448
0.553743 0.999965 0.120448
0.618272 0.999965 0.120448
0.679443 0.999965 0.120448
0.737687 0.999965 0.120448
0.793316 0.999965 0.120448
0.846882 0.999965 0.120448
0.898979 0.999965 0.120448
0.950081 0.999965 0.120448
0.999969 0.999965 0.120448
0.128433 0.102529 0.179666
0.191385 0.102529 0.179666
0.242998 0.102529 0.150185
0.294248 0.102529 0.141285
0.347198 0.102529 0.137423
0.401736 0.102529 0.135434
0.456914 0.102529 0.134303
0.511973 0.102529 0.133623
0.566282 0.102529 0.133204
0.621412 0.102529 0.133064
0.677402 0.102529 0.133129
0.734293 0.102529 0.133366
0.792902 0.102529 0.133756
0.853516 0.102529 0.134308
0.919040 0.102529 0.135098
0.999969 0.102529 0.136618
0.128433 0.153377 0.179666
0.191385 0.153377 0.179666
0.242998 0.153377 0.179666
0.294248 0.153377 0.179666
0.347198 0.153377 0.179666
0.401736 0.153377 0.179666
0.456914 0.153377 0.179666
0.511973 0.153377 0.179666
0.566282 0.153377 0.179666
0.621412 0.153377 0.179666
0.677402 0.153377 0.179666
0.734293 0.153377 0.179666
0.792902 0.153377 0.179666
0.853516 0.153377 0.179666
0.919040 0.153377 0.179666
0.999969 0.153377 0.179666
0.128433 0.195586 0.150185
0.191385 0.195586 0.179666
0.242998 0.195586 0.179666
0.294248 0.187432 0.179666
0.347198 0.183269 0.179666
0.401736 0.180944 0.179666
0.456914 0.179518 0.179666
0.511973 0.178659 0.179666
0.566282 0.178136 0.179666
0.621412 0.178045 0.179666
0.677402 0.178299 0.179666
0.734293 0.178867 0.179666
0.792902 0.179693 0.179666
0.853516 0.180807 0.179666
0.919040 0.182378 0.179666
0.999969 0.185325 0.179666
0.128433 0.238129 0.141285
0.191385 0.238129 0.179666
0.233091 0.238129 0.179666
0.294248 0.238129 0.179666
0.347198 0.228998 0.179666
0.401736 0.223756 0.179666
0.456914 0.220577 0.179666
0.511973 0.218598 0.179666
0.566282 0.217396 0.179666
0.621412 0.217214 0.179666
0.677402 0.217806 0.179666
0.734293 0.219083 0.179666
0.792902 0.220957 0.179666
0.853516 0.223483 0.179666
0.919040 0.227000 0.179666
0.999969 0.233493 0.179666
0.128433 0.282954 0.137423
0.191385 0.282954 0.179666
0.228009 0.282954 0.179666
0.283311 0.282954 0.179666
0.347198 0.282954 0.179666
0.401736 0.274876 0.179666
0.456914 0.269898 0.179666
0.511973 0.266801 0.179666
0.566282 0.264934 0.179666
0.621412 0.264651 0.179666
0.677402 0.265594 0.179666
0.734293 0.267568 0.179666
0.792902 0.270525 0.179666
0.853516 0.274454 0.179666
0.919040 0.279881 0.179666
0.999969 0.289900 0.179666
0.128433 0.330263 0.135434
0.191385 0.330263 0.179666
0.225174 0.330263 0.179666
0.277027 0.330263 0.179666
0.337741 0.330263 0.179666
0.401736 0.330263 0.179666
0.456914 0.323592 0.179666
0.511973 0.319402 0.179666
0.566282 0.316888 0.179666
0.621412 0.316504 0.179666
0.677402 0.317786 0.179666
0.734293 0.320428 0.179666
0.792902 0.324409 0.179666
0.853516 0.329691 0.179666
0.919040 0.336988 0.179666
0.999969 0.350321 0.179666
0.128433 0.379634 0.134303
0.191385 0.379634 0.179666
0.223428 0.379634 0.179666
0.273201 0.379634 0.179666
0.331885 0.379634 0.179666
0.394128 0.379634 0.179666
0.456914 0.379634 0.179666
0.511973 0.374401 0.179666
0.566282 0.371256 0.179666
0.621412 0.370816 0.179666
0.677402 0.372365 0.179666
0.734293 0.375695 0.179666
0.792902 0.380662 0.179666
0.853516 0.387244 0.179666
0.919040 0.396323 0.179666
0.999969 0.412842 0.179666
0.128433 0.430862 0.133623
0.191385 0.430861 0.179666
0.222388 0.430861 0.179666
0.270819 0.430861 0.179666
0.328258 0.430861 0.179666
0.389328 0.430861 0.179666
0.451142 0.430861 0.179666
0.511973 0.430861 0.179666
0.566282 0.427080 0.179666
0.621412 0.426501 0.179666
0.677402 0.428422 0.179666
0.734293 0.432377 0.179666
0.792902 0.438304 0.179666
0.853516 0.446172 0.179666
0.919040 0.456968 0.179666
0.999969 0.476677 0.179666
0.128433 0.483765 0.133204
0.191385 0.483765 0.179666
0.221745 0.483765 0.179666
0.269378 0.483765 0.179666
0.326042 0.483765 0.179666
0.386479 0.483765 0.179666
0.447666 0.483765 0.179666
0.508033 0.483765 0.179666
0.566282 0.483765 0.179666
0.621412 0.483077 0.179666
0.677402 0.485296 0.179666
0.734293 0.489888 0.179666
0.792902 0.496749 0.179666
0.853516 0.505892 0.179666
0.919040 0.518378 0.179666
0.999969 0.541188 0.179666
0.128433 0.540271 0.133064
0.191385 0.540271 0.179666
0.221635 0.540271 0.179666
0.269162 0.540271 0.179666
0.325711 0.540271 0.179666
0.386031 0.540271 0.179666
0.447168 0.540271 0.179666
0.507399 0.540271 0.179666
0.565590 0.540271 0.179666
0.621412 0.540271 0.179666
0.677402 0.542751 0.179666
0.734293 0.548008 0.179666
0.792902 0.555789 0.179666
0.853516 0.566128 0.179666
0.919040 0.580313 0.179666
0.999969 0.606162 0.179666
0.128433 0.600706 0.133129
0.191385 0.600706 0.179666
0.221947 0.600706 0.179666
0.269878 0.600706 0.179666
0.326828 0.600706 0.179666
0.387474 0.600706 0.179666
0.448899 0.600706 0.179666
0.509404 0.600706 0.179666
0.567802 0.600706 0.179666
0.623772 0.600706 0.179666
0.677402 0.600706 0.179666
0.734293 0.606488 0.179666
0.792902 0.615225 0.179666
0.853516 0.626829 0.179666
0.919040 0.642674 0.179666
0.999969 0.671577 0.179666
0.128433 0.665248 0.133366
0.191385 0.665248 0.179666
0.222642 0.665248 0.179666
0.271387 0.665248 0.179666
0.329152 0.665248 0.179666
0.390517 0.665248 0.179666
0.452567 0.665248 0.179666
0.513555 0.665248 0.179666
0.572391 0.665248 0.179666
0.628723 0.665248 0.179666
0.682642 0.665248 0.179666
0.734293 0.665248 0.179666
0.792902 0.674940 0.179666
0.853516 0.687761 0.179666
0.919040 0.705244 0.179666
0.999969 0.737141 0.179666
0.128433 0.734824 0.133756
0.191385 0.734824 0.179666
0.223648 0.734824 0.179666
0.273666 0.734824 0.179666
0.332616 0.734824 0.179666
0.395059 0.734824 0.179666
0.458024 0.734824 0.179666
0.519793 0.734824 0.179666
0.579197 0.734824 0.179666
0.636011 0.734824 0.179666
0.690472 0.734824 0.179666
0.742667 0.734824 0.179666
0.792902 0.734824 0.179666
0.853516 0.748721 0.179666
0.919040 0.767955 0.179666
0.999969 0.802852 0.179666
0.128433 0.809936 0.134308
0.191385 0.809936 0.179666
0.225009 0.809936 0.179666
0.276692 0.809936 0.179666
0.337231 0.809936 0.179666
0.401087 0.809936 0.179666
0.465221 0.809936 0.179666
0.527993 0.809936 0.179666
0.588175 0.809936 0.179666
0.645687 0.809936 0.179666
0.700812 0.809936 0.179666
0.753540 0.809936 0.179666
0.804355 0.809936 0.179666
0.853516 0.809936 0.179666
0.919040 0.830790 0.179666
0.999969 0.868701 0.179666
0.128433 0.893885 0.135098
0.191385 0.893885 0.179666
0.226920 0.893885 0.179666
0.280918 0.893885 0.179666
0.343617 0.893885 0.179666
0.409335 0.893885 0.179666
0.475096 0.893885 0.179666
0.539118 0.893885 0.179666
0.600372 0.893885 0.179666
0.658845 0.893885 0.179666
0.714736 0.893885 0.179666
0.768306 0.893885 0.179666
0.819884 0.893885 0.179666
0.869951 0.893885 0.179666
0.919040 0.893885 0.179666
0.999969 0.934798 0.179666
0.128433 0.999965 0.136618
0.191385 0.999965 0.179666
0.230502 0.999965 0.179666
0.288690 0.999965 0.179666
0.355272 0.999965 0.179666
0.424360 0.999965 0.179666
0.492888 0.999965 0.179666
0.559176 0.999965 0.179666
0.622250 0.999965 0.179666
0.682333 0.999965 0.179666
0.739745 0.999965 0.179666
0.794833 0.999965 0.179666
0.847901 0.999965 0.179666
0.899526 0.999965 0.179666
0.950383 0.999965 0.179666
0.999969 0.999965 0.179666
0.128433 0.102529 0.228402
0.160064 0.102529 0.228402
0.242998 0.102529 0.228402
0.294248 0.102529 0.201614
0.347198 0.102529 0.189115
0.401736 0.102529 0.182390
0.456914 0.102529 0.178452
0.511973 0.102529 0.176025
0.566282 0.102529 0.174543
0.621412 0.102529 0.174050
0.677402 0.102529 0.174291
0.734293 0.102529 0.175128
0.792902 0.102529 0.176506
0.853516 0.102529 0.178452
0.919040 0.102529 0.181225
0.999969 0.102529 0.186396
0.128433 0.128009 0.228402
0.191385 0.153377 0.228402
0.242998 0.153377 0.228402
0.294248 0.153377 0.219048
0.347198 0.153377 0.214236
0.401736 0.153377 0.211559
0.456914 0.153377 0.209918
0.511973 0.153377 0.208921
0.566282 0.153377 0.208320
0.621412 0.153377 0.208227
0.677402 0.153377 0.208501
0.734293 0.153377 0.209165
0.792902 0.153377 0.210120
0.853516 0.153377 0.211404
0.919040 0.153377 0.213209
0.999969 0.153377 0.216600
0.128433 0.195586 0.228402
0.191385 0.195586 0.228402
0.242998 0.195586 0.228402
0.294248 0.195586 0.228402
0.347198 0.195586 0.228402
0.401736 0.195586 0.228402
0.456914 0.195586 0.228402
0.511973 0.195586 0.228402
0.566282 0.195586 0.228402
0.621412 0.195586 0.228402
0.677402 0.195586 0.228402
0.734293 0.195586 0.228402
0.792902 0.195586 0.228402
0.853516 0.195586 0.228402
0.919040 0.195586 0.228402
0.999969 0.195586 0.228402
0.128433 0.238129 0.201614
0.191385 0.238129 0.219048
0.242998 0.238129 0.228402
0.294248 0.238129 0.228402
0.347198 0.234701 0.228402
0.401736 0.232649 0.228402
0.456914 0.231363 0.228402
0.511973 0.230569 0.228402
0.566282 0.230137 0.228402
0.621412 0.230220 0.228402
0.677402 0.230723 0.228402
0.734293 0.231619 0.228402
0.792902 0.232874 0.228402
0.853516 0.234500 0.228402
0.919040 0.236762 0.228402
0.999969 0.240949 0.228402
0.128433 0.282954 0.189115
0.191385 0.282954 0.214236
0.242998 0.282954 0.228402
0.290134 0.282954 0.228402
0.347198 0.282954 0.228402
0.401736 0.278848 0.228402
0.456914 0.276272 0.228402
0.511973 0.274653 0.228402
0.566282 0.273739 0.228402
0.621412 0.273919 0.228402
0.677402 0.274963 0.228402
0.734293 0.276742 0.228402
0.792902 0.279282 0.228402
0.853516 0.282588 0.228402
0.919040 0.287062 0.228402
0.999969 0.295308 0.228402
0.128433 0.330263 0.182390
0.191385 0.330263 0.211559
0.242998 0.330263 0.228402
0.287677 0.330263 0.228402
0.342411 0.330263 0.228402
0.401736 0.330263 0.228402
0.456914 0.326416 0.228402
0.511973 0.324031 0.228402
0.566282 0.322666 0.228402
0.621412 0.322919 0.228402
0.677402 0.324472 0.228402
0.734293 0.327142 0.228402
0.792902 0.330897 0.228402
0.853516 0.335766 0.228402
0.919040 0.342362 0.228402
0.999969 0.354319 0.228402
0.128433 0.379634 0.178452
0.191385 0.379634 0.209918
0.242998 0.379634 0.228402
0.286159 0.379634 0.228402
0.339375 0.379634 0.228402
0.397374 0.379634 0.228402
0.456914 0.379634 0.228402
0.511973 0.376507 0.228402
0.566282 0.374701 0.228402
0.621412 0.375040 0.228402
0.677402 0.377116 0.228402
0.734293 0.380572 0.228402
0.792902 0.385483 0.228402
0.853516 0.391802 0.228402
0.919040 0.400373 0.228402
0.999969 0.415962 0.228402
0.128433 0.430862 0.176025
0.191385 0.430861 0.208921
0.242998 0.430862 0.228402
0.285223 0.430862 0.228402
0.337482 0.430862 0.228402
0.394631 0.430862 0.228402
0.453454 0.430862 0.228402
0.511973 0.430862 0.228402
0.566282 0.428640 0.228402
0.621412 0.429059 0.228402
0.677402 0.431584 0.228402
0.734293 0.435847 0.228402
0.792902 0.441831 0.228402
0.853516 0.449601 0.228402
0.919040 0.460083 0.228402
0.999969 0.479079 0.228402
0.128433 0.483765 0.174543
0.191385 0.483765 0.208320
0.242998 0.483765 0.228402
0.284676 0.483765 0.228402
0.336410 0.483765 0.228402
0.393068 0.483765 0.228402
0.451463 0.483765 0.228402
0.509658 0.483765 0.228402
0.566282 0.483765 0.228402
0.621412 0.484271 0.228402
0.677402 0.487223 0.228402
0.734293 0.492251 0.228402
0.792902 0.499300 0.228402
0.853516 0.508437 0.228402
0.919040 0.520790 0.228402
0.999969 0.543039 0.228402
0.128433 0.540271 0.174050
0.191385 0.540271 0.208227
0.242998 0.540271 0.228402
0.284783 0.540271 0.228402
0.336617 0.540271 0.228402
0.393336 0.540271 0.228402
0.451854 0.540271 0.228402
0.510108 0.540271 0.228402
0.566780 0.540271 0.228402
0.621412 0.540271 0.228402
0.677402 0.543680 0.228402
0.734293 0.549403 0.228402
0.792902 0.557554 0.228402
0.853516 0.567997 0.228402
0.919040 0.582149 0.228402
0.999969 0.607624 0.228402
0.128433 0.600706 0.174291
0.191385 0.600706 0.208501
0.242998 0.600706 0.228402
0.285367 0.600706 0.228402
0.337852 0.600706 0.228402
0.395133 0.600706 0.228402
0.454115 0.600706 0.228402
0.512742 0.600706 0.228402
0.569734 0.600706 0.228402
0.624607 0.600706 0.228402
0.677402 0.600706 0.228402
0.734293 0.607181 0.228402
0.792902 0.616311 0.228402
0.853516 0.628092 0.228402
0.919040 0.643960 0.228402
0.999969 0.672699 0.228402
0.128433 0.665248 0.175128
0.191385 0.665248 0.209165
0.242998 0.665248 0.228402
0.286444 0.665248 0.228402
0.339921 0.665248 0.228402
0.398160 0.665248 0.228402
0.457923 0.665248 0.228402
0.517227 0.665248 0.228402
0.574731 0.665248 0.228402
0.630068 0.665248 0.228402
0.683262 0.665248 0.228402
0.734293 0.665248 0.228402
0.792902 0.675433 0.228402
0.853516 0.688492 0.228402
0.919040 0.706111 0.228402
0.999969 0.738014 0.228402
0.128433 0.734824 0.176506
0.191385 0.734824 0.210120
0.242998 0.734824 0.228402
0.287959 0.734824 0.228402
0.342912 0.734824 0.228402
0.402456 0.734824 0.228402
0.463294 0.734824 0.228402
0.523476 0.734824 0.228402
0.581714 0.734824 0.228402
0.637708 0.734824 0.228402
0.691440 0.734824 0.228402
0.743099 0.734824 0.228402
0.792902 0.734824 0.228402
0.853516 0.749091 0.228402
0.919040 0.768537 0.228402
0.999969 0.803445 0.228402
0.128433 0.809936 0.178452
0.191385 0.809936 0.211404
0.242998 0.809936 0.228402
0.289905 0.809936 0.228402
0.346775 0.809936 0.228402
0.407954 0.809936 0.228402
0.470213 0.809936 0.228402
0.531548 0.809936 0.228402
0.590683 0.809936 0.228402
0.647483 0.809936 0.228402
0.701936 0.809936 0.228402
0.754204 0.809936 0.228402
0.804620 0.809936 0.228402
0.853516 0.809936 0.228402
0.919040 0.831108 0.228402
0.999969 0.869036 0.228402
0.128433 0.893885 0.181225
0.191385 0.893885 0.213209
0.242998 0.893885 0.228402
0.292610 0.893885 0.228402
0.352006 0.893885 0.228402
0.415413 0.893885 0.228402
0.479483 0.893885 0.228402
0.542316 0.893885 0.228402
0.602701 0.893885 0.228402
0.660494 0.893885 0.228402
0.715866 0.893885 0.228402
0.769081 0.893885 0.228402
0.820399 0.893885 0.228402
0.870181 0.893885 0.228402
0.919040 0.893885 0.228402
0.999969 0.934917 0.228402
0.128433 0.999965 0.186396
0.191385 0.999965 0.216600
0.242998 0.999965 0.228402
0.297614 0.999965 0.228402
0.361593 0.999965 0.228402
0.428871 0.999965 0.228402
0.496206 0.999965 0.228402
0.561562 0.999965 0.228402
0.624032 0.999965 0.228402
0.683655 0.999965 0.228402
0.740688 0.999965 0.228402
0.795462 0.999965 0.228402
0.848322 0.999965 0.228402
0.899834 0.999965 0.228402
0.950519 0.999965 0.228402
0.999969 0.999965 0.228402
0.128433 0.102529 0.276994
0.150600 0.102529 0.276994
0.214644 0.102529 0.276994
0.294248 0.102529 0.276994
0.347198 0.102529 0.256054
0.401736 0.102529 0.244563
0.456914 0.102529 0.237727
0.511973 0.102529 0.233505
0.566282 0.102529 0.230903
0.621412 0.102529 0.230025
0.677402 0.102529 0.230453
0.734293 0.102529 0.231919
0.792902 0.102529 0.234359
0.853516 0.102529 0.237756
0.919040 0.102529 0.242548
0.999969 0.102529 0.251450
0.128433 0.120372 0.276994
0.191385 0.153377 0.276994
0.233091 0.153377 0.276994
0.294248 0.153377 0.276994
0.347198 0.153377 0.266611
0.401736 0.153377 0.260648
0.456914 0.153377 0.257015
0.511973 0.153377 0.254757
0.566282 0.153377 0.253395
0.621412 0.153377 0.253180
0.677402 0.153377 0.253862
0.734293 0.153377 0.255301
0.792902 0.153377 0.257450
0.853516 0.153377 0.260332
0.919040 0.153377 0.264343
0.999969 0.153377 0.271729
0.128433 0.172336 0.276994
0.191385 0.187432 0.276994
0.242998 0.195586 0.276994
0.294248 0.195586 0.276994
0.347198 0.195586 0.273091
0.401736 0.195586 0.270759
0.456914 0.195586 0.269315
0.511973 0.195586 0.268418
0.566282 0.195586 0.267906
0.621412 0.195586 0.268013
0.677402 0.195586 0.268574
0.734293 0.195586 0.269584
0.792902 0.195586 0.271032
0.853516 0.195586 0.272876
0.919040 0.195586 0.275439
0.999969 0.195586 0.280202
0.128433 0.238129 0.276994
0.191385 0.238129 0.276994
0.242998 0.238129 0.276994
0.294248 0.238129 0.276994
0.347198 0.238129 0.276994
0.401736 0.238129 0.276994
0.456914 0.238129 0.276994
0.511973 0.238129 0.276994
0.566282 0.238129 0.276994
0.621412 0.238129 0.276994
0.677402 0.238129 0.276994
0.734293 0.238129 0.276994
0.792902 0.238129 0.276994
0.853516 0.238129 0.276994
0.919040 0.238129 0.276994
0.999969 0.238129 0.276994
0.128433 0.282954 0.256054
0.191385 0.282954 0.266611
0.242998 0.282954 0.273091
0.294248 0.282954 0.276994
0.347198 0.282954 0.276994
0.401736 0.281375 0.276994
0.456914 0.280352 0.276994
0.511973 0.279722 0.276994
0.566282 0.279408 0.276994
0.621412 0.279685 0.276994
0.677402 0.280458 0.276994
0.734293 0.281630 0.276994
0.792902 0.283227 0.276994
0.853516 0.285301 0.276994
0.919040 0.288074 0.276994
0.999969 0.293249 0.276994
0.128433 0.330263 0.244563
0.191385 0.330263 0.260648
0.242998 0.330263 0.270759
0.294248 0.330263 0.276994
0.345354 0.330263 0.276994
0.401736 0.330263 0.276994
0.456914 0.328302 0.276994
0.511973 0.327081 0.276994
0.566282 0.326440 0.276994
0.621412 0.327032 0.276994
0.677402 0.328488 0.276994
0.734293 0.330748 0.276994
0.792902 0.333844 0.276994
0.853516 0.337784 0.276994
0.919040 0.343157 0.276994
0.999969 0.352808 0.276994
0.128433 0.379634 0.237727
0.191385 0.379634 0.257015
0.242998 0.379634 0.269315
0.294248 0.379634 0.276994
0.344163 0.379634 0.276994
0.399498 0.379634 0.276994
0.456914 0.379634 0.276994
0.511973 0.377887 0.276994
0.566282 0.376975 0.276994
0.621412 0.377750 0.276994
0.677402 0.379897 0.276994
0.734293 0.383218 0.276994
0.792902 0.387663 0.276994
0.853516 0.393354 0.276994
0.919040 0.400973 0.276994
0.999969 0.414789 0.276994
0.128433 0.430862 0.233505
0.191385 0.430861 0.254757
0.242998 0.430862 0.268418
0.294248 0.430862 0.276994
0.343419 0.430862 0.276994
0.398078 0.430862 0.276994
0.454971 0.430862 0.276994
0.511973 0.430862 0.276994
