assets/luts/Angelic.cube
LUT_3D_SIZE 6
0.128433 0.102529 0.120448
0.294248 0.102529 0.120448
0.456914 0.102529 0.120448
0.621412 0.102529 0.120448
0.792902 0.102529 0.120448
0.999969 0.102529 0.120448
0.128433 0.238129 0.120448
0.294248 0.238129 0.120448
0.456914 0.203706 0.120448
0.621412 0.196996 0.120448
0.792902 0.200780 0.120448
0.999969 0.215700 0.120448
0.128433 0.379634 0.120448
0.252847 0.379634 0.120448
0.456914 0.379634 0.120448
0.621412 0.364705 0.120448
0.792902 0.373125 0.120448
0.999969 0.405910 0.120448
0.128433 0.540271 0.120448
0.244705 0.540271 0.120448
0.440425 0.540271 0.120448
0.621412 0.540271 0.120448
0.792902 0.553087 0.120448
0.999969 0.602970 0.120448
0.128433 0.734824 0.120448
0.249288 0.734824 0.120448
0.449750 0.734824 0.120448
0.633507 0.734824 0.120448
0.792902 0.734824 0.120448
0.999969 0.801571 0.120448
0.128433 0.999965 0.120448
0.267326 0.999965 0.120448
0.485439 0.999965 0.120448
0.679443 0.999965 0.120448
0.846882 0.999965 0.120448
0.999969 0.999965 0.120448
0.128433 0.102529 0.276994
0.294248 0.102529 0.276994
0.456914 0.102529 0.237727
0.621412 0.102529 0.230025
0.792902 0.102529 0.234359
0.999969 0.102529 0.251450
0.128433 0.238129 0.276994
0.294248 0.238129 0.276994
0.456914 0.238129 0.276994
0.621412 0.238129 0.276994
0.792902 0.238129 0.276994
0.999969 0.238129 0.276994
0.128433 0.379634 0.237727
0.294248 0.379634 0.276994
0.456914 0.379634 0.276994
0.621412 0.377750 0.276994
0.792902 0.387663 0.276994
0.999969 0.414789 0.276994
0.128433 0.540271 0.230025
0.294248 0.540271 0.276994
0.454859 0.540271 0.276994
0.621412 0.540271 0.276994
0.792902 0.558396 0.276994
0.999969 0.607075 0.276994
0.128433 0.734824 0.234359
0.294248 0.734824 0.276994
0.465677 0.734824 0.276994
0.638510 0.734824 0.276994
0.792902 0.734824 0.276994
0.999969 0.803216 0.276994
0.128433 0.999965 0.251450
0.294248 0.999965 0.276994
0.494953 0.999965 0.276994
0.683188 0.999965 0.276994
0.848197 0.999965 0.276994
0.999969 0.999965 0.276994
0.128433 0.102529 0.433330
0.252847 0.102529 0.433330
0.456914 0.102529 0.433330
0.621412 0.102529 0.417313
0.792902 0.102529 0.426344
0.999969 0.102529 0.461206
0.128433 0.203706 0.433330
0.294248 0.238129 0.433330
0.456914 0.238129 0.433330
0.621412 0.238129 0.431330
0.792902 0.238129 0.441881
0.999969 0.238129 0.470557
0.128433 0.379634 0.433330
0.294248 0.379634 0.433330
0.456914 0.379634 0.433330
0.621412 0.379634 0.433330
0.792902 0.379634 0.433330
0.999969 0.379634 0.433330
0.128433 0.540271 0.417313
0.294248 0.540271 0.431330
0.456914 0.540271 0.433330
0.621412 0.540271 0.433330
0.792902 0.555379 0.433330
0.999969 0.591371 0.433330
0.128433 0.734824 0.426344
0.294248 0.734824 0.441881
0.456914 0.734824 0.433330
0.635684 0.734824 0.433330
0.792902 0.734824 0.433330
0.999969 0.797047 0.433330
0.128433 0.999965 0.461206
0.294248 0.999965 0.470557
0.456914 0.999965 0.433330
0.668901 0.999965 0.433330
0.843278 0.999965 0.433330
0.999969 0.999965 0.433330
0.128433 0.102529 0.596982
0.244705 0.102529 0.596982
0.440425 0.102529 0.596982
0.621412 0.102529 0.596982
0.792902 0.102529 0.609378
0.999969 0.102529 0.656550
0.128433 0.196996 0.596982
0.294248 0.238129 0.596982
0.454859 0.238129 0.596982
0.621412 0.238129 0.596982
0.792902 0.238129 0.614430
0.999969 0.238129 0.660387
0.128433 0.364705 0.596982
0.294248 0.377750 0.596982
0.456914 0.379634 0.596982
0.621412 0.379634 0.596982
0.792902 0.379634 0.611571
0.999969 0.379634 0.645653
0.128433 0.540271 0.596982
0.294248 0.540271 0.596982
0.456914 0.540271 0.596982
0.621412 0.540271 0.596982
0.792902 0.540271 0.596982
0.999969 0.540271 0.596982
0.128433 0.734824 0.609378
0.294248 0.734824 0.614430
0.456914 0.734824 0.611571
0.621412 0.734824 0.596982
0.792902 0.734824 0.596982
0.999969 0.778200 0.596982
0.128433 0.999965 0.656550
0.294248 0.999965 0.660387
0.456914 0.999965 0.645653
0.621412 0.999965 0.596982
0.828168 0.999965 0.596982
0.999969 0.999965 0.596982
0.128433 0.102529 0.775524
0.249288 0.102529 0.775524
0.449750 0.102529 0.775524
0.633507 0.102529 0.775524
0.792902 0.102529 0.775524
0.999969 0.102529 0.833374
0.128433 0.200780 0.775524
0.294248 0.238129 0.775524
0.465677 0.238129 0.775524
0.638510 0.238129 0.775524
0.792902 0.238129 0.775524
0.999969 0.238129 0.834758
0.128433 0.373125 0.775524
0.294248 0.387663 0.775524
0.456914 0.379634 0.775524
0.635684 0.379634 0.775524
0.792902 0.379634 0.775524
0.999969 0.379634 0.829503
0.128433 0.553087 0.775524
0.294248 0.558396 0.775524
0.456914 0.555379 0.775524
0.621412 0.540271 0.775524
0.792902 0.540271 0.775524
0.999969 0.540271 0.813247
0.128433 0.734824 0.775524
0.294248 0.734824 0.775524
0.456914 0.734824 0.775524
0.621412 0.734824 0.775524
0.792902 0.734824 0.775524
0.999969 0.734824 0.775524
0.128433 0.999965 0.833374
0.294248 0.999965 0.834758
0.456914 0.999965 0.829503
0.621412 0.999965 0.813247
0.792902 0.999965 0.775524
0.999969 0.999965 0.775524
0.128433 0.102529 0.999968
0.267326 0.102529 0.999968
0.485439 0.102529 0.999968
0.679443 0.102529 0.999968
0.846882 0.102529 0.999968
0.999969 0.102529 0.999968
0.128433 0.215700 0.999968
0.294248 0.238129 0.999968
0.494953 0.238129 0.999968
0.683188 0.238129 0.999968
0.848197 0.238129 0.999968
0.999969 0.238129 0.999968
0.128433 0.405910 0.999968
0.294248 0.414789 0.999968
0.456914 0.379634 0.999968
0.668901 0.379634 0.999968
0.843278 0.379634 0.999968
0.999969 0.379634 0.999968
0.128433 0.602970 0.999968
0.294248 0.607075 0.999968
0.456914 0.591371 0.999968
0.621412 0.540271 0.999968
0.828168 0.540271 0.999968
0.999969 0.540271 0.999968
0.128433 0.801571 0.999968
0.294248 0.803216 0.999968
0.456914 0.797047 0.999968
0.621412 0.778200 0.999968
0.792902 0.734824 0.999968
0.999969 0.734824 0.999968
0.128433 0.999965 0.999968
0.294248 0.999965 0.999968
0.456914 0.999965 0.999968
0.621412 0.999965 0.999968
0.792902 0.999965 0.999968
0.999969 0.999965 0.999968
