assets/luts/Autumn.cube
LUT_3D_SIZE 16
0.016436 0.000000 0.000000
0.087157 0.025355 0.017666
0.143040 0.044613 0.033630
0.207449 0.061578 0.048508
0.280333 0.068500 0.054741
0.358387 0.068849 0.055053
0.438212 0.086445 0.071230
0.516792 0.104368 0.088139
0.592534 0.122179 0.105286
0.665974 0.139881 0.122319
0.735900 0.157135 0.138859
0.801130 0.173444 0.154446
0.860225 0.188311 0.168569
0.912089 0.201308 0.180893
0.957485 0.212734 0.191702
0.999969 0.227122 0.205256
0.048528 0.057842 0.017666
0.087157 0.057842 0.017666
0.143040 0.063174 0.033630
0.207449 0.076018 0.048508
0.280333 0.083314 0.054741
0.358387 0.085492 0.055053
0.438212 0.100583 0.071230
0.516792 0.116499 0.088139
0.592534 0.132644 0.105286
0.665974 0.149028 0.122319
0.735900 0.165178 0.138859
0.801130 0.180516 0.154446
0.860225 0.194596 0.168569
0.912089 0.206870 0.180893
0.957485 0.217649 0.191702
0.999969 0.231619 0.205256
0.071609 0.106702 0.033630
0.093359 0.106702 0.033630
0.143040 0.106702 0.033630
0.207449 0.115830 0.048508
0.280333 0.124968 0.054741
0.358387 0.130904 0.055053
0.438212 0.143030 0.071230
0.516792 0.155631 0.088139
0.592534 0.168434 0.105286
0.665974 0.181611 0.122319
0.735900 0.194772 0.138859
0.801130 0.207356 0.154446
0.860225 0.218819 0.168569
0.912089 0.228659 0.180893
0.957485 0.237222 0.191702
0.999969 0.249540 0.205256
0.091507 0.164563 0.048508
0.108197 0.164563 0.048508
0.153305 0.164563 0.048508
0.207449 0.164563 0.048508
0.280333 0.176510 0.054741
0.358387 0.186223 0.055053
0.438212 0.197944 0.071230
0.516792 0.209203 0.088139
0.592534 0.220000 0.105286
0.665974 0.230781 0.122319
0.735900 0.241246 0.138859
0.801130 0.250911 0.154446
0.860225 0.259299 0.168569
0.912089 0.265987 0.180893
0.957485 0.271447 0.191702
0.999969 0.281473 0.205256
0.099527 0.231500 0.054741
0.116547 0.231500 0.054741
0.163538 0.231500 0.054741
0.220615 0.231500 0.054741
0.280333 0.231500 0.054741
0.358387 0.244805 0.055053
0.438212 0.257477 0.071230
0.516792 0.268860 0.088139
0.592534 0.278932 0.105286
0.665974 0.288486 0.122319
0.735900 0.297247 0.138859
0.801130 0.304750 0.154446
0.860225 0.310484 0.168569
0.912089 0.314187 0.180893
0.957485 0.316485 0.191702
0.999969 0.324244 0.205256
0.099934 0.304953 0.055053
0.119032 0.304953 0.055053
0.170160 0.304953 0.055053
0.231201 0.304953 0.055053
0.294619 0.304953 0.055053
0.358387 0.304953 0.055053
0.438212 0.319171 0.071230
0.516792 0.331378 0.088139
0.592534 0.341515 0.105286
0.665974 0.350634 0.122319
0.735900 0.358401 0.138859
0.801130 0.364341 0.154446
0.860225 0.368090 0.168569
0.912089 0.369178 0.180893
0.957485 0.368654 0.191702
0.999969 0.374527 0.205256
0.120111 0.382085 0.071230
0.136151 0.382085 0.071230
0.183641 0.382085 0.071230
0.244004 0.382085 0.071230
0.308167 0.382085 0.071230
0.373313 0.382085 0.071230
0.438212 0.382085 0.071230
0.516792 0.395466 0.088139
0.592534 0.406128 0.105286
0.665974 0.415282 0.122319
0.735900 0.422607 0.138859
0.801130 0.427523 0.154446
0.860225 0.429603 0.168569
0.912089 0.428500 0.180893
0.957485 0.425533 0.191702
0.999969 0.429728 0.205256
0.140415 0.460835 0.088139
0.154043 0.460835 0.088139
0.197608 0.460835 0.088139
0.256259 0.460835 0.088139
0.320281 0.460835 0.088139
0.386031 0.460835 0.088139
0.451796 0.460835 0.088139
0.516792 0.460835 0.088139
0.592534 0.472317 0.105286
0.665974 0.481786 0.122319
0.735900 0.488905 0.138859
0.801130 0.493072 0.154446
0.860225 0.493835 0.168569
0.912089 0.490830 0.180893
0.957485 0.485588 0.191702
0.999969 0.488450 0.205256
0.160405 0.539506 0.105286
0.172091 0.539506 0.105286
0.211701 0.539506 0.105286
0.267935 0.539506 0.105286
0.330957 0.539506 0.105286
0.396553 0.539506 0.105286
0.462525 0.539506 0.105286
0.528026 0.539506 0.105286
0.592534 0.539506 0.105286
0.665974 0.549473 0.122319
0.735900 0.556589 0.138859
0.801130 0.560243 0.154446
0.860225 0.559871 0.168569
0.912089 0.555161 0.180893
0.957485 0.547825 0.191702
0.999969 0.549614 0.205256
0.180158 0.618137 0.122319
0.190287 0.618137 0.122319
0.226186 0.618137 0.122319
0.279553 0.618137 0.122319
0.341057 0.618137 0.122319
0.405967 0.618137 0.122319
0.471707 0.618137 0.122319
0.537233 0.618137 0.122319
0.601942 0.618137 0.122319
0.665974 0.618137 0.122319
0.735900 0.625439 0.138859
0.801130 0.628690 0.154446
0.860225 0.627357 0.168569
0.912089 0.621050 0.180893
0.957485 0.611623 0.191702
0.999969 0.612482 0.205256
0.199268 0.695229 0.138859
0.208119 0.695229 0.138859
0.240546 0.695229 0.138859
0.290809 0.695229 0.138859
0.350265 0.695229 0.138859
0.413970 0.695229 0.138859
0.478997 0.695229 0.138859
0.544156 0.695229 0.138859
0.608692 0.695229 0.138859
0.672637 0.695229 0.138859
0.735900 0.695229 0.138859
0.801130 0.698227 0.154446
0.860225 0.695974 0.168569
0.912089 0.688074 0.180893
0.957485 0.676834 0.191702
0.999969 0.676823 0.205256
0.217250 0.768228 0.154446
0.225004 0.768228 0.154446
0.254229 0.768228 0.154446
0.301171 0.768228 0.154446
0.358159 0.768228 0.154446
0.420051 0.768228 0.154446
0.483905 0.768228 0.154446
0.548189 0.768228 0.154446
0.612104 0.768228 0.154446
0.675601 0.768228 0.154446
0.738565 0.768228 0.154446
0.801130 0.768228 0.154446
0.860225 0.765199 0.168569
0.912089 0.755972 0.180893
0.957485 0.742907 0.191702
0.999969 0.741990 0.205256
0.233524 0.835043 0.168569
0.240366 0.835043 0.168569
0.266668 0.835043 0.168569
0.310136 0.835043 0.168569
0.364193 0.835043 0.168569
0.423882 0.835043 0.168569
0.485965 0.835043 0.168569
0.548882 0.835043 0.168569
0.611763 0.835043 0.168569
0.674341 0.835043 0.168569
0.736610 0.835043 0.168569
0.798360 0.835043 0.168569
0.860225 0.835043 0.168569
0.912089 0.824427 0.180893
0.957485 0.809619 0.191702
0.999969 0.808163 0.205256
0.247658 0.893395 0.180893
0.253714 0.893395 0.180893
0.277268 0.893395 0.180893
0.317220 0.893395 0.180893
0.368053 0.893395 0.180893
0.425052 0.893395 0.180893
0.484893 0.893395 0.180893
0.545991 0.893395 0.180893
0.607314 0.893395 0.180893
0.668593 0.893395 0.180893
0.729467 0.893395 0.180893
0.790107 0.893395 0.180893
0.850833 0.893395 0.180893
0.912089 0.893395 0.180893
0.957485 0.876954 0.191702
0.999969 0.874859 0.205256
0.260073 0.944566 0.191702
0.265391 0.944566 0.191702
0.286478 0.944566 0.191702
0.323019 0.944566 0.191702
0.370490 0.944566 0.191702
0.424541 0.944566 0.191702
0.481923 0.944566 0.191702
0.540870 0.944566 0.191702
0.600386 0.944566 0.191702
0.659920 0.944566 0.191702
0.719278 0.944566 0.191702
0.778557 0.944566 0.191702
0.837725 0.944566 0.191702
0.897398 0.944566 0.191702
0.957485 0.944566 0.191702
0.999969 0.941980 0.205256
0.275627 0.999093 0.205256
0.280450 0.999093 0.205256
0.299695 0.999093 0.205256
0.333656 0.999093 0.205256
0.378626 0.999093 0.205256
0.430496 0.999093 0.205256
0.486101 0.999093 0.205256
0.543739 0.999093 0.205256
0.602081 0.999093 0.205256
0.660712 0.999093 0.205256
0.719256 0.999093 0.205256
0.777838 0.999093 0.205256
0.836450 0.999093 0.205256
0.895524 0.999093 0.205256
0.955186 0.999093 0.205256
0.999969 0.999093 0.205256
0.048528 0.025355 0.045181
0.087157 0.025355 0.045181
0.143040 0.044613 0.049935
0.207449 0.061578 0.061599
0.280333 0.068500 0.068329
0.358387 0.068849 0.070359
0.438212 0.086445 0.084546
0.516792 0.104368 0.099795
0.592534 0.122179 0.115360
0.665974 0.139881 0.131093
0.735900 0.157135 0.146557
0.801130 0.173444 0.161173
0.860225 0.188311 0.174548
0.912089 0.201308 0.186159
0.957485 0.212734 0.196342
0.999969 0.227122 0.209468
0.048528 0.057842 0.045181
0.087157 0.057842 0.045181
0.142682 0.067032 0.053407
0.206858 0.078527 0.063901
0.279584 0.084060 0.069014
0.357742 0.084623 0.069544
0.437758 0.098877 0.082931
0.516482 0.114507 0.097879
0.592292 0.130676 0.113470
0.665787 0.147210 0.129367
0.735807 0.163647 0.145065
0.801022 0.179288 0.160001
0.860106 0.193709 0.173726
0.912057 0.206384 0.185706
0.957474 0.217557 0.196256
0.999969 0.231715 0.209570
0.071609 0.106702 0.049935
0.097829 0.106382 0.053407
0.142682 0.106382 0.053407
0.206858 0.116520 0.063901
0.279584 0.125091 0.069014
0.357742 0.130290 0.069544
0.437758 0.141944 0.082931
0.516482 0.154295 0.097879
0.592292 0.167010 0.113470
0.665787 0.180228 0.129367
0.735807 0.193544 0.145065
0.801022 0.206331 0.160001
0.860106 0.218084 0.173726
0.912057 0.228245 0.185706
0.957474 0.237137 0.196256
0.999969 0.249641 0.209570
0.091507 0.164563 0.061599
0.111077 0.164005 0.063901
0.154071 0.164005 0.063901
0.206858 0.164005 0.063901
0.279584 0.176191 0.069014
0.357742 0.185647 0.069544
0.437758 0.197180 0.082931
0.516482 0.208321 0.097879
0.592292 0.219021 0.113470
0.665787 0.229790 0.129367
0.735807 0.240336 0.145065
0.801022 0.250140 0.160001
0.860106 0.258723 0.173726
0.912057 0.265640 0.185706
0.957474 0.271365 0.196256
0.999969 0.281547 0.209570
0.099527 0.231500 0.068329
0.117393 0.230801 0.069014
0.163669 0.230801 0.069014
0.220250 0.230801 0.069014
0.279584 0.230801 0.069014
0.357742 0.244245 0.069544
0.437758 0.256898 0.082931
0.516482 0.268201 0.097879
0.592292 0.278220 0.113470
0.665787 0.287775 0.129367
0.735807 0.296589 0.145065
0.801022 0.304123 0.160001
0.860106 0.310004 0.173726
0.912057 0.313882 0.185706
0.957474 0.316430 0.196256
0.999969 0.324304 0.209570
0.099934 0.304953 0.070359
0.118041 0.304320 0.069544
0.169475 0.304320 0.069544
0.230591 0.304320 0.069544
0.294017 0.304320 0.069544
0.357742 0.304320 0.069544
0.437758 0.318682 0.082931
0.516482 0.330887 0.097879
0.592292 0.341004 0.113470
0.665787 0.350109 0.129367
0.735807 0.357901 0.145065
0.801022 0.363924 0.160001
0.860106 0.367698 0.173726
0.912057 0.368982 0.185706
0.957474 0.368642 0.196256
0.999969 0.374562 0.209570
0.120111 0.382085 0.084546
0.134231 0.381632 0.082931
0.182439 0.381632 0.082931
0.243182 0.381632 0.082931
0.307568 0.381632 0.082931
0.372789 0.381632 0.082931
0.437758 0.381632 0.082931
0.516482 0.395045 0.097879
0.592292 0.405766 0.113470
0.665787 0.414903 0.129367
0.735807 0.422217 0.145065
0.801022 0.427145 0.160001
0.860106 0.429287 0.173726
0.912057 0.428346 0.185706
0.957474 0.425477 0.196256
0.999969 0.429787 0.209570
0.140415 0.460835 0.099795
0.151814 0.460513 0.097879
0.196112 0.460513 0.097879
0.255298 0.460513 0.097879
0.319580 0.460513 0.097879
0.385484 0.460513 0.097879
0.451346 0.460513 0.097879
0.516482 0.460513 0.097879
0.592292 0.471985 0.113470
0.665787 0.481457 0.129367
0.735807 0.488609 0.145065
0.801022 0.492810 0.160001
0.860106 0.493588 0.173726
0.912057 0.490705 0.185706
0.957474 0.485531 0.196256
0.999969 0.488483 0.209570
0.160405 0.539506 0.115360
0.169912 0.539250 0.113470
0.210160 0.539250 0.113470
0.266881 0.539250 0.113470
0.330213 0.539250 0.113470
0.396004 0.539250 0.113470
0.462131 0.539250 0.113470
0.527678 0.539250 0.113470
0.592292 0.539250 0.113470
0.665787 0.549220 0.129367
0.735807 0.556370 0.145065
0.801022 0.560058 0.160001
0.860106 0.559673 0.173726
0.912057 0.555025 0.185706
0.957474 0.547767 0.196256
0.999969 0.549630 0.209570
0.180158 0.618137 0.131093
0.188302 0.617975 0.129367
0.224664 0.617975 0.129367
0.278509 0.617975 0.129367
0.340329 0.617975 0.129367
0.405428 0.617975 0.129367
0.471310 0.617975 0.129367
0.536927 0.617975 0.129367
0.601719 0.617975 0.129367
0.665787 0.617975 0.129367
0.735807 0.625302 0.145065
0.801022 0.628538 0.160001
0.860106 0.627214 0.173726
0.912057 0.620943 0.185706
0.957474 0.611593 0.196256
0.999969 0.612489 0.209570
0.199268 0.695229 0.146557
0.206414 0.695136 0.145065
0.239198 0.695136 0.145065
0.289831 0.695136 0.145065
0.349614 0.695136 0.145065
0.413464 0.695136 0.145065
0.478623 0.695136 0.145065
0.543849 0.695136 0.145065
0.608454 0.695136 0.145065
0.672474 0.695136 0.145065
0.735807 0.695136 0.145065
0.801022 0.698078 0.160001
0.860106 0.695792 0.173726
0.912057 0.688033 0.185706
0.957474 0.676796 0.196256
0.999969 0.676829 0.209570
0.217250 0.768228 0.161173
0.223637 0.768236 0.160001
0.253137 0.768236 0.160001
0.300318 0.768236 0.160001
0.357515 0.768236 0.160001
0.419649 0.768236 0.160001
0.483532 0.768236 0.160001
0.547903 0.768236 0.160001
0.611906 0.768236 0.160001
0.675400 0.768236 0.160001
0.738379 0.768236 0.160001
0.801022 0.768236 0.160001
0.860106 0.765106 0.173726
0.912057 0.755924 0.185706
0.957474 0.742826 0.196256
0.999969 0.742052 0.209570
0.233524 0.835043 0.174548
0.239400 0.834965 0.173726
0.265863 0.834965 0.173726
0.309508 0.834965 0.173726
0.363694 0.834965 0.173726
0.423512 0.834965 0.173726
0.485682 0.834965 0.173726
0.548664 0.834965 0.173726
0.611592 0.834965 0.173726
0.674139 0.834965 0.173726
0.736454 0.834965 0.173726
0.798285 0.834965 0.173726
0.860106 0.834965 0.173726
0.912057 0.824371 0.185706
0.957474 0.809574 0.196256
0.999969 0.808179 0.209570
0.247658 0.893395 0.186159
0.253186 0.893363 0.185706
0.276819 0.893363 0.185706
0.316847 0.893363 0.185706
0.367763 0.893363 0.185706
0.424794 0.893363 0.185706
0.484723 0.893363 0.185706
0.545850 0.893363 0.185706
0.607234 0.893363 0.185706
0.668496 0.893363 0.185706
0.729406 0.893363 0.185706
0.790067 0.893363 0.185706
0.850801 0.893363 0.185706
0.912057 0.893363 0.185706
0.957474 0.876963 0.196256
0.999969 0.874871 0.209570
0.260073 0.944566 0.196342
0.265293 0.944545 0.196256
0.286393 0.944545 0.196256
0.322943 0.944545 0.196256
0.370426 0.944545 0.196256
0.424474 0.944545 0.196256
0.481886 0.944545 0.196256
0.540846 0.944545 0.196256
0.600325 0.944545 0.196256
0.659915 0.944545 0.196256
0.719202 0.944545 0.196256
0.778543 0.944545 0.196256
0.837684 0.944545 0.196256
0.897418 0.944545 0.196256
0.957474 0.944545 0.196256
0.999969 0.941987 0.209570
0.275627 0.999093 0.209468
0.280559 0.999093 0.209570
0.299796 0.999093 0.209570
0.333725 0.999093 0.209570
0.378692 0.999093 0.209570
0.430525 0.999093 0.209570
0.486139 0.999093 0.209570
0.543737 0.999093 0.209570
0.602089 0.999093 0.209570
0.660718 0.999093 0.209570
0.719228 0.999093 0.209570
0.777865 0.999093 0.209570
0.836465 0.999093 0.209570
0.895536 0.999093 0.209570
0.955193 0.999093 0.209570
0.999969 0.999093 0.209570
0.071609 0.044613 0.090370
0.093359 0.044613 0.090370
0.143040 0.044613 0.090370
0.207449 0.061578 0.099157
0.280333 0.068500 0.107968
0.358387 0.068849 0.113697
0.438212 0.086445 0.125339
0.516792 0.104368 0.137416
0.592534 0.122179 0.149638
0.665974 0.139881 0.162204
0.735900 0.157135 0.174711
0.801130 0.173444 0.186608
0.860225 0.188311 0.197461
0.912089 0.201308 0.206699
0.957485 0.212734 0.214740
0.999969 0.227122 0.226278
0.071609 0.063174 0.090370
0.097829 0.067032 0.090069
0.142682 0.067032 0.090069
0.206858 0.078527 0.099816
0.279584 0.084060 0.108089
0.357742 0.084623 0.113098
0.437758 0.098877 0.124301
0.516482 0.114507 0.136135
0.592292 0.130676 0.148301
0.665787 0.147210 0.160887
0.735807 0.163647 0.173533
0.801022 0.179288 0.185648
0.860106 0.193709 0.196739
0.912057 0.206384 0.206307
0.957474 0.217557 0.214671
0.999969 0.231715 0.226378
0.071609 0.106702 0.090370
0.097829 0.106382 0.090069
0.143040 0.106702 0.090370
0.205813 0.113841 0.097242
0.277769 0.118062 0.101311
0.355978 0.118934 0.102154
0.436457 0.128674 0.111543
0.515523 0.140418 0.122836
0.591585 0.153490 0.135359
0.665244 0.167531 0.148792
0.735438 0.181957 0.162545
0.800740 0.196158 0.176012
0.859959 0.209461 0.188612
0.911937 0.221319 0.199785
0.957429 0.231833 0.209703
0.999969 0.245311 0.222325
0.091507 0.164563 0.099157
0.111077 0.164005 0.099816
0.151074 0.163069 0.097242
0.205813 0.163069 0.097242
0.277769 0.172609 0.101311
0.355978 0.179557 0.102154
0.436457 0.189610 0.111543
0.515523 0.199871 0.122836
0.591585 0.210286 0.135359
0.665244 0.221163 0.148792
0.735438 0.232078 0.162545
0.800740 0.242552 0.176012
0.859959 0.252060 0.188612
0.911937 0.260095 0.199785
0.957429 0.267045 0.209703
0.999969 0.277917 0.222325
0.099527 0.231500 0.107968
0.117393 0.230801 0.108089
0.155801 0.229109 0.101311
0.216283 0.229109 0.101311
0.277769 0.229109 0.101311
0.355978 0.240845 0.102154
0.436457 0.252365 0.111543
0.515523 0.262882 0.122836
0.591585 0.272451 0.135359
0.665244 0.281820 0.148792
0.735438 0.290682 0.162545
0.800740 0.298557 0.176012
0.859959 0.304992 0.188612
0.911937 0.309605 0.199785
0.957429 0.312994 0.209703
0.999969 0.321373 0.222325
0.099934 0.304953 0.113697
0.118041 0.304320 0.113098
0.156783 0.302626 0.102154
0.223945 0.302626 0.102154
0.290366 0.302626 0.102154
0.355978 0.302626 0.102154
0.436457 0.316028 0.111543
0.515523 0.327484 0.122836
0.591585 0.337099 0.135359
0.665244 0.345951 0.148792
0.735438 0.353623 0.162545
0.800740 0.359770 0.176012
0.859959 0.363922 0.188612
0.911937 0.365684 0.199785
0.957429 0.365945 0.209703
0.999969 0.372189 0.222325
0.120111 0.382085 0.125339
0.134231 0.381632 0.124301
0.167678 0.380367 0.111543
0.234920 0.380367 0.111543
0.302709 0.380367 0.111543
0.370030 0.380367 0.111543
0.436457 0.380367 0.111543
0.515523 0.393109 0.122836
0.591585 0.403232 0.135359
0.665244 0.412014 0.148792
0.735438 0.419152 0.162545
0.800740 0.424097 0.176012
0.859959 0.426389 0.188612
0.911937 0.425776 0.199785
0.957429 0.423370 0.209703
0.999969 0.427929 0.222325
0.140415 0.460835 0.137416
0.151814 0.460513 0.136135
0.180741 0.459539 0.122836
0.246122 0.459539 0.122836
0.313901 0.459539 0.122836
0.381987 0.459539 0.122836
0.449374 0.459539 0.122836
0.515523 0.459539 0.122836
0.591585 0.470463 0.135359
0.665244 0.479542 0.148792
0.735438 0.486436 0.162545
0.800740 0.490536 0.176012
0.859959 0.491412 0.188612
0.911937 0.488709 0.199785
0.957429 0.483858 0.209703
0.999969 0.486989 0.222325
0.160405 0.539506 0.149638
0.169912 0.539250 0.148301
0.195216 0.538499 0.135359
0.257431 0.538499 0.135359
0.324117 0.538499 0.135359
0.392021 0.538499 0.135359
0.459576 0.538499 0.135359
0.526218 0.538499 0.135359
0.591585 0.538499 0.135359
0.665244 0.548071 0.148792
0.735438 0.554908 0.162545
0.800740 0.558421 0.176012
0.859959 0.558055 0.188612
0.911937 0.553495 0.199785
0.957429 0.546396 0.209703
0.999969 0.548410 0.222325
0.180158 0.618137 0.162204
0.188302 0.617975 0.160887
0.210721 0.617424 0.148792
0.269178 0.617424 0.148792
0.334007 0.617424 0.148792
0.401124 0.617424 0.148792
0.468411 0.617424 0.148792
0.535029 0.617424 0.148792
0.600596 0.617424 0.148792
0.665244 0.617424 0.148792
0.735438 0.624414 0.162545
0.800740 0.627488 0.176012
0.859959 0.626036 0.188612
0.911937 0.619781 0.199785
0.957429 0.610561 0.209703
0.999969 0.611584 0.222325
0.199268 0.695229 0.174711
0.206414 0.695136 0.173533
0.226561 0.694738 0.162545
0.280947 0.694738 0.162545
0.343404 0.694738 0.162545
0.409050 0.694738 0.162545
0.475534 0.694738 0.162545
0.541729 0.694738 0.162545
0.607080 0.694738 0.162545
0.671705 0.694738 0.162545
0.735438 0.694738 0.162545
0.800740 0.697458 0.176012
0.859959 0.694974 0.188612
0.911937 0.687181 0.199785
0.957429 0.676037 0.209703
0.999969 0.676107 0.222325
0.217250 0.768228 0.186608
0.223637 0.768236 0.185648
0.242059 0.767877 0.176012
0.292215 0.767877 0.176012
0.351695 0.767877 0.176012
0.415410 0.767877 0.176012
0.480487 0.767877 0.176012
0.545707 0.767877 0.176012
0.610384 0.767877 0.176012
0.674412 0.767877 0.176012
0.737874 0.767877 0.176012
0.800740 0.767877 0.176012
0.859959 0.764560 0.188612
0.911937 0.755271 0.199785
0.957429 0.742314 0.209703
0.999969 0.741520 0.222325
0.233524 0.835043 0.197461
0.239400 0.834965 0.196739
0.256520 0.834759 0.188612
0.302399 0.834759 0.188612
0.358465 0.834759 0.188612
0.419647 0.834759 0.188612
0.482792 0.834759 0.188612
0.546533 0.834759 0.188612
0.610059 0.834759 0.188612
0.673123 0.834759 0.188612
0.735721 0.834759 0.188612
0.797806 0.834759 0.188612
0.859959 0.834759 0.188612
0.911937 0.824042 0.199785
0.957429 0.809191 0.209703
0.999969 0.807826 0.222325
0.247658 0.893395 0.206699
0.253186 0.893363 0.206307
0.269333 0.893257 0.199785
0.310956 0.893257 0.199785
0.363280 0.893257 0.199785
0.421447 0.893257 0.199785
0.482176 0.893257 0.199785
0.543970 0.893257 0.199785
0.605757 0.893257 0.199785
0.667410 0.893257 0.199785
0.728662 0.893257 0.199785
0.789566 0.893257 0.199785
0.850468 0.893257 0.199785
0.911937 0.893257 0.199785
0.957429 0.876688 0.209703
0.999969 0.874619 0.222325
0.260073 0.944566 0.214740
0.265293 0.944545 0.214671
0.280701 0.944489 0.209703
0.318348 0.944489 0.209703
0.366843 0.944489 0.209703
0.421729 0.944489 0.209703
0.479756 0.944489 0.209703
0.539239 0.944489 0.209703
0.599103 0.944489 0.209703
0.659012 0.944489 0.209703
0.718566 0.944489 0.209703
0.777974 0.944489 0.209703
0.837333 0.944489 0.209703
0.897168 0.944489 0.209703
0.957429 0.944489 0.209703
0.999969 0.941806 0.222325
0.275627 0.999093 0.226278
0.280559 0.999093 0.226378
0.295171 0.999093 0.222325
0.329911 0.999093 0.222325
0.375622 0.999093 0.222325
0.428142 0.999093 0.222325
0.484283 0.999093 0.222325
0.542261 0.999093 0.222325
0.600939 0.999093 0.222325
0.659856 0.999093 0.222325
0.718600 0.999093 0.222325
0.777386 0.999093 0.222325
0.836127 0.999093 0.222325
0.895292 0.999093 0.222325
0.955039 0.999093 0.222325
0.999969 0.999093 0.222325
0.091507 0.061578 0.145963
0.108197 0.061578 0.145963
0.153305 0.061578 0.145963
0.207449 0.061578 0.145963
0.280333 0.068500 0.157378
0.358387 0.068849 0.166578
0.438212 0.086445 0.177687
0.516792 0.104368 0.188378
0.592534 0.122179 0.198557
0.665974 0.139881 0.208688
0.735900 0.157135 0.218530
0.801130 0.173444 0.227571
0.860225 0.188311 0.235417
0.912089 0.201308 0.241627
0.957485 0.212734 0.246710
0.999969 0.227122 0.256014
0.091507 0.076018 0.145963
0.111077 0.078527 0.145425
0.154071 0.078527 0.145425
0.206858 0.078527 0.145425
0.279584 0.084060 0.157087
0.357742 0.084623 0.166033
0.437758 0.098877 0.176989
0.516482 0.114507 0.187535
0.592292 0.130676 0.197643
0.665787 0.147210 0.207770
0.735807 0.163647 0.217678
0.801022 0.179288 0.226845
0.860106 0.193709 0.234859
0.912057 0.206384 0.241304
0.957474 0.217557 0.246650
0.999969 0.231715 0.256094
0.091507 0.115830 0.145963
0.111077 0.116520 0.145425
0.151074 0.113841 0.144542
0.205813 0.113841 0.144542
0.277769 0.118062 0.153641
0.355978 0.118934 0.160271
0.436457 0.128674 0.169803
0.515523 0.140418 0.179545
0.591585 0.153490 0.189401
0.665244 0.167531 0.199628
0.735438 0.181957 0.209918
0.800740 0.196158 0.219743
0.859959 0.209461 0.228644
0.911937 0.221319 0.236143
0.957429 0.231833 0.242610
0.999969 0.245311 0.252735
0.091507 0.164563 0.145963
0.111077 0.164005 0.145425
0.151074 0.163069 0.144542
0.207449 0.164563 0.145963
0.275962 0.167871 0.149103
0.353019 0.169126 0.150325
0.433955 0.175399 0.156326
0.513557 0.183709 0.164204
0.590132 0.193556 0.173551
0.664127 0.204729 0.184149
0.734614 0.216730 0.195455
0.800176 0.228892 0.206921
0.859584 0.240572 0.217890
0.911717 0.251183 0.227828
0.957248 0.260772 0.236771
0.999969 0.273192 0.248330
0.099527 0.231500 0.157378
0.117393 0.230801 0.157087
0.155801 0.229109 0.153641
0.211088 0.227448 0.149103
0.275962 0.227448 0.149103
0.353019 0.235258 0.150325
0.433955 0.244159 0.156326
0.513557 0.252982 0.164204
0.590132 0.261743 0.173551
0.664127 0.270879 0.184149
0.734614 0.280038 0.195455
0.800176 0.288740 0.206921
0.859584 0.296478 0.217890
0.911717 0.302792 0.227828
0.957248 0.308056 0.236771
0.999969 0.317573 0.248330
0.099934 0.304953 0.166578
0.118041 0.304320 0.166033
0.156783 0.302626 0.160271
0.212473 0.299866 0.150325
0.284368 0.299866 0.150325
0.353019 0.299866 0.150325
0.433955 0.311298 0.156326
0.513557 0.321251 0.164204
0.590132 0.330008 0.173551
0.664127 0.338429 0.184149
0.734614 0.346071 0.195455
0.800176 0.352575 0.206921
0.859584 0.357526 0.217890
0.911717 0.360444 0.227828
0.957248 0.362065 0.236771
0.999969 0.369187 0.248330
0.120111 0.382085 0.177687
0.134231 0.381632 0.176989
0.167678 0.380367 0.169803
0.219384 0.377922 0.156326
0.293927 0.377922 0.156326
0.365047 0.377922 0.156326
0.433955 0.377922 0.156326
0.513557 0.389267 0.164204
0.590132 0.398486 0.173551
0.664127 0.406702 0.184149
0.734614 0.413648 0.195455
0.800176 0.418730 0.206921
0.859584 0.421557 0.217890
0.911717 0.421730 0.227828
0.957248 0.420297 0.236771
0.999969 0.425482 0.248330
0.140415 0.460835 0.188378
0.151814 0.460513 0.187535
0.180741 0.459539 0.179545
0.228469 0.457560 0.164204
0.303367 0.457560 0.164204
0.375477 0.457560 0.164204
0.445508 0.457560 0.164204
0.513557 0.457560 0.164204
