assets/luts/Autumn.cube
LUT_3D_SIZE 6
0.016436 0.000000 0.000000
0.207449 0.061578 0.048508
0.438212 0.086445 0.071230
0.665974 0.139881 0.122319
0.860225 0.188311 0.168569
0.999969 0.227122 0.205256
0.091507 0.164563 0.048508
0.207449 0.164563 0.048508
0.438212 0.197944 0.071230
0.665974 0.230781 0.122319
0.860225 0.259299 0.168569
0.999969 0.281473 0.205256
0.120111 0.382085 0.071230
0.244004 0.382085 0.071230
0.438212 0.382085 0.071230
0.665974 0.415282 0.122319
0.860225 0.429603 0.168569
0.999969 0.429728 0.205256
0.180158 0.618137 0.122319
0.279553 0.618137 0.122319
0.471707 0.618137 0.122319
0.665974 0.618137 0.122319
0.860225 0.627357 0.168569
0.999969 0.612482 0.205256
0.233524 0.835043 0.168569
0.310136 0.835043 0.168569
0.485965 0.835043 0.168569
0.674341 0.835043 0.168569
0.860225 0.835043 0.168569
0.999969 0.808163 0.205256
0.275627 0.999093 0.205256
0.333656 0.999093 0.205256
0.486101 0.999093 0.205256
0.660712 0.999093 0.205256
0.836450 0.999093 0.205256
0.999969 0.999093 0.205256
0.091507 0.061578 0.145963
0.207449 0.061578 0.145963
0.438212 0.086445 0.177687
0.665974 0.139881 0.208688
0.860225 0.188311 0.235417
0.999969 0.227122 0.256014
0.091507 0.164563 0.145963
0.207449 0.164563 0.145963
0.433955 0.175399 0.156326
0.664127 0.204729 0.184149
0.859584 0.240572 0.217890
0.999969 0.273192 0.248330
0.120111 0.382085 0.177687
0.219384 0.377922 0.156326
0.433955 0.377922 0.156326
0.664127 0.406702 0.184149
0.859584 0.421557 0.217890
0.999969 0.425482 0.248330
0.180158 0.618137 0.208688
0.251397 0.616226 0.184149
0.463092 0.616226 0.184149
0.664127 0.616226 0.184149
0.859584 0.623955 0.217890
0.999969 0.610356 0.248330
0.233524 0.835043 0.235417
0.290075 0.834359 0.217890
0.477952 0.834359 0.217890
0.671259 0.834359 0.217890
0.859584 0.834359 0.217890
0.999969 0.807334 0.248330
0.275627 0.999093 0.256014
0.324869 0.999093 0.248330
0.481892 0.999093 0.248330
0.658754 0.999093 0.248330
0.835652 0.999093 0.248330
0.999969 0.999093 0.248330
0.120111 0.086445 0.348110
0.244004 0.086445 0.348110
0.438212 0.086445 0.348110
0.665974 0.139881 0.377965
0.860225 0.188311 0.390742
0.999969 0.227122 0.390849
0.120111 0.197944 0.348110
0.219384 0.175399 0.344334
0.433955 0.175399 0.344334
0.664127 0.204729 0.370273
0.859584 0.240572 0.383523
0.999969 0.273192 0.387101
0.120111 0.382085 0.348110
0.219384 0.377922 0.344334
0.438212 0.382085 0.348110
0.657669 0.393610 0.358448
0.856603 0.418205 0.380526
0.999969 0.444359 0.403876
0.180158 0.618137 0.377965
0.251397 0.616226 0.370273
0.449882 0.609194 0.358448
0.657669 0.609194 0.358448
0.856603 0.620788 0.380526
0.999969 0.619915 0.403876
0.233524 0.835043 0.390742
0.290075 0.834359 0.383523
0.474595 0.830963 0.380526
0.668371 0.830963 0.380526
0.856603 0.830963 0.380526
0.999969 0.811220 0.403876
0.275627 0.999093 0.390849
0.324869 0.999093 0.387101
0.500605 0.999093 0.403876
0.667576 0.999093 0.403876
0.839147 0.999093 0.403876
0.999969 0.999093 0.403876
0.180158 0.139881 0.554619
0.279553 0.139881 0.554619
0.471707 0.139881 0.554619
0.665974 0.139881 0.554619
0.860225 0.188311 0.562335
0.999969 0.227122 0.549800
0.180158 0.230781 0.554619
0.251397 0.204729 0.552967
0.463092 0.204729 0.552967
0.664127 0.204729 0.552967
0.859584 0.240572 0.559502
0.999969 0.273192 0.548027
0.180158 0.415282 0.554619
0.251397 0.406702 0.552967
0.449882 0.393610 0.547050
0.657669 0.393610 0.547050
0.856603 0.418205 0.556862
0.999969 0.444359 0.556113
0.180158 0.618137 0.554619
0.251397 0.616226 0.552967
0.449882 0.609194 0.547050
0.665974 0.618137 0.554619
0.853998 0.636011 0.569703
0.999969 0.662945 0.592312
0.233524 0.835043 0.562335
0.290075 0.834359 0.559502
0.474595 0.830963 0.556862
0.682315 0.828022 0.569703
0.853998 0.828022 0.569703
0.999969 0.829635 0.592312
0.275627 0.999093 0.549800
0.324869 0.999093 0.548027
0.500605 0.999093 0.556113
0.706877 0.999093 0.592312
0.855381 0.999093 0.592312
0.999969 0.999093 0.592312
0.233524 0.188311 0.732398
0.310136 0.188311 0.732398
0.485965 0.188311 0.732398
0.674341 0.188311 0.732398
0.860225 0.188311 0.732398
0.999969 0.227122 0.710985
0.233524 0.259299 0.732398
0.290075 0.240572 0.731784
0.477952 0.240572 0.731784
0.671259 0.240572 0.731784
0.859584 0.240572 0.731784
0.999969 0.273192 0.710276
0.233524 0.429603 0.732398
0.290075 0.421557 0.731784
0.474595 0.418205 0.729103
0.668371 0.418205 0.729103
0.856603 0.418205 0.729103
0.999969 0.444359 0.713434
0.233524 0.627357 0.732398
0.290075 0.623955 0.731784
0.474595 0.620788 0.729103
0.682315 0.636011 0.726744
0.853998 0.636011 0.726744
0.999969 0.662945 0.728050
0.233524 0.835043 0.732398
0.290075 0.834359 0.731784
0.474595 0.830963 0.729103
0.682315 0.828022 0.726744
0.860225 0.835043 0.732398
0.999969 0.859151 0.751289
0.275627 0.999093 0.710985
0.324869 0.999093 0.710276
0.500605 0.999093 0.713434
0.706877 0.999093 0.728050
0.881597 0.999093 0.751289
0.999969 0.999093 0.751289
0.275627 0.227122 0.996233
0.333656 0.227122 0.996233
0.486101 0.227122 0.996233
0.660712 0.227122 0.996233
0.836450 0.227122 0.996233
0.999969 0.227122 0.996233
0.275627 0.281473 0.996233
0.324869 0.273192 0.996233
0.481892 0.273192 0.996233
0.658754 0.273192 0.996233
0.835652 0.273192 0.996233
0.999969 0.273192 0.996233
0.275627 0.429728 0.996233
0.324869 0.425482 0.996233
0.500605 0.444359 0.996233
0.667576 0.444359 0.996233
0.839147 0.444359 0.996233
0.999969 0.444359 0.996233
0.275627 0.612482 0.996233
0.324869 0.610356 0.996233
0.500605 0.619915 0.996233
0.706877 0.662945 0.996233
0.855381 0.662945 0.996233
0.999969 0.662945 0.996233
0.275627 0.808163 0.996233
0.324869 0.807334 0.996233
0.500605 0.811220 0.996233
0.706877 0.829635 0.996233
0.881597 0.859151 0.996233
0.999969 0.859151 0.996233
0.275627 0.999093 0.996233
0.324869 0.999093 0.996233
0.500605 0.999093 0.996233
0.706877 0.999093 0.996233
0.881597 0.999093 0.996233
0.999969 0.999093 0.996233
