assets/luts/BlueSky.cube
LUT_3D_SIZE 16
0.023564 0.085761 0.079512
0.056294 0.100164 0.104612
0.116186 0.115343 0.125293
0.186382 0.117262 0.128306
0.256466 0.116929 0.128545
0.328905 0.127597 0.141382
0.402743 0.141819 0.157562
0.477041 0.156006 0.173257
0.551975 0.170078 0.188496
0.628354 0.184181 0.203569
0.705460 0.198227 0.218413
0.781531 0.211893 0.232790
0.854173 0.224881 0.246337
0.919582 0.240485 0.262556
0.976025 0.281749 0.304695
1.000000 0.340629 0.364205
0.026400 0.149439 0.096324
0.054998 0.151313 0.104913
0.113231 0.155774 0.120568
0.183858 0.155788 0.124486
0.254542 0.154413 0.126205
0.327409 0.159709 0.139715
0.401407 0.168443 0.156244
0.475961 0.178301 0.172159
0.551061 0.188981 0.187602
0.627535 0.200391 0.202808
0.704669 0.212295 0.217752
0.780873 0.224209 0.232230
0.853617 0.235730 0.245855
0.919191 0.249714 0.262003
0.975944 0.288276 0.304130
1.000000 0.345244 0.364052
0.029919 0.224003 0.111154
0.054014 0.223633 0.111518
0.107861 0.223147 0.114530
0.178562 0.221707 0.116885
0.250139 0.219260 0.120886
0.323494 0.219903 0.135536
0.397954 0.223006 0.152685
0.472917 0.227506 0.169146
0.548371 0.233183 0.185036
0.625139 0.240170 0.200607
0.702631 0.248148 0.215857
0.779048 0.256584 0.230542
0.851987 0.264976 0.244395
0.918006 0.275245 0.260304
0.975641 0.307141 0.302376
1.000000 0.358977 0.363701
0.029710 0.297714 0.111746
0.052059 0.297433 0.111268
0.102825 0.296692 0.110372
0.172880 0.295220 0.110144
0.244903 0.292539 0.114636
0.318286 0.290562 0.129771
0.392864 0.290093 0.147273
0.468051 0.290865 0.164258
0.543919 0.292811 0.180689
0.621050 0.296093 0.196748
0.698954 0.300478 0.212434
0.775656 0.305458 0.227495
0.848929 0.310456 0.241677
0.915857 0.316321 0.257026
0.975141 0.339467 0.298824
1.000000 0.383693 0.362956
0.029317 0.368950 0.111396
0.050451 0.368812 0.111212
0.098679 0.368428 0.110676
0.167559 0.367673 0.109889
0.240004 0.366100 0.112426
0.313227 0.363394 0.124611
0.387308 0.360705 0.141355
0.462400 0.358976 0.158438
0.538301 0.358320 0.175177
0.615690 0.359068 0.191635
0.693859 0.360877 0.207740
0.770877 0.363187 0.223185
0.844629 0.365362 0.237766
0.912584 0.367484 0.252235
0.974304 0.382576 0.293661
1.000000 0.418333 0.361886
0.032569 0.437891 0.121515
0.051644 0.437817 0.121410
0.096892 0.437524 0.121090
0.163221 0.437046 0.120493
0.234703 0.436292 0.120295
0.308353 0.434627 0.124327
0.382388 0.431583 0.136485
0.456942 0.428138 0.152643
0.532482 0.425573 0.169317
0.609812 0.424397 0.185894
0.687933 0.424352 0.202227
0.765266 0.424678 0.218025
0.839293 0.424735 0.232924
0.907885 0.424154 0.246873
0.971983 0.433119 0.288799
1.000000 0.460659 0.360903
0.037351 0.503877 0.134274
0.054448 0.503812 0.134198
0.096849 0.503604 0.133942
0.160230 0.503250 0.133475
0.229601 0.502677 0.132784
0.302602 0.501867 0.132537
0.377389 0.500097 0.136393
0.452059 0.496557 0.148091
0.527183 0.492665 0.163764
0.603995 0.490058 0.180153
0.681999 0.488567 0.196481
0.759238 0.487397 0.212419
0.833347 0.485819 0.227537
0.902245 0.483281 0.241551
0.968660 0.487901 0.285156
1.000000 0.508164 0.360282
0.042617 0.566725 0.146671
0.058056 0.566672 0.146607
0.097857 0.566516 0.146412
0.158396 0.566222 0.146027
0.225403 0.565759 0.145448
0.296588 0.565196 0.144695
0.371024 0.564287 0.144407
0.446915 0.562398 0.148118
0.522413 0.558752 0.159453
0.598782 0.555151 0.174855
0.676357 0.552424 0.190924
0.753289 0.550040 0.206741
0.827382 0.547109 0.221949
0.896287 0.543030 0.236116
0.964929 0.544409 0.281778
1.000000 0.558861 0.359728
0.048315 0.626891 0.158746
0.062371 0.626853 0.158700
0.099824 0.626740 0.158537
0.157532 0.626510 0.158212
0.222267 0.626119 0.157737
0.291428 0.625568 0.157100
0.364316 0.624957 0.156303
0.440155 0.624081 0.156002
0.517253 0.622252 0.159621
0.594124 0.619011 0.170773
0.671269 0.615468 0.185854
0.747679 0.611996 0.201418
0.821612 0.607934 0.216470
0.890408 0.602517 0.230643
0.961405 0.601218 0.278380
1.000000 0.611306 0.359165
0.054503 0.685491 0.170722
0.067428 0.685462 0.170669
0.102849 0.685277 0.170530
0.157862 0.685101 0.170257
0.220447 0.684826 0.169855
0.287787 0.684381 0.169309
0.358901 0.683841 0.168606
0.433502 0.683197 0.167807
0.510787 0.682335 0.167484
0.589066 0.680709 0.171040
0.666697 0.677462 0.181962
0.742828 0.673260 0.196564
0.816263 0.668028 0.211319
0.884827 0.661465 0.225370
0.957968 0.658162 0.275078
1.000000 0.664814 0.358602
0.061151 0.742641 0.182500
0.073136 0.742624 0.182451
0.106736 0.742571 0.182342
0.159127 0.742436 0.182117
0.219609 0.742069 0.181770
0.285209 0.741685 0.181299
0.354734 0.741234 0.180680
0.427867 0.740657 0.179949
0.503999 0.740147 0.179127
0.582490 0.739311 0.178796
0.661496 0.737402 0.182269
0.738317 0.733627 0.192808
0.811660 0.727671 0.206658
0.879805 0.719736 0.220429
0.954611 0.714711 0.272029
1.000000 0.718867 0.358148
0.068108 0.798258 0.193936
0.079288 0.798215 0.193905
0.111169 0.798152 0.193809
0.160874 0.798062 0.193625
0.219222 0.797815 0.193318
0.283017 0.797462 0.192880
0.351013 0.797066 0.192357
0.422555 0.796538 0.191710
0.497235 0.795946 0.190937
0.574635 0.795270 0.190095
0.653975 0.794481 0.189788
0.732795 0.792359 0.193087
0.807123 0.786920 0.203046
0.875256 0.778219 0.215992
0.951569 0.771508 0.269257
1.000000 0.773848 0.357681
0.075140 0.851524 0.204760
0.085608 0.851483 0.204735
0.115699 0.851401 0.204642
0.162671 0.851238 0.204464
0.218748 0.851125 0.204204
0.280620 0.850779 0.203837
0.346811 0.850406 0.203351
0.416730 0.850000 0.202788
0.489780 0.849434 0.202112
0.565603 0.848809 0.201337
0.643791 0.848221 0.200481
0.723186 0.847211 0.200143
0.800465 0.844423 0.203243
0.870743 0.836753 0.212516
0.948858 0.828929 0.266777
1.000000 0.829731 0.357293
0.082051 0.901688 0.214735
0.091779 0.901713 0.214718
0.119967 0.901631 0.214647
0.164161 0.901525 0.214464
0.217820 0.901363 0.214245
0.277513 0.901083 0.213922
0.341716 0.900747 0.213508
0.409675 0.900301 0.212968
0.480903 0.899804 0.212372
0.554850 0.899240 0.211663
0.631176 0.898639 0.210881
0.709357 0.897997 0.210066
0.788204 0.896939 0.209690
0.863336 0.893159 0.212550
0.945863 0.887032 0.264961
1.000000 0.887224 0.356938
0.127370 0.948583 0.266960
0.134642 0.948527 0.266948
0.155450 0.948522 0.266907
0.190406 0.948394 0.266836
0.236306 0.948275 0.266706
0.289914 0.948075 0.266525
0.349136 0.947846 0.266312
0.412969 0.947539 0.266041
0.480521 0.947151 0.265702
0.551220 0.946674 0.265343
0.624591 0.946265 0.264922
0.700091 0.945748 0.264458
0.776997 0.945247 0.263983
0.854064 0.944236 0.263849
0.943031 0.942723 0.293699
1.000000 0.943621 0.361370
0.181005 0.898464 0.327531
0.187277 0.898495 0.327587
0.205488 0.898569 0.327856
0.236465 0.898593 0.327801
0.278002 0.898543 0.327655
0.327959 0.898548 0.328008
0.384202 0.898640 0.328696
0.445239 0.898737 0.329500
0.510104 0.898802 0.330370
0.578325 0.898943 0.331468
0.649195 0.899026 0.332705
0.721755 0.899167 0.334017
0.795264 0.899281 0.335412
0.868195 0.899482 0.337241
0.950760 0.900704 0.348204
1.000000 0.903083 0.372509
0.093829 0.533460 0.235694
0.110081 0.533665 0.236206
0.150766 0.534397 0.238606
0.205422 0.534537 0.238350
0.266421 0.534495 0.237381
0.332332 0.535179 0.240181
0.401202 0.536447 0.245018
0.471944 0.537898 0.250715
0.544151 0.539517 0.257104
0.618217 0.541446 0.264226
0.693666 0.543566 0.271912
0.768644 0.545874 0.279926
0.841141 0.548309 0.287932
0.908224 0.551594 0.298177
0.970439 0.561679 0.327078
1.000000 0.579690 0.371256
0.027372 0.150322 0.154470
0.054555 0.151236 0.155916
0.112253 0.156435 0.162092
0.184357 0.156408 0.161820
0.256499 0.154276 0.159585
0.329694 0.159837 0.167171
0.403777 0.169289 0.179052
0.478262 0.179791 0.191685
0.553353 0.191028 0.204711
0.629795 0.202895 0.218095
0.707015 0.215164 0.231647
0.783130 0.227455 0.245009
0.855923 0.239319 0.257821
0.920828 0.254470 0.273961
0.976135 0.294775 0.315808
1.000000 0.351077 0.373212
0.029553 0.223546 0.154193
0.052793 0.222215 0.152711
0.106173 0.221438 0.152569
0.178358 0.220233 0.151855
0.251654 0.218260 0.152068
0.325787 0.219656 0.161719
0.400540 0.223490 0.174988
0.475588 0.228640 0.188635
0.551060 0.234935 0.202424
0.627929 0.242468 0.216375
0.705387 0.250905 0.230363
0.781816 0.259805 0.244087
0.854796 0.268660 0.257185
0.920113 0.280287 0.273478
0.975956 0.314416 0.315790
1.000000 0.365791 0.374243
0.028732 0.297259 0.150419
0.049248 0.295755 0.145234
0.099681 0.294329 0.141930
0.170853 0.292673 0.140178
0.244558 0.290683 0.142110
0.319243 0.289751 0.153606
0.394560 0.290078 0.168155
0.470177 0.291469 0.182834
0.546219 0.293902 0.197460
0.623561 0.297659 0.212078
0.701497 0.302498 0.226636
0.778341 0.307854 0.240800
0.851667 0.313313 0.254292
0.917861 0.320325 0.270230
0.975414 0.345583 0.312491
1.000000 0.389730 0.373549
0.027890 0.368588 0.147215
0.046441 0.367442 0.139686
0.094702 0.366548 0.136168
0.164620 0.365429 0.134638
0.238070 0.363896 0.135814
0.312675 0.361967 0.145813
0.387909 0.360201 0.160441
0.463710 0.359113 0.175791
0.540031 0.358954 0.191091
0.617698 0.360101 0.206367
0.696090 0.362280 0.221483
0.773298 0.364944 0.236183
0.847033 0.367533 0.250140
0.914554 0.370530 0.265210
0.974762 0.387202 0.307031
1.000000 0.423378 0.372420
0.031276 0.437669 0.151274
0.047741 0.436832 0.144316
0.093076 0.436211 0.141414
0.160419 0.435523 0.140441
0.232492 0.434511 0.139708
0.306756 0.432943 0.142866
0.381817 0.430537 0.153748
0.457295 0.427822 0.168658
0.533525 0.425791 0.184225
0.611273 0.425043 0.199870
0.689781 0.425329 0.215427
0.767363 0.426024 0.230561
0.841451 0.426432 0.244936
0.910207 0.426303 0.258877
0.973260 0.436117 0.300273
1.000000 0.464593 0.370999
0.036316 0.503713 0.158628
0.051077 0.503148 0.153073
0.093490 0.502750 0.150855
0.157818 0.502244 0.150189
0.227703 0.501521 0.149190
0.300910 0.500536 0.148566
0.376174 0.498850 0.151850
0.451569 0.495824 0.162748
0.527445 0.492494 0.177616
0.604894 0.490340 0.193317
0.683388 0.489229 0.209030
0.760920 0.488375 0.224443
0.835358 0.487068 0.239130
0.904482 0.484844 0.252875
0.970114 0.490061 0.295602
1.000000 0.511289 0.370116
0.041795 0.566599 0.166962
0.055230 0.566228 0.162683
0.094977 0.565917 0.160977
0.156292 0.565550 0.160478
0.223798 0.565032 0.159727
0.295245 0.564270 0.158736
0.369749 0.563303 0.158155
0.445895 0.561464 0.161467
0.521990 0.558201 0.172297
0.599048 0.555048 0.187165
0.677202 0.552764 0.202793
0.754583 0.550722 0.218228
0.829043 0.548085 0.233092
0.898142 0.544267 0.247018
0.966229 0.546053 0.291869
1.000000 0.561353 0.369458
0.047667 0.626830 0.175941
0.060077 0.626581 0.172701
0.097420 0.626341 0.171446
0.155784 0.626053 0.171045
0.220949 0.625626 0.170458
0.290354 0.625044 0.169666
0.363265 0.624329 0.168669
0.439173 0.623332 0.168143
0.516432 0.621596 0.171477
0.593820 0.618636 0.182256
0.671549 0.615516 0.197005
0.748588 0.612382 0.212295
0.822827 0.608599 0.227115
0.891886 0.603454 0.241130
0.962362 0.602638 0.288176
1.000000 0.613298 0.368908
0.054013 0.685463 0.185490
0.065626 0.685266 0.183121
0.100916 0.685176 0.182180
0.156470 0.684877 0.181878
0.219389 0.684510 0.181397
0.286901 0.684062 0.180734
0.358114 0.683458 0.179897
0.432753 0.682697 0.178913
0.510018 0.681804 0.178423
0.588534 0.680162 0.181771
0.666522 0.677227 0.192452
0.743195 0.673322 0.206844
0.817141 0.668521 0.221481
0.885951 0.662147 0.235418
0.958717 0.659129 0.284605
1.000000 0.666341 0.368298
0.060787 0.742643 0.195407
0.071790 0.742594 0.193748
0.105271 0.742589 0.193064
0.158075 0.742326 0.192816
0.218810 0.741958 0.192401
0.284536 0.741613 0.191840
0.354161 0.741067 0.191122
0.427319 0.740398 0.190286
0.503456 0.739744 0.189330
0.581935 0.738847 0.188851
0.661165 0.737174 0.192165
0.738269 0.733430 0.202544
0.811956 0.727827 0.216321
0.880629 0.720350 0.230049
0.955288 0.715486 0.281248
1.000000 0.720039 0.367774
0.067860 0.798291 0.205341
0.078388 0.798342 0.204268
0.110165 0.798250 0.203822
0.160157 0.798099 0.203583
0.218700 0.797810 0.203245
0.282602 0.797445 0.202760
0.350672 0.797037 0.202147
0.422255 0.796437 0.201410
0.496966 0.795790 0.200560
0.574305 0.795123 0.199587
0.653624 0.794195 0.199131
0.732542 0.792096 0.202341
0.807129 0.786977 0.212241
0.875698 0.778472 0.225145
0.952095 0.772135 0.278185
1.000000 0.774655 0.367260
0.075019 0.851520 0.214929
0.085109 0.851663 0.214386
0.115192 0.851626 0.214096
0.162296 0.851477 0.213911
0.218474 0.851236 0.213618
0.280430 0.850957 0.213191
0.346633 0.850484 0.212670
0.416612 0.850099 0.212004
0.489670 0.849471 0.211242
0.565466 0.848838 0.210393
0.643548 0.848108 0.209442
0.723062 0.847153 0.209001
0.800451 0.844304 0.211978
0.870948 0.836799 0.221228
0.949130 0.829305 0.275454
1.000000 0.830356 0.366838
0.082040 0.901739 0.223822
0.091764 0.901927 0.223790
0.119962 0.901932 0.223694
0.164170 0.901795 0.223523
0.217844 0.901558 0.223247
0.277531 0.901337 0.222890
0.341752 0.900961 0.222438
0.409765 0.900506 0.221848
0.480960 0.899936 0.221190
0.554904 0.899337 0.220404
0.631192 0.898720 0.219534
0.709308 0.898028 0.218591
0.788111 0.896911 0.218145
0.863352 0.893137 0.220936
0.945977 0.887194 0.273400
1.000000 0.887611 0.366446
0.127903 0.948630 0.273455
0.136772 0.948812 0.275107
0.157714 0.948849 0.275602
0.192297 0.948715 0.275508
0.237830 0.948582 0.275368
0.291125 0.948387 0.275178
0.350175 0.948076 0.274940
0.413831 0.947714 0.274630
0.481237 0.947335 0.274254
0.551830 0.946885 0.273858
0.624999 0.946371 0.273393
0.700316 0.945863 0.272882
0.777145 0.945249 0.272339
0.854110 0.944233 0.272138
0.943083 0.942797 0.302293
1.000000 0.943759 0.370909
0.182809 0.898697 0.339639
0.191911 0.898751 0.342698
0.210186 0.898674 0.343315
0.240385 0.898665 0.342733
0.281282 0.898619 0.342173
0.330659 0.898648 0.342096
0.386473 0.898718 0.342414
0.447129 0.898795 0.342873
0.511629 0.898870 0.343521
0.579521 0.898982 0.344320
0.650174 0.899115 0.345277
0.722597 0.899175 0.346362
0.795817 0.899297 0.347488
0.868563 0.899496 0.349027
0.950929 0.900701 0.359330
1.000000 0.903142 0.382972
0.099614 0.535048 0.286534
0.115752 0.534933 0.286873
0.152934 0.534626 0.285322
0.206298 0.534424 0.282687
0.267024 0.534424 0.279741
0.332796 0.535108 0.279716
0.401599 0.536374 0.281692
0.472231 0.537826 0.284692
0.544364 0.539492 0.288600
0.618399 0.541396 0.293455
0.693784 0.543576 0.299080
0.768762 0.545831 0.305156
0.841181 0.548272 0.311319
0.908228 0.551564 0.319386
0.970463 0.561626 0.344062
1.000000 0.579675 0.383833
0.037021 0.161023 0.247395
0.059915 0.160687 0.245012
0.112531 0.158455 0.242700
0.183182 0.156150 0.240328
0.255775 0.154077 0.236494
0.329649 0.159531 0.236805
0.404236 0.169043 0.240461
0.479071 0.179824 0.245906
0.554318 0.191418 0.252793
0.630900 0.203638 0.260990
0.708138 0.216232 0.270159
0.784496 0.228857 0.279788
0.857324 0.241063 0.289388
0.921807 0.257114 0.302435
0.976257 0.298759 0.338669
1.000000 0.354782 0.389762
0.031739 0.224415 0.238722
0.054089 0.222935 0.236638
0.105426 0.221275 0.235233
0.175868 0.219739 0.233733
0.250684 0.217682 0.230892
0.327157 0.219014 0.232182
0.403563 0.223150 0.236918
0.479640 0.229102 0.243699
0.555855 0.236471 0.251996
0.633127 0.245112 0.261530
0.710992 0.254689 0.271962
0.787702 0.264738 0.282800
0.860844 0.274834 0.293577
0.924526 0.289680 0.309265
0.976562 0.328913 0.349815
1.000000 0.379698 0.401228
0.028512 0.296969 0.231217
0.048225 0.294727 0.227864
0.096233 0.291206 0.223414
0.166610 0.288531 0.219500
0.242543 0.286913 0.217168
0.320154 0.287146 0.220710
0.397576 0.288653 0.227756
0.474681 0.291158 0.236472
0.551736 0.294789 0.246337
0.629736 0.299771 0.257158
0.708167 0.305807 0.268632
0.785415 0.312476 0.280365
0.858990 0.319273 0.291955
0.923321 0.329721 0.308457
0.976183 0.360956 0.350564
1.000000 0.405211 0.403898
0.027805 0.368480 0.225773
0.043817 0.366504 0.220061
0.086971 0.363049 0.210205
0.157508 0.360537 0.204610
0.233321 0.358648 0.202597
0.310965 0.357874 0.206933
0.388962 0.357745 0.215865
0.466696 0.358029 0.226451
0.544427 0.359093 0.237825
0.623032 0.361320 0.249851
0.702071 0.364580 0.262298
0.779892 0.368297 0.274843
0.854142 0.372059 0.287070
0.919938 0.377805 0.303460
0.975328 0.399808 0.345953
1.000000 0.436607 0.402899
0.031224 0.437524 0.224004
0.044244 0.436072 0.217400
0.082827 0.433506 0.204521
0.151578 0.431724 0.198792
0.226088 0.430057 0.196539
0.302475 0.428469 0.197160
0.380203 0.427133 0.204416
0.458121 0.425974 0.215787
0.536198 0.425203 0.228324
0.615230 0.425608 0.241369
0.694915 0.426879 0.254693
0.773230 0.428497 0.268035
0.847904 0.429903 0.280962
0.915428 0.431812 0.296661
0.974402 0.445727 0.339183
1.000000 0.475481 0.401427
0.036277 0.503642 0.224714
0.047486 0.502612 0.218229
0.082552 0.500760 0.204905
0.148446 0.499533 0.199523
0.221001 0.498381 0.197716
0.295737 0.496903 0.195939
0.372449 0.495220 0.197558
0.450100 0.493214 0.206194
0.528127 0.491249 0.218837
0.607313 0.490246 0.232530
0.687118 0.490089 0.246500
0.765722 0.490135 0.260466
0.840981 0.489729 0.274002
0.910026 0.488788 0.288419
0.972727 0.496465 0.330498
1.000000 0.519794 0.399572
0.041762 0.566561 0.226722
0.051867 0.565825 0.220839
0.084330 0.564563 0.208288
0.147074 0.563684 0.203465
0.217292 0.562852 0.202202
0.290153 0.561753 0.200522
0.365527 0.560392 0.199096
0.442841 0.558667 0.201269
0.520781 0.556318 0.210604
0.599761 0.554321 0.224020
0.679478 0.553052 0.238315
0.758211 0.551873 0.252674
0.833542 0.550058 0.266636
0.903469 0.547113 0.280165
0.969780 0.550429 0.322819
1.000000 0.568016 0.398072
0.047640 0.626802 0.229908
0.057072 0.626330 0.224783
0.087540 0.625462 0.213604
0.147152 0.624866 0.209422
0.214823 0.624237 0.208485
0.285669 0.623411 0.207229
0.359321 0.622367 0.205694
0.435822 0.621103 0.204465
0.514008 0.619393 0.206966
0.592958 0.617305 0.216779
0.672428 0.615160 0.230581
0.750933 0.612998 0.245053
0.826320 0.610014 0.259246
0.896378 0.605657 0.272759
0.965570 0.605985 0.317573
1.000000 0.618576 0.397100
0.053989 0.685400 0.234281
0.062996 0.685178 0.229968
0.091986 0.684735 0.220286
0.148628 0.684278 0.216748
0.213804 0.683753 0.216035
0.282657 0.683082 0.215064
0.354704 0.682277 0.213833
0.429803 0.681243 0.212360
0.507432 0.680157 0.211307
0.586605 0.678603 0.214048
0.666003 0.676304 0.224081
0.744244 0.673374 0.237913
0.819423 0.669361 0.252150
0.889356 0.663723 0.265787
0.961285 0.661842 0.313167
1.000000 0.670629 0.396417
0.060768 0.742545 0.239578
0.069533 0.742615 0.236053
0.097413 0.742427 0.227953
0.151157 0.742137 0.225003
0.213878 0.741678 0.224441
0.280856 0.741167 0.223648
0.351223 0.740478 0.222655
0.424863 0.739664 0.221450
0.501299 0.738797 0.220049
0.579952 0.737668 0.219117
0.659721 0.736035 0.222005
0.738157 0.733001 0.231997
0.813169 0.728117 0.245514
0.882913 0.721482 0.259130
0.957290 0.717588 0.308898
1.000000 0.723378 0.395676
0.067839 0.798232 0.245362
0.076491 0.798308 0.242661
0.103536 0.798348 0.236119
0.154315 0.798315 0.233743
0.214465 0.797980 0.233270
0.279451 0.797468 0.232633
0.348163 0.796934 0.231802
0.420226 0.796168 0.230790
0.495256 0.795378 0.229612
0.572810 0.794524 0.228285
0.652253 0.793429 0.227456
0.731628 0.791435 0.230334
0.807299 0.786773 0.240026
0.877100 0.779153 0.252928
0.953457 0.773561 0.304966
1.000000 0.777088 0.395002
0.075003 0.851530 0.251189
0.083646 0.851780 0.249284
0.109977 0.852062 0.244344
0.157675 0.851997 0.242523
0.215119 0.851783 0.242118
0.277893 0.851347 0.241586
0.344698 0.850821 0.240875
0.415053 0.850248 0.240011
0.488464 0.849528 0.239012
0.564480 0.848697 0.237858
0.642610 0.847835 0.236591
0.722143 0.846654 0.235800
0.800119 0.843975 0.238573
0.871351 0.836939 0.247799
0.949920 0.830197 0.301416
1.000000 0.832074 0.394449
0.082026 0.901773 0.256712
0.090707 0.902102 0.255624
0.116302 0.902605 0.252266
0.160852 0.902633 0.250964
0.215428 0.902379 0.250640
0.275772 0.902051 0.250176
0.340424 0.901613 0.249561
0.408754 0.901091 0.248812
0.480212 0.900452 0.247958
0.554376 0.899674 0.246940
0.630730 0.898914 0.245821
0.708815 0.898033 0.244597
0.787769 0.896710 0.243849
0.863321 0.893112 0.246476
0.946310 0.887624 0.298599
1.000000 0.888715 0.393920
0.127889 0.948612 0.296446
0.137600 0.948944 0.298525
0.160650 0.949533 0.300978
0.195312 0.949578 0.301556
0.240251 0.949419 0.301344
0.293132 0.949157 0.301098
0.351809 0.948802 0.300755
0.415226 0.948419 0.300347
0.482424 0.947943 0.299883
0.552826 0.947360 0.299344
0.625842 0.946772 0.298713
0.700927 0.946071 0.298029
0.777591 0.945338 0.297313
0.854414 0.944253 0.296961
0.943263 0.942971 0.327598
1.000000 0.944293 0.398414
0.182920 0.898732 0.364319
0.194656 0.898787 0.369178
0.219765 0.898946 0.376325
0.250590 0.898930 0.377480
0.289893 0.898846 0.376298
0.337873 0.898880 0.375720
0.392401 0.898954 0.375444
0.452037 0.898984 0.375388
0.515697 0.899055 0.375537
0.582842 0.899133 0.375900
0.652828 0.899192 0.376417
0.724520 0.899231 0.377108
0.797156 0.899357 0.377753
0.869382 0.899531 0.378664
0.951179 0.900730 0.387878
1.000000 0.903294 0.410412
0.100580 0.535338 0.350826
0.118024 0.535242 0.351508
0.157511 0.534869 0.351784
0.209525 0.534364 0.348188
0.269204 0.534292 0.343104
0.334438 0.535065 0.340375
0.402902 0.536308 0.339453
0.473250 0.537723 0.339587
0.545169 0.539406 0.340731
0.619028 0.541336 0.342915
0.694141 0.543487 0.346038
0.768986 0.545774 0.349611
0.841289 0.548234 0.353303
0.908316 0.551482 0.358322
0.970462 0.561561 0.376682
1.000000 0.579633 0.409132
0.039373 0.163561 0.334241
0.062139 0.164310 0.332194
0.113741 0.161442 0.328886
0.182193 0.155348 0.324077
0.254559 0.152340 0.318767
0.328664 0.158239 0.315749
0.403391 0.168063 0.314816
0.478326 0.179069 0.315379
0.553709 0.190794 0.317360
0.630411 0.203159 0.320902
0.707740 0.215821 0.325677
0.784126 0.228491 0.331144
0.856986 0.240765 0.336727
0.921625 0.256793 0.344823
0.976203 0.298452 0.371517
1.000000 0.354753 0.413429
0.033980 0.225425 0.325474
0.056227 0.224902 0.323624
0.107372 0.223514 0.319635
0.176040 0.221073 0.316851
0.249365 0.218166 0.314462
0.325563 0.219451 0.313385
0.402407 0.223822 0.313629
0.479179 0.229902 0.315198
0.555913 0.237478 0.318227
0.633666 0.246392 0.322860
0.712021 0.256300 0.328791
0.788926 0.266765 0.335484
0.861951 0.277715 0.342737
0.924874 0.294321 0.354450
0.976426 0.334264 0.385742
1.000000 0.384731 0.428086
0.028931 0.296700 0.315866
0.048369 0.294515 0.313298
0.097647 0.291729 0.309642
0.168436 0.290997 0.309615
0.240007 0.288912 0.307856
0.316610 0.289086 0.307659
0.395663 0.291075 0.309313
0.474981 0.294043 0.312319
0.553968 0.298371 0.316830
0.633611 0.304185 0.322933
0.713238 0.311282 0.330364
0.791562 0.319295 0.338735
0.864964 0.328702 0.348529
0.926013 0.344785 0.365128
0.976192 0.379617 0.400459
1.000000 0.423145 0.443667
0.027633 0.368152 0.307986
0.043428 0.366055 0.304589
0.087133 0.362193 0.299307
0.157466 0.358580 0.297330
0.229952 0.355994 0.294622
0.307340 0.355774 0.294143
0.387354 0.356886 0.296955
0.467579 0.358462 0.301777
0.547510 0.360786 0.308138
0.628037 0.364327 0.315870
0.708471 0.368955 0.324723
0.787584 0.374295 0.334334
0.862010 0.380412 0.345030
0.924762 0.391189 0.362411
0.975728 0.418691 0.400738
1.000000 0.456023 0.447025
0.031122 0.437383 0.302925
0.044031 0.435824 0.299223
0.081266 0.432425 0.291490
0.147326 0.428349 0.285131
0.220789 0.425554 0.280945
0.297592 0.423734 0.278672
0.377423 0.423509 0.281211
0.458044 0.423960 0.287646
0.538498 0.424862 0.295880
0.619527 0.426699 0.305226
0.700848 0.429399 0.315408
0.780443 0.432516 0.326135
0.856015 0.435597 0.337159
0.921459 0.441019 0.353788
0.974957 0.460723 0.394781
1.000000 0.491860 0.445882
0.036196 0.503507 0.299887
0.047345 0.502438 0.296182
0.079627 0.499864 0.286939
0.140527 0.496610 0.277129
0.213624 0.494378 0.272378
0.289435 0.492304 0.269253
0.367568 0.490561 0.268531
0.447772 0.489732 0.273780
0.528549 0.489476 0.282989
0.610127 0.490061 0.293647
0.691785 0.491342 0.305046
0.771968 0.492788 0.316816
0.848393 0.493830 0.328598
0.916238 0.495566 0.344783
0.973749 0.508099 0.387093
1.000000 0.533268 0.444210
0.041686 0.566409 0.298137
0.051764 0.565713 0.294679
0.080708 0.563867 0.284977
0.137093 0.561469 0.273396
0.208596 0.559872 0.268676
0.283221 0.558257 0.266115
0.359681 0.556372 0.263516
0.438392 0.554617 0.263954
