assets/luts/BlueSky.cube
LUT_3D_SIZE 6
0.023564 0.085761 0.079512
0.186382 0.117262 0.128306
0.402743 0.141819 0.157562
0.628354 0.184181 0.203569
0.854173 0.224881 0.246337
1.000000 0.340629 0.364205
0.029710 0.297714 0.111746
0.172880 0.295220 0.110144
0.392864 0.290093 0.147273
0.621050 0.296093 0.196748
0.848929 0.310456 0.241677
1.000000 0.383693 0.362956
0.037351 0.503877 0.134274
0.160230 0.503250 0.133475
0.377389 0.500097 0.136393
0.603995 0.490058 0.180153
0.833347 0.485819 0.227537
1.000000 0.508164 0.360282
0.054503 0.685491 0.170722
0.157862 0.685101 0.170257
0.358901 0.683841 0.168606
0.589066 0.680709 0.171040
0.816263 0.668028 0.211319
1.000000 0.664814 0.358602
0.075140 0.851524 0.204760
0.162671 0.851238 0.204464
0.346811 0.850406 0.203351
0.565603 0.848809 0.201337
0.800465 0.844423 0.203243
1.000000 0.829731 0.357293
0.181005 0.898464 0.327531
0.236465 0.898593 0.327801
0.384202 0.898640 0.328696
0.578325 0.898943 0.331468
0.795264 0.899281 0.335412
1.000000 0.903083 0.372509
0.100580 0.535338 0.350826
0.209525 0.534364 0.348188
0.402902 0.536308 0.339453
0.619028 0.541336 0.342915
0.841289 0.548234 0.353303
1.000000 0.579633 0.409132
0.028931 0.296700 0.315866
0.168436 0.290997 0.309615
0.395663 0.291075 0.309313
0.633611 0.304185 0.322933
0.864964 0.328702 0.348529
1.000000 0.423145 0.443667
0.036196 0.503507 0.299887
0.140527 0.496610 0.277129
0.367568 0.490561 0.268531
0.610127 0.490061 0.293647
0.848393 0.493830 0.328598
1.000000 0.533268 0.444210
0.053938 0.685268 0.298263
0.138047 0.683362 0.275239
0.349138 0.680514 0.267855
0.583641 0.676073 0.265617
0.822816 0.670534 0.301071
1.000000 0.676938 0.438132
0.074969 0.851479 0.304625
0.150457 0.852633 0.290553
0.340968 0.851241 0.286259
0.562462 0.848495 0.282131
0.799304 0.843313 0.281494
1.000000 0.834705 0.435467
0.182831 0.898691 0.400264
0.262623 0.899201 0.421994
0.401555 0.899228 0.421733
0.587919 0.899325 0.420664
0.799425 0.899448 0.421030
1.000000 0.903381 0.450349
0.111291 0.538569 0.543841
0.215454 0.537789 0.544160
0.411312 0.536207 0.538751
0.622875 0.540899 0.527676
0.842377 0.547889 0.522561
1.000000 0.579485 0.533143
0.048702 0.297050 0.539831
0.178346 0.301865 0.538038
0.392088 0.289381 0.528958
0.630607 0.303137 0.523383
0.863661 0.330291 0.523210
1.000000 0.428321 0.550338
0.037213 0.502156 0.518787
0.139944 0.494523 0.511532
0.371426 0.495001 0.512146
0.602798 0.502895 0.519609
0.850098 0.524625 0.539582
1.000000 0.586333 0.597392
0.053576 0.684857 0.501120
0.134607 0.682074 0.493432
0.348214 0.673907 0.491448
0.573906 0.668534 0.485113
0.828704 0.678216 0.507363
1.000000 0.707646 0.596579
0.074675 0.851172 0.490452
0.148024 0.852206 0.485538
0.339407 0.851311 0.483295
0.558811 0.846533 0.477197
0.795516 0.840346 0.472031
1.000000 0.847229 0.588357
0.185523 0.899245 0.541692
0.267212 0.899801 0.554719
0.442063 0.900347 0.582954
0.612837 0.899925 0.581683
0.809863 0.899586 0.578521
1.000000 0.904128 0.597036
0.135148 0.546284 0.726375
0.223685 0.545633 0.726395
0.412818 0.542931 0.722376
0.628002 0.540721 0.714306
0.843048 0.547140 0.699967
1.000000 0.579146 0.683918
0.087465 0.312264 0.738208
0.203233 0.328679 0.740455
0.396096 0.319200 0.733427
0.625423 0.299115 0.719791
0.860108 0.324877 0.706027
1.000000 0.427600 0.689753
0.065471 0.496074 0.710244
0.170675 0.500799 0.717341
0.387371 0.509769 0.705845
0.601132 0.502704 0.699138
0.847496 0.523881 0.708203
1.000000 0.589996 0.721012
0.054749 0.683390 0.692481
0.134749 0.680525 0.689568
0.348997 0.672788 0.680948
0.585114 0.677805 0.686571
0.820263 0.695444 0.705293
1.000000 0.742830 0.757402
0.074149 0.850496 0.671561
0.146613 0.851186 0.670044
0.339107 0.849592 0.668472
0.577823 0.843087 0.680856
0.792784 0.838481 0.677339
1.000000 0.863845 0.753874
0.189920 0.900156 0.701799
0.269304 0.900703 0.709404
0.445164 0.901058 0.727700
0.646346 0.899990 0.752771
0.824887 0.899129 0.749232
1.000000 0.904988 0.757051
0.167081 0.558013 0.947321
0.240066 0.557344 0.948756
0.413803 0.553606 0.948733
0.624521 0.549714 0.936881
0.842914 0.546873 0.921381
1.000000 0.578649 0.874860
0.135954 0.337712 0.980474
0.239274 0.366561 0.976573
0.405831 0.362941 0.973274
0.621069 0.341502 0.966218
0.853832 0.321060 0.943959
1.000000 0.426389 0.878940
0.108976 0.498784 0.947509
0.213463 0.513316 0.963495
0.421812 0.540885 0.952530
0.620708 0.534726 0.945427
0.845244 0.520702 0.934512
1.000000 0.589320 0.895596
0.086448 0.674351 0.913890
0.174520 0.680307 0.925779
0.386071 0.690236 0.929927
0.613801 0.700611 0.914292
0.819597 0.696415 0.905778
1.000000 0.744938 0.916995
0.075433 0.848635 0.891115
0.147427 0.849220 0.892068
0.338394 0.847818 0.890045
0.579547 0.842609 0.882442
0.802933 0.846341 0.888716
1.000000 0.881523 0.938351
0.197550 0.901688 0.900871
0.273194 0.902019 0.905850
0.444307 0.902244 0.918167
0.646065 0.900745 0.934330
0.841004 0.899026 0.949250
1.000000 0.905873 0.946084
0.228887 0.584503 1.000000
0.278666 0.585020 1.000000
0.414195 0.585020 1.000000
0.595616 0.585020 1.000000
0.797862 0.585019 1.000000
1.000000 0.585019 1.000000
0.229704 0.397295 1.000000
0.304681 0.432264 1.000000
0.422321 0.439916 1.000000
0.589378 0.439915 1.000000
0.790238 0.439913 1.000000
1.000000 0.439910 1.000000
0.229702 0.515421 1.000000
0.312711 0.541583 1.000000
0.480089 0.591692 1.000000
0.629675 0.598193 1.000000
0.808382 0.598193 1.000000
1.000000 0.598192 1.000000
0.229708 0.667800 1.000000
0.312707 0.681285 1.000000
0.487968 0.713139 1.000000
0.673617 0.747288 1.000000
0.831786 0.751276 1.000000
1.000000 0.751275 1.000000
0.229699 0.830900 1.000000
0.312700 0.836540 1.000000
0.487965 0.850552 1.000000
0.678976 0.868673 1.000000
0.853831 0.885815 1.000000
1.000000 0.886756 1.000000
0.229699 0.982846 1.000000
0.312706 0.983154 1.000000
0.487961 0.983919 1.000000
0.678971 0.985106 1.000000
0.855058 0.986273 1.000000
1.000000 0.985477 1.000000
