assets/luts/Bride.cube
LUT_3D_SIZE 6
0.264622 0.121863 0.121096
0.465962 0.121863 0.121096
0.647310 0.121863 0.121096
0.810526 0.121863 0.121096
0.927987 0.121863 0.121096
0.999972 0.121863 0.121096
0.264622 0.298484 0.121096
0.465962 0.298484 0.121096
0.647310 0.275364 0.121096
0.810526 0.272323 0.121096
0.927987 0.260740 0.121096
0.999972 0.242302 0.121096
0.264622 0.502275 0.121096
0.442843 0.502275 0.121096
0.647310 0.502275 0.121096
0.810526 0.496082 0.121096
0.927987 0.472564 0.121096
0.999972 0.434610 0.121096
0.264622 0.717128 0.121096
0.439738 0.717128 0.121096
0.642289 0.717128 0.121096
0.810526 0.717128 0.121096
0.927987 0.682503 0.121096
0.999972 0.626556 0.121096
0.264622 0.888374 0.121096
0.427830 0.888374 0.121096
0.622879 0.888374 0.121096
0.785619 0.888374 0.121096
0.927987 0.888374 0.121096
0.999972 0.815131 0.121096
0.264622 0.999967 0.121096
0.408467 0.999967 0.121096
0.590767 0.999967 0.121096
0.744309 0.999967 0.121096
0.878923 0.999967 0.121096
0.999972 0.999967 0.121096
0.264622 0.121863 0.297421
0.465962 0.121863 0.297421
0.647310 0.121863 0.274312
0.810526 0.121863 0.271263
0.927987 0.121863 0.259695
0.999972 0.121863 0.241279
0.264622 0.298484 0.297421
0.465962 0.298484 0.297421
0.647310 0.298484 0.297421
0.810526 0.298484 0.297421
0.927987 0.298484 0.297421
0.999972 0.298484 0.297421
0.264622 0.502275 0.274312
0.465962 0.502275 0.297421
0.647310 0.502275 0.297421
0.810526 0.503261 0.297421
0.927987 0.485981 0.297421
0.999972 0.457583 0.297421
0.264622 0.717128 0.271263
0.465962 0.717128 0.297421
0.648125 0.717128 0.297421
0.810526 0.717128 0.297421
0.927987 0.687191 0.297421
0.999972 0.637044 0.297421
0.264622 0.888374 0.259695
0.465962 0.888374 0.297421
0.633970 0.888374 0.297421
0.788976 0.888374 0.297421
0.927987 0.888374 0.297421
0.999972 0.819248 0.297421
0.264622 0.999967 0.241279
0.465962 0.999967 0.297421
0.610299 0.999967 0.297421
0.752168 0.999967 0.297421
0.881704 0.999967 0.297421
0.999972 0.999967 0.297421
0.264622 0.121863 0.501256
0.442843 0.121863 0.501256
0.647310 0.121863 0.501256
0.810526 0.121863 0.495050
0.927987 0.121863 0.471516
0.999972 0.121863 0.433535
0.264622 0.275364 0.501256
0.465962 0.298484 0.501256
0.647310 0.298484 0.501256
0.810526 0.298484 0.502244
0.927987 0.298484 0.484943
0.999972 0.298484 0.456511
0.264622 0.502275 0.501256
0.465962 0.502275 0.501256
0.647310 0.502275 0.501256
0.810526 0.502275 0.501256
0.927987 0.502275 0.501256
0.999972 0.502275 0.501256
0.264622 0.717128 0.495050
0.465962 0.717128 0.502244
0.647310 0.717128 0.501256
0.810526 0.717128 0.501256
0.927987 0.693078 0.501256
0.999972 0.659035 0.501256
0.264622 0.888374 0.471516
0.465962 0.888374 0.484943
0.647310 0.888373 0.501256
0.793286 0.888373 0.501256
0.927987 0.888373 0.501256
0.999972 0.828021 0.501256
0.264622 0.999967 0.433535
0.465962 0.999967 0.456511
0.647310 0.999967 0.501256
0.768448 0.999967 0.501256
0.887630 0.999967 0.501256
0.999972 0.999967 0.501256
0.264622 0.121863 0.716374
0.439738 0.121863 0.716374
0.642289 0.121863 0.716374
0.810526 0.121863 0.716374
0.927987 0.121863 0.681717
0.999972 0.121863 0.625681
0.264622 0.272323 0.716374
0.465962 0.298484 0.716374
0.648125 0.298484 0.716374
0.810526 0.298484 0.716374
0.927987 0.298484 0.686417
0.999972 0.298484 0.636188
0.264622 0.496082 0.716374
0.465962 0.503261 0.716374
0.647310 0.502275 0.716374
0.810526 0.502275 0.716374
0.927987 0.502275 0.692299
0.999972 0.502275 0.658212
0.264622 0.717128 0.716374
0.465962 0.717128 0.716374
0.647310 0.717128 0.716374
0.810526 0.717128 0.716374
0.927987 0.717128 0.716374
0.999972 0.717128 0.716374
0.264622 0.888374 0.681717
0.465962 0.888374 0.686417
0.647310 0.888373 0.692299
0.810526 0.888373 0.716374
0.927987 0.888373 0.716374
0.999972 0.852778 0.716374
0.264622 0.999967 0.625681
0.465962 0.999967 0.636188
0.647310 0.999967 0.658212
0.810526 0.999967 0.716374
0.904301 0.999967 0.716374
0.999972 0.999967 0.716374
0.264622 0.121863 0.888073
0.427830 0.121863 0.888073
0.622879 0.121863 0.888073
0.785619 0.121863 0.888073
0.927987 0.121863 0.888073
0.999972 0.121863 0.814617
0.264622 0.260740 0.888073
0.465962 0.298484 0.888073
0.633970 0.298484 0.888073
0.788976 0.298484 0.888073
0.927987 0.298484 0.888073
0.999972 0.298484 0.818737
0.264622 0.472564 0.888073
0.465962 0.485981 0.888073
0.647310 0.502275 0.888073
0.793286 0.502275 0.888073
0.927987 0.502275 0.888073
0.999972 0.502275 0.827551
0.264622 0.682503 0.888073
0.465962 0.687191 0.888073
0.647310 0.693078 0.888073
0.810526 0.717128 0.888073
0.927987 0.717128 0.888073
0.999972 0.717128 0.852370
0.264622 0.888374 0.888073
0.465962 0.888374 0.888073
0.647310 0.888373 0.888073
0.810526 0.888373 0.888073
0.927987 0.888373 0.888073
0.999972 0.888373 0.888073
0.264622 0.999967 0.814617
0.465962 0.999967 0.818737
0.647310 0.999967 0.827551
0.810526 0.999967 0.852370
0.927987 0.999967 0.888073
0.999972 0.999967 0.888073
0.264622 0.121863 0.999967
0.408467 0.121863 0.999967
0.590767 0.121863 0.999967
0.744309 0.121863 0.999967
0.878923 0.121863 0.999967
0.999972 0.121863 0.999967
0.264622 0.242302 0.999967
0.465962 0.298484 0.999967
0.610299 0.298484 0.999967
0.752168 0.298484 0.999967
0.881704 0.298484 0.999967
0.999972 0.298484 0.999967
0.264622 0.434610 0.999967
0.465962 0.457583 0.999967
0.647310 0.502275 0.999967
0.768448 0.502275 0.999967
0.887630 0.502275 0.999967
0.999972 0.502275 0.999967
0.264622 0.626556 0.999967
0.465962 0.637044 0.999967
0.647310 0.659035 0.999967
0.810526 0.717128 0.999967
0.904301 0.717128 0.999967
0.999972 0.717128 0.999967
0.264622 0.815131 0.999967
0.465962 0.819248 0.999967
0.647310 0.828021 0.999967
0.810526 0.852778 0.999967
0.927987 0.888373 0.999967
0.999972 0.888373 0.999967
0.264622 0.999967 0.999967
0.465962 0.999967 0.999967
0.647310 0.999967 0.999967
0.810526 0.999967 0.999967
0.927987 0.999967 0.999967
0.999972 0.999967 0.999967
