assets/luts/Bride.cube
LUT_3D_SIZE 16
0.264622 0.121863 0.121096
0.339823 0.121863 0.121096
0.404826 0.121863 0.121096
0.465962 0.121863 0.121096
0.526300 0.121863 0.121096
0.587139 0.121863 0.121096
0.647310 0.121863 0.121096
0.705286 0.121863 0.121096
0.759831 0.121863 0.121096
0.810526 0.121863 0.121096
0.856110 0.121863 0.121096
0.895523 0.121863 0.121096
0.927987 0.121863 0.121096
0.953754 0.121863 0.121096
0.975210 0.121863 0.121096
0.999972 0.121863 0.121096
0.264622 0.181075 0.121096
0.339823 0.181075 0.121096
0.404826 0.155996 0.121096
0.465962 0.148184 0.121096
0.526300 0.145007 0.121096
0.587139 0.143747 0.121096
0.647310 0.143296 0.121096
0.705286 0.143116 0.121096
0.759831 0.142939 0.121096
0.810526 0.142675 0.121096
0.856110 0.142202 0.121096
0.895523 0.141446 0.121096
0.927987 0.140403 0.121096
0.953754 0.139133 0.121096
0.975210 0.137829 0.121096
0.999972 0.136987 0.121096
0.264622 0.238899 0.121096
0.309278 0.238899 0.121096
0.404826 0.238899 0.121096
0.465962 0.217308 0.121096
0.526300 0.208057 0.121096
0.587139 0.204321 0.121096
0.647310 0.202953 0.121096
0.705286 0.202370 0.121096
0.759831 0.201874 0.121096
0.810526 0.201072 0.121096
0.856110 0.199625 0.121096
0.895523 0.197298 0.121096
0.927987 0.194018 0.121096
0.953754 0.189984 0.121096
0.975210 0.185770 0.121096
0.999972 0.182980 0.121096
0.264622 0.298484 0.121096
0.299419 0.298484 0.121096
0.381313 0.298484 0.121096
0.465962 0.298484 0.121096
0.526300 0.283626 0.121096
0.587139 0.277574 0.121096
0.647310 0.275364 0.121096
0.705286 0.274465 0.121096
0.759831 0.273623 0.121096
0.810526 0.272323 0.121096
0.856110 0.269946 0.121096
0.895523 0.266128 0.121096
0.927987 0.260740 0.121096
0.953754 0.254056 0.121096
0.975210 0.247008 0.121096
0.999972 0.242302 0.121096
0.264622 0.361935 0.121096
0.295342 0.361935 0.121096
0.370952 0.361935 0.121096
0.451177 0.361935 0.121096
0.526300 0.361935 0.121096
0.587139 0.353761 0.121096
0.647310 0.350767 0.121096
0.705286 0.349552 0.121096
0.759831 0.348386 0.121096
0.810526 0.346617 0.121096
0.856110 0.343414 0.121096
0.895523 0.338224 0.121096
0.927987 0.330893 0.121096
0.953754 0.321766 0.121096
0.975210 0.312130 0.121096
0.999972 0.305630 0.121096
0.264622 0.430394 0.121096
0.293713 0.430394 0.121096
0.366760 0.430394 0.121096
0.445075 0.430394 0.121096
0.518759 0.430394 0.121096
0.587139 0.430394 0.121096
0.647310 0.426636 0.121096
0.705286 0.425093 0.121096
0.759831 0.423690 0.121096
0.810526 0.421471 0.121096
0.856110 0.417436 0.121096
0.895523 0.410923 0.121096
0.927987 0.401785 0.121096
0.953754 0.390322 0.121096
0.975210 0.378241 0.121096
0.999972 0.370073 0.121096
0.264622 0.502275 0.121096
0.293144 0.502275 0.121096
0.365206 0.502275 0.121096
0.442843 0.502275 0.121096
0.515971 0.502275 0.121096
0.583928 0.502275 0.121096
0.647310 0.502275 0.121096
0.705286 0.500463 0.121096
0.759831 0.498738 0.121096
0.810526 0.496082 0.121096
0.856110 0.491293 0.121096
0.895523 0.483535 0.121096
0.927987 0.472564 0.121096
0.953754 0.458880 0.121096
0.975210 0.444367 0.121096
0.999972 0.434610 0.121096
0.264622 0.575330 0.121096
0.292912 0.575330 0.121096
0.364551 0.575330 0.121096
0.441921 0.575330 0.121096
0.514854 0.575330 0.121096
0.582595 0.575330 0.121096
0.645795 0.575330 0.121096
0.705286 0.575330 0.121096
0.759831 0.573356 0.121096
0.810526 0.570319 0.121096
0.856110 0.564744 0.121096
0.895523 0.555771 0.121096
0.927987 0.543026 0.121096
0.953754 0.527127 0.121096
0.975210 0.510308 0.121096
0.999972 0.498967 0.121096
0.264622 0.647427 0.121096
0.292678 0.647427 0.121096
0.363986 0.647427 0.121096
0.441048 0.647427 0.121096
0.513771 0.647427 0.121096
0.581366 0.647427 0.121096
0.644423 0.647427 0.121096
0.703736 0.647427 0.121096
0.759831 0.647427 0.121096
0.810526 0.643902 0.121096
0.856110 0.637590 0.121096
0.895523 0.627440 0.121096
0.927987 0.612962 0.121096
0.953754 0.594955 0.121096
0.975210 0.575840 0.121096
0.999972 0.562922 0.121096
0.264622 0.717128 0.121096
0.292345 0.717128 0.121096
0.363038 0.717128 0.121096
0.439738 0.717128 0.121096
0.512131 0.717128 0.121096
0.579439 0.717128 0.121096
0.642289 0.717128 0.121096
0.701424 0.717128 0.121096
0.757317 0.717128 0.121096
0.810526 0.717128 0.121096
0.856110 0.709907 0.121096
0.895523 0.698626 0.121096
0.927987 0.682503 0.121096
0.953754 0.662291 0.121096
0.975210 0.640933 0.121096
0.999972 0.626556 0.121096
0.264622 0.781936 0.121096
0.291734 0.781936 0.121096
0.361425 0.781936 0.121096
0.437311 0.781936 0.121096
0.509115 0.781936 0.121096
0.575928 0.781936 0.121096
0.638340 0.781936 0.121096
0.697056 0.781936 0.121096
0.752559 0.781936 0.121096
0.805492 0.781936 0.121096
0.856110 0.781936 0.121096
0.895523 0.769426 0.121096
0.927987 0.751529 0.121096
0.953754 0.729278 0.121096
0.975210 0.705731 0.121096
0.999972 0.689802 0.121096
0.264622 0.839656 0.121096
0.290740 0.839656 0.121096
0.358727 0.839656 0.121096
0.433402 0.839656 0.121096
0.504255 0.839656 0.121096
0.570258 0.839656 0.121096
0.631958 0.839656 0.121096
0.690051 0.839656 0.121096
0.744957 0.839656 0.121096
0.797283 0.839656 0.121096
0.847430 0.839656 0.121096
0.895523 0.839656 0.121096
0.927987 0.820184 0.121096
0.953754 0.795836 0.121096
0.975210 0.770081 0.121096
0.999972 0.752673 0.121096
0.264622 0.888374 0.121096
0.289387 0.888374 0.121096
0.354971 0.888374 0.121096
0.427830 0.888374 0.121096
0.497314 0.888374 0.121096
0.562183 0.888374 0.121096
0.622879 0.888374 0.121096
0.679998 0.888374 0.121096
0.734104 0.888374 0.121096
0.785619 0.888374 0.121096
0.834933 0.888374 0.121096
0.882316 0.888374 0.121096
0.927987 0.888374 0.121096
0.953754 0.862015 0.121096
0.975210 0.834011 0.121096
0.999972 0.815131 0.121096
0.264622 0.927761 0.121096
0.287719 0.927761 0.121096
0.350305 0.927761 0.121096
0.420877 0.927761 0.121096
0.488599 0.927761 0.121096
0.552008 0.927761 0.121096
0.611387 0.927761 0.121096
0.667408 0.927761 0.121096
0.720346 0.927761 0.121096
0.770853 0.927761 0.121096
0.819224 0.927761 0.121096
0.865730 0.927761 0.121096
0.910479 0.927761 0.121096
0.953754 0.927761 0.121096
0.975210 0.897629 0.121096
0.999972 0.877294 0.121096
0.264622 0.961018 0.121096
0.286034 0.961018 0.121096
0.345378 0.961018 0.121096
0.413462 0.961018 0.121096
0.479307 0.961018 0.121096
0.541156 0.961018 0.121096
0.599124 0.961018 0.121096
0.653830 0.961018 0.121096
0.705643 0.961018 0.121096
0.755075 0.961018 0.121096
0.802464 0.961018 0.121096
0.847888 0.961018 0.121096
0.891730 0.961018 0.121096
0.934049 0.961018 0.121096
0.975210 0.961018 0.121096
0.999972 0.939223 0.121096
0.264622 0.999967 0.121096
0.284935 0.999967 0.121096
0.342080 0.999967 0.121096
0.408467 0.999967 0.121096
0.472990 0.999967 0.121096
0.533748 0.999967 0.121096
0.590767 0.999967 0.121096
0.644625 0.999967 0.121096
0.695639 0.999967 0.121096
0.744309 0.999967 0.121096
0.790921 0.999967 0.121096
0.835735 0.999967 0.121096
0.878923 0.999967 0.121096
0.920681 0.999967 0.121096
0.961181 0.999967 0.121096
0.999972 0.999967 0.121096
0.264622 0.121863 0.180153
0.339823 0.121863 0.180153
0.404826 0.121863 0.155130
0.465962 0.121863 0.147335
0.526300 0.121863 0.144170
0.587139 0.121863 0.142920
0.647310 0.121863 0.142472
0.705286 0.121863 0.142289
0.759831 0.121863 0.142113
0.810526 0.121863 0.141850
0.856110 0.121863 0.141382
0.895523 0.121863 0.140624
0.927987 0.121863 0.139581
0.953754 0.121863 0.138313
0.975210 0.121863 0.137020
0.999972 0.121863 0.136179
0.264622 0.181075 0.180153
0.339823 0.181075 0.180153
0.404826 0.181075 0.180153
0.465962 0.181075 0.180153
0.526300 0.181075 0.180153
0.587139 0.181075 0.180153
0.647310 0.181075 0.180153
0.705285 0.181075 0.180153
0.759831 0.181075 0.180153
0.810526 0.181075 0.180153
0.856110 0.181075 0.180153
0.895523 0.181075 0.180153
0.927987 0.181075 0.180153
0.953754 0.181075 0.180153
0.975210 0.181075 0.180153
0.999972 0.181075 0.180153
0.264622 0.238899 0.155130
0.339823 0.238899 0.180153
0.404826 0.238899 0.180153
0.465962 0.230799 0.180153
0.526300 0.227208 0.180153
0.587139 0.225980 0.180153
0.647310 0.225760 0.180153
0.705285 0.225800 0.180153
0.759831 0.225679 0.180153
0.810526 0.225301 0.180153
0.856110 0.224445 0.180153
0.895523 0.222945 0.180153
0.927987 0.220824 0.180153
0.953754 0.218235 0.180153
0.975210 0.215537 0.180153
0.999972 0.213801 0.180153
0.264622 0.298484 0.147335
0.339823 0.298484 0.180153
0.396104 0.298484 0.180153
0.465962 0.298484 0.180153
0.526300 0.291190 0.180153
0.587139 0.288684 0.180153
0.647310 0.288232 0.180153
0.705285 0.288296 0.180153
0.759831 0.288069 0.180153
0.810526 0.287309 0.180153
0.856110 0.285501 0.180153
0.895523 0.282435 0.180153
0.927987 0.278020 0.180153
0.953754 0.272531 0.180153
0.975210 0.266786 0.180153
0.999972 0.262995 0.180153
0.264622 0.361935 0.144170
0.339823 0.361935 0.180153
0.392220 0.361935 0.180153
0.458733 0.361935 0.180153
0.526300 0.361935 0.180153
0.587139 0.358313 0.180153
0.647310 0.357597 0.180153
0.705285 0.357678 0.180153
0.759831 0.357391 0.180153
0.810526 0.356228 0.180153
0.856110 0.353574 0.180153
0.895523 0.349094 0.180153
0.927987 0.342541 0.180153
0.953754 0.334369 0.180153
0.975210 0.325750 0.180153
0.999972 0.320028 0.180153
0.264622 0.430394 0.142920
0.339823 0.430394 0.180153
0.390856 0.430394 0.180153
0.456256 0.430394 0.180153
0.522942 0.430394 0.180153
0.587139 0.430394 0.180153
0.647310 0.429542 0.180153
0.705285 0.429647 0.180153
0.759831 0.429240 0.180153
0.810526 0.427724 0.180153
0.856110 0.424328 0.180153
0.895523 0.418432 0.180153
0.927987 0.409955 0.180153
0.953754 0.399315 0.180153
0.975210 0.388007 0.180153
0.999972 0.380505 0.180153
0.264622 0.502275 0.142472
0.339823 0.502275 0.180153
0.390625 0.502275 0.180153
0.455813 0.502275 0.180153
0.522328 0.502275 0.180153
0.586419 0.502275 0.180153
0.647310 0.502275 0.180153
0.705285 0.502411 0.180153
0.759831 0.501919 0.180153
0.810526 0.500101 0.180153
0.856110 0.495943 0.180153
0.895523 0.488796 0.180153
0.927987 0.478441 0.180153
0.953754 0.465426 0.180153
0.975210 0.451624 0.180153
0.999972 0.442407 0.180153
0.264622 0.575330 0.142289
0.339823 0.575330 0.180153
0.390670 0.575330 0.180153
0.455863 0.575330 0.180153
0.522399 0.575330 0.180153
0.586511 0.575330 0.180153
0.647444 0.575330 0.180153
0.705285 0.575330 0.180153
0.759831 0.574766 0.180153
0.810526 0.572644 0.180153
0.856110 0.567777 0.180153
0.895523 0.559375 0.180153
0.927987 0.547265 0.180153
0.953754 0.531974 0.180153
0.975210 0.515761 0.180153
0.999972 0.504906 0.180153
0.264622 0.647427 0.142113
0.339823 0.647427 0.180153
0.390531 0.647427 0.180153
0.455653 0.647427 0.180153
0.522108 0.647427 0.180153
0.586150 0.647427 0.180153
0.647004 0.647427 0.180153
0.704877 0.647427 0.180153
0.759831 0.647427 0.180153
0.810526 0.644988 0.180153
0.856110 0.639426 0.180153
0.895523 0.629845 0.180153
0.927987 0.615947 0.180153
0.953754 0.598484 0.180153
0.975210 0.579899 0.180153
0.999972 0.567494 0.180153
0.264622 0.717128 0.141850
0.339823 0.717128 0.180153
0.390111 0.717128 0.180153
0.454866 0.717128 0.180153
0.521052 0.717128 0.180153
0.584845 0.717128 0.180153
0.645537 0.717128 0.180153
0.703188 0.717128 0.180153
0.758080 0.717128 0.180153
0.810526 0.717128 0.180153
0.856110 0.710790 0.180153
0.895523 0.700099 0.180153
0.927987 0.684461 0.180153
0.953754 0.664851 0.180153
0.975210 0.643973 0.180153
0.999972 0.630039 0.180153
0.264622 0.781936 0.141382
0.339823 0.781936 0.180153
0.389165 0.781936 0.180153
0.453070 0.781936 0.180153
0.518597 0.781936 0.180153
0.581922 0.781936 0.180153
0.642144 0.781936 0.180153
0.699501 0.781936 0.180153
0.753940 0.781936 0.180153
0.806089 0.781936 0.180153
0.856110 0.781936 0.180153
0.895523 0.770061 0.180153
0.927987 0.752798 0.180153
0.953754 0.731110 0.180153
0.975210 0.707913 0.180153
0.999972 0.692478 0.180153
0.264622 0.839656 0.140624
0.339823 0.839656 0.180153
0.387538 0.839656 0.180153
0.449976 0.839656 0.180153
0.514408 0.839656 0.180153
0.576817 0.839656 0.180153
0.636280 0.839656 0.180153
0.692886 0.839656 0.180153
0.746766 0.839656 0.180153
0.798340 0.839656 0.180153
0.847873 0.839656 0.180153
0.895523 0.839656 0.180153
0.927987 0.820756 0.180153
0.953754 0.796897 0.180153
0.975210 0.771611 0.180153
0.999972 0.754577 0.180153
0.264622 0.888374 0.139581
0.339823 0.888373 0.180153
0.385197 0.888373 0.180153
0.445526 0.888373 0.180153
0.508310 0.888373 0.180153
0.569385 0.888373 0.180153
0.627747 0.888373 0.180153
0.683397 0.888373 0.180153
0.736326 0.888373 0.180153
0.787020 0.888373 0.180153
0.835806 0.888373 0.180153
0.882677 0.888373 0.180153
0.927987 0.888373 0.180153
0.953754 0.862533 0.180153
0.975210 0.834986 0.180153
0.999972 0.816520 0.180153
0.264622 0.927761 0.138313
0.339823 0.927761 0.180153
0.382356 0.927761 0.180153
0.439940 0.927761 0.180153
0.500604 0.927761 0.180153
0.560013 0.927761 0.180153
0.616906 0.927761 0.180153
0.671259 0.927761 0.180153
0.723084 0.927761 0.180153
0.772722 0.927761 0.180153
0.820470 0.927761 0.180153
0.866437 0.927761 0.180153
0.910803 0.927761 0.180153
0.953754 0.927761 0.180153
0.975210 0.898115 0.180153
0.999972 0.878089 0.180153
0.264622 0.961018 0.137020
0.339823 0.961017 0.180153
0.379368 0.961017 0.180153
0.434057 0.961017 0.180153
0.492430 0.961017 0.180153
0.549955 0.961017 0.180153
0.605280 0.961017 0.180153
0.658257 0.961017 0.180153
0.708767 0.961017 0.180153
0.757383 0.961017 0.180153
0.804039 0.961017 0.180153
0.848975 0.961017 0.180153
0.892371 0.961017 0.180153
0.934364 0.961017 0.180153
0.975210 0.961017 0.180153
0.999972 0.939613 0.180153
0.264622 0.999967 0.136179
0.339823 0.999967 0.180153
0.377432 0.999967 0.180153
0.430156 0.999967 0.180153
0.486936 0.999967 0.180153
0.543179 0.999967 0.180153
0.597444 0.999967 0.180153
0.649444 0.999967 0.180153
0.699206 0.999967 0.180153
0.746932 0.999967 0.180153
0.792885 0.999967 0.180153
0.837055 0.999967 0.180153
0.879816 0.999967 0.180153
0.921145 0.999967 0.180153
0.961412 0.999967 0.180153
0.999972 0.999967 0.180153
0.264622 0.121863 0.237880
0.309278 0.121863 0.237880
0.404826 0.121863 0.237880
0.465962 0.121863 0.216332
0.526300 0.121863 0.207088
0.587139 0.121863 0.203342
0.647310 0.121863 0.201979
0.705286 0.121863 0.201423
0.759831 0.121863 0.200924
0.810526 0.121863 0.200112
0.856110 0.121863 0.198680
0.895523 0.121863 0.196348
0.927987 0.121863 0.193074
0.953754 0.121863 0.189053
0.975210 0.121863 0.184839
0.999972 0.121863 0.182042
0.264622 0.155996 0.237880
0.339823 0.181075 0.237880
0.404826 0.181075 0.237880
0.465962 0.181075 0.229796
0.526300 0.181075 0.226203
0.587139 0.181075 0.224979
0.647310 0.181075 0.224763
0.705285 0.181075 0.224799
0.759831 0.181075 0.224689
0.810526 0.181075 0.224313
0.856110 0.181075 0.223430
0.895523 0.181075 0.221952
0.927987 0.181075 0.219846
0.953754 0.181075 0.217246
0.975210 0.181075 0.214561
0.999972 0.181075 0.212826
0.264622 0.238899 0.237880
0.339823 0.238899 0.237880
0.404826 0.238899 0.237880
0.465962 0.238899 0.237880
0.526300 0.238899 0.237880
0.587139 0.238899 0.237880
0.647310 0.238899 0.237880
0.705285 0.238899 0.237880
0.759831 0.238899 0.237880
0.810526 0.238899 0.237880
0.856110 0.238899 0.237880
0.895523 0.238899 0.237880
0.927987 0.238899 0.237880
0.953754 0.238899 0.237880
0.975210 0.238899 0.237880
0.999972 0.238899 0.237880
0.264622 0.298484 0.216332
0.339823 0.298484 0.229796
0.404826 0.298484 0.237880
0.465962 0.298484 0.237880
0.526300 0.296157 0.237880
0.587139 0.295817 0.237880
0.647310 0.296185 0.237880
0.705285 0.296612 0.237880
0.759831 0.296687 0.237880
0.810526 0.296326 0.237880
0.856110 0.295245 0.237880
0.895523 0.293337 0.237880
0.927987 0.290600 0.237880
0.953754 0.287210 0.237880
0.975210 0.283722 0.237880
0.999972 0.281443 0.237880
0.264622 0.361935 0.207088
0.339823 0.361935 0.226203
0.404826 0.361935 0.237880
0.463673 0.361935 0.237880
0.526300 0.361935 0.237880
0.587139 0.361279 0.237880
0.647310 0.362019 0.237880
0.705285 0.362788 0.237880
0.759831 0.362903 0.237880
0.810526 0.362201 0.237880
0.856110 0.360175 0.237880
0.895523 0.356587 0.237880
0.927987 0.351336 0.237880
0.953754 0.344826 0.237880
0.975210 0.338010 0.237880
0.999972 0.333538 0.237880
0.264622 0.430394 0.203342
0.339823 0.430394 0.224979
0.404826 0.430394 0.237880
0.463344 0.430394 0.237880
0.525678 0.430394 0.237880
0.587139 0.430394 0.237880
0.647310 0.431450 0.237880
0.705285 0.432487 0.237880
0.759831 0.432674 0.237880
0.810526 0.431725 0.237880
0.856110 0.428866 0.237880
0.895523 0.423755 0.237880
0.927987 0.416242 0.237880
0.953754 0.406890 0.237880
0.975210 0.397055 0.237880
0.999972 0.390547 0.237880
0.264622 0.502275 0.201979
0.339823 0.502275 0.224763
0.404826 0.502275 0.237880
0.463718 0.502275 0.237880
0.526374 0.502275 0.237880
0.588061 0.502275 0.237880
0.647310 0.502275 0.237880
0.705285 0.503661 0.237880
0.759831 0.503898 0.237880
0.810526 0.502656 0.237880
0.856110 0.499030 0.237880
0.895523 0.492530 0.237880
0.927987 0.483012 0.237880
0.953754 0.471044 0.237880
0.975210 0.458382 0.237880
0.999972 0.450017 0.237880
0.264622 0.575330 0.201423
0.339823 0.575330 0.224799
0.404826 0.575330 0.237880
0.464104 0.575330 0.237880
0.527081 0.575330 0.237880
0.588947 0.575330 0.237880
0.648429 0.575330 0.237880
0.705285 0.575330 0.237880
0.759831 0.575636 0.237880
0.810526 0.574144 0.237880
0.856110 0.569838 0.237880
0.895523 0.561979 0.237880
0.927987 0.550564 0.237880
0.953754 0.536137 0.237880
0.975210 0.520897 0.237880
0.999972 0.510766 0.237880
0.264622 0.647427 0.200924
0.339823 0.647427 0.224689
0.404826 0.647427 0.237880
0.464179 0.647427 0.237880
0.527193 0.647427 0.237880
0.589101 0.647427 0.237880
0.648616 0.647427 0.237880
0.705537 0.647427 0.237880
0.759831 0.647427 0.237880
0.810526 0.645636 0.237880
0.856110 0.640631 0.237880
0.895523 0.631575 0.237880
0.927987 0.618294 0.237880
0.953754 0.601547 0.237880
0.975210 0.583849 0.237880
0.999972 0.572028 0.237880
0.264622 0.717128 0.200112
0.339823 0.717128 0.224313
0.404826 0.717128 0.237880
0.463816 0.717128 0.237880
0.526561 0.717128 0.237880
0.588301 0.717128 0.237880
0.647614 0.717128 0.237880
0.704341 0.717128 0.237880
0.758572 0.717128 0.237880
0.810526 0.717128 0.237880
0.856110 0.711330 0.237880
0.895523 0.701165 0.237880
0.927987 0.686107 0.237880
0.953754 0.667106 0.237880
0.975210 0.646940 0.237880
0.999972 0.633485 0.237880
0.264622 0.781936 0.198680
0.339823 0.781936 0.223430
0.404826 0.781936 0.237880
0.462767 0.781936 0.237880
0.524692 0.781936 0.237880
0.585829 0.781936 0.237880
0.644666 0.781936 0.237880
0.701051 0.781936 0.237880
0.754846 0.781936 0.237880
0.806463 0.781936 0.237880
0.856110 0.781936 0.237880
0.895523 0.770519 0.237880
0.927987 0.753780 0.237880
0.953754 0.732569 0.237880
0.975210 0.710039 0.237880
0.999972 0.695121 0.237880
0.264622 0.839656 0.196348
0.339823 0.839656 0.221952
0.404826 0.839656 0.237880
0.460880 0.839656 0.237880
0.521384 0.839656 0.237880
0.581411 0.839656 0.237880
0.639358 0.839656 0.237880
0.694944 0.839656 0.237880
0.748076 0.839656 0.237880
0.799142 0.839656 0.237880
0.848206 0.839656 0.237880
0.895523 0.839656 0.237880
0.927987 0.821170 0.237880
0.953754 0.797846 0.237880
0.975210 0.773123 0.237880
0.999972 0.756558 0.237880
0.264622 0.888374 0.193074
0.339823 0.888373 0.219846
0.404826 0.888373 0.237880
0.458155 0.888373 0.237880
0.516516 0.888373 0.237880
0.574898 0.888373 0.237880
0.631522 0.888373 0.237880
0.685971 0.888373 0.237880
0.738081 0.888373 0.237880
0.788219 0.888373 0.237880
0.836497 0.888373 0.237880
0.883026 0.888373 0.237880
0.927987 0.888373 0.237880
0.953754 0.862944 0.237880
0.975210 0.835880 0.237880
0.999972 0.817837 0.237880
0.264622 0.927761 0.189053
0.339823 0.927761 0.217246
0.404826 0.927761 0.237880
0.454775 0.927761 0.237880
0.510424 0.927761 0.237880
0.566690 0.927761 0.237880
0.621587 0.927761 0.237880
0.674521 0.927761 0.237880
0.725464 0.927761 0.237880
0.774358 0.927761 0.237880
0.821544 0.927761 0.237880
0.867087 0.927761 0.237880
0.911112 0.927761 0.237880
0.953754 0.927761 0.237880
0.975210 0.898509 0.237880
0.999972 0.878973 0.237880
0.264622 0.961018 0.184839
0.339823 0.961017 0.214561
0.404826 0.961018 0.237880
0.451271 0.961018 0.237880
0.504047 0.961018 0.237880
0.558002 0.961018 0.237880
0.610978 0.961018 0.237880
0.662351 0.961018 0.237880
0.711849 0.961018 0.237880
0.759469 0.961018 0.237880
0.805525 0.961018 0.237880
0.849999 0.961018 0.237880
0.892940 0.961018 0.237880
0.934675 0.961018 0.237880
0.975210 0.961018 0.237880
0.999972 0.940030 0.237880
0.264622 0.999967 0.182042
0.339823 0.999967 0.212826
0.404826 0.999967 0.237880
0.448996 0.999967 0.237880
0.499821 0.999967 0.237880
0.552202 0.999967 0.237880
0.603916 0.999967 0.237880
0.654217 0.999967 0.237880
0.702705 0.999967 0.237880
0.749522 0.999967 0.237880
0.794784 0.999967 0.237880
0.838457 0.999967 0.237880
0.880750 0.999967 0.237880
0.921736 0.999967 0.237880
0.961704 0.999967 0.237880
0.999972 0.999967 0.237880
0.264622 0.121863 0.297421
0.299419 0.121863 0.297421
0.381313 0.121863 0.297421
0.465962 0.121863 0.297421
0.526300 0.121863 0.282571
0.587139 0.121863 0.276523
0.647310 0.121863 0.274312
0.705286 0.121863 0.273410
0.759831 0.121863 0.272567
0.810526 0.121863 0.271263
0.856110 0.121863 0.268894
0.895523 0.121863 0.265081
0.927987 0.121863 0.259695
0.953754 0.121863 0.253021
0.975210 0.121863 0.245983
0.999972 0.121863 0.241279
0.264622 0.148184 0.297421
0.339823 0.181075 0.297421
0.396104 0.181075 0.297421
0.465962 0.181075 0.297421
0.526300 0.181075 0.290108
0.587139 0.181075 0.287620
0.647310 0.181075 0.287176
0.705285 0.181075 0.287232
0.759831 0.181075 0.287013
0.810526 0.181075 0.286235
0.856110 0.181075 0.284444
0.895523 0.181075 0.281371
0.927987 0.181075 0.276955
0.953754 0.181075 0.271479
0.975210 0.181075 0.265743
0.999972 0.181075 0.261950
0.264622 0.217308 0.297421
0.339823 0.230799 0.297421
0.404826 0.238899 0.297421
0.465962 0.238899 0.297421
0.526300 0.238899 0.295079
0.587139 0.238899 0.294750
0.647310 0.238899 0.295129
0.705285 0.238899 0.295535
0.759831 0.238899 0.295599
0.810526 0.238899 0.295259
0.856110 0.238899 0.294167
0.895523 0.238899 0.292267
0.927987 0.238899 0.289537
0.953754 0.238899 0.286137
0.975210 0.238899 0.282659
0.999972 0.238899 0.280380
0.264622 0.298484 0.297421
0.339823 0.298484 0.297421
0.404826 0.298484 0.297421
0.465962 0.298484 0.297421
0.526300 0.298484 0.297421
0.587139 0.298484 0.297421
0.647310 0.298484 0.297421
0.705285 0.298484 0.297421
0.759831 0.298484 0.297421
0.810526 0.298484 0.297421
0.856110 0.298484 0.297421
0.895523 0.298484 0.297421
0.927987 0.298484 0.297421
0.953754 0.298484 0.297421
0.975210 0.298484 0.297421
0.999972 0.298484 0.297421
0.264622 0.361935 0.282571
0.339823 0.361935 0.290108
0.404826 0.361935 0.295079
0.465962 0.361935 0.297421
0.526300 0.361935 0.297421
0.587139 0.362447 0.297421
0.647310 0.363279 0.297421
0.705285 0.363894 0.297421
0.759831 0.364047 0.297421
0.810526 0.363652 0.297421
0.856110 0.362447 0.297421
0.895523 0.360191 0.297421
0.927987 0.357020 0.297421
0.953754 0.353063 0.297421
0.975210 0.349057 0.297421
0.999972 0.346458 0.297421
0.264622 0.430394 0.276523
0.339823 0.430394 0.287620
0.404826 0.430394 0.294750
0.465962 0.430394 0.297421
0.526769 0.430394 0.297421
0.587139 0.430394 0.297421
0.647310 0.431944 0.297421
0.705285 0.433156 0.297421
0.759831 0.433448 0.297421
0.810526 0.432659 0.297421
0.856110 0.430394 0.297421
0.895523 0.426315 0.297421
0.927987 0.420355 0.297421
0.953754 0.412966 0.297421
0.975210 0.405358 0.297421
0.999972 0.400369 0.297421
0.264622 0.502275 0.274312
0.339823 0.502275 0.287176
0.404826 0.502275 0.295129
0.465962 0.502275 0.297421
0.527529 0.502275 0.297421
0.588501 0.502275 0.297421
0.647310 0.502275 0.297421
0.705285 0.503935 0.297421
0.759831 0.504326 0.297421
0.810526 0.503261 0.297421
0.856110 0.500081 0.297421
0.895523 0.494346 0.297421
0.927987 0.485981 0.297421
0.953754 0.475582 0.297421
0.975210 0.464694 0.297421
0.999972 0.457583 0.297421
0.264622 0.575330 0.273410
0.339823 0.575330 0.287232
0.404826 0.575330 0.295535
0.465962 0.575330 0.297421
0.528122 0.575330 0.297421
0.589523 0.575330 0.297421
0.648685 0.575330 0.297421
0.705285 0.575330 0.297421
