assets/luts/Epic.cube
LUT_3D_SIZE 6
-0.052611 -0.075115 -0.075115
0.159954 -0.036923 -0.036923
0.299264 0.141798 0.110580
0.460760 0.233959 0.185241
0.644029 0.323141 0.260241
0.847563 0.412544 0.338192
0.116372 0.176333 0.035032
0.186741 0.183350 0.055267
0.303134 0.227504 0.165142
0.459491 0.292119 0.221977
0.642777 0.365244 0.285335
0.846787 0.444527 0.356380
0.213701 0.379327 0.128564
0.251287 0.381812 0.133891
0.360070 0.392374 0.155699
0.514418 0.427245 0.227457
0.655155 0.485847 0.367275
0.849678 0.548586 0.425263
0.317382 0.579205 0.226098
0.342629 0.580535 0.229256
0.430957 0.586263 0.242567
0.564161 0.597737 0.269113
0.739565 0.629302 0.328328
0.883054 0.684869 0.517742
0.433291 0.772971 0.336505
0.452160 0.773885 0.338756
0.524253 0.777619 0.348403
0.643908 0.784867 0.367870
0.795790 0.796585 0.399219
0.976126 0.828527 0.474528
0.562719 0.966107 0.460801
0.577755 0.966664 0.462565
0.637724 0.969220 0.470123
0.743536 0.974449 0.485509
0.884987 0.983695 0.510064
1.000562 1.000837 0.543266
-0.039240 -0.067901 0.100321
0.172298 -0.040610 0.103663
0.307023 0.141038 0.139947
0.465495 0.233567 0.203209
0.647551 0.322651 0.273513
0.850420 0.411929 0.348931
0.120706 0.178961 0.112222
0.188601 0.185831 0.118159
0.304650 0.221559 0.177586
0.463072 0.280737 0.225058
0.645605 0.352774 0.285807
0.848634 0.431985 0.355368
0.215077 0.380293 0.166599
0.247267 0.384711 0.164942
0.363181 0.395835 0.183416
0.512564 0.424909 0.253308
0.654824 0.480767 0.370067
0.850199 0.541279 0.424701
0.318190 0.579692 0.250503
0.337587 0.581817 0.247243
0.429260 0.587701 0.259798
0.565976 0.599398 0.285113
0.738951 0.627679 0.343640
0.881288 0.681670 0.521074
0.433861 0.773314 0.354232
0.446748 0.774330 0.350283
0.520657 0.778064 0.359680
0.642577 0.785492 0.378775
0.796688 0.797366 0.409640
0.975124 0.827194 0.484628
0.563174 0.966371 0.474687
0.572001 0.966586 0.470122
0.633030 0.969181 0.477685
0.740535 0.974423 0.492865
0.883598 0.983726 0.517286
1.000586 1.001052 0.550256
0.092704 0.047126 0.238973
0.186405 0.079782 0.240787
0.327073 0.143771 0.248743
0.488977 0.227726 0.277906
0.664421 0.318595 0.329552
0.863873 0.408078 0.394449
0.139843 0.197441 0.244423
0.190893 0.188937 0.246917
0.334498 0.218130 0.255289
0.485423 0.277870 0.286324
0.662260 0.349817 0.336683
0.861745 0.428838 0.399000
0.220462 0.384302 0.270135
0.252025 0.388956 0.274118
0.364054 0.396946 0.282179
0.500596 0.421646 0.344354
0.659201 0.463830 0.388701
0.856159 0.513357 0.431034
0.321528 0.581920 0.333954
0.340786 0.584107 0.333444
0.419478 0.592373 0.330023
0.572118 0.605099 0.351899
0.734679 0.623782 0.414350
0.878007 0.670392 0.535848
0.436296 0.774822 0.421574
0.449184 0.775793 0.419120
0.506385 0.780264 0.410459
0.637644 0.788120 0.427936
0.800583 0.800483 0.456647
0.970547 0.823002 0.532607
0.565089 0.967407 0.529999
0.573925 0.967657 0.526330
0.614641 0.968983 0.512915
0.728573 0.974448 0.527475
0.878329 0.983964 0.550925
1.000644 1.001088 0.583082
0.142028 0.122417 0.398700
0.207361 0.135567 0.400060
0.344427 0.178204 0.405929
0.504920 0.235619 0.417392
0.696868 0.307154 0.446854
0.893302 0.396084 0.489830
0.167972 0.223960 0.402802
0.206206 0.209677 0.403872
0.346465 0.235988 0.409904
0.509782 0.278727 0.421647
0.697578 0.338319 0.448125
0.891827 0.417531 0.490896
0.237263 0.404637 0.420825
0.262781 0.402235 0.422300
0.356357 0.389727 0.427403
0.528373 0.414833 0.440350
0.693491 0.457111 0.466197
0.885505 0.505722 0.505998
0.327841 0.586353 0.458934
0.346843 0.588626 0.461247
0.424972 0.597242 0.470262
0.571126 0.604312 0.479526
0.719224 0.626919 0.543654
0.885507 0.658858 0.579224
0.440915 0.777694 0.532927
0.453723 0.778807 0.532265
0.510778 0.783420 0.530836
0.628837 0.791653 0.531595
0.806074 0.804862 0.556531
0.959027 0.822453 0.639931
0.568765 0.969456 0.627573
0.577567 0.969734 0.625334
0.618318 0.971133 0.617058
0.710888 0.975070 0.608268
0.871260 0.985239 0.629369
1.000838 1.000944 0.659207
0.181710 0.178727 0.579634
0.233156 0.187121 0.580746
0.363133 0.218172 0.585492
0.524374 0.266113 0.594791
0.705262 0.322398 0.609088
0.920210 0.389010 0.643245
0.200153 0.256125 0.583028
0.227993 0.238725 0.583173
0.361752 0.261820 0.587984
0.525432 0.300750 0.597482
0.708294 0.349870 0.611864
0.921918 0.408326 0.643534
0.259570 0.425429 0.597612
0.280011 0.419397 0.597936
0.361032 0.395308 0.599920
0.532824 0.418711 0.609952
0.722833 0.451618 0.624996
0.929143 0.489405 0.647245
0.345180 0.605631 0.627606
0.360523 0.604211 0.628299
0.426703 0.599260 0.631632
0.558191 0.593315 0.638488
0.754313 0.614303 0.654429
0.933084 0.644594 0.673014
0.448119 0.782224 0.675606
0.460798 0.783374 0.676928
0.517336 0.788174 0.682610
0.634851 0.796713 0.693067
0.806303 0.805035 0.705862
0.944145 0.830352 0.768462
0.574505 0.972742 0.758713
0.583272 0.973006 0.757797
0.623885 0.974595 0.754834
0.716224 0.978898 0.753345
0.868355 0.988566 0.762101
1.000641 1.000651 0.787653
0.220897 0.231673 0.779876
0.263407 0.237810 0.780722
0.385180 0.261634 0.784681
0.545270 0.301594 0.792423
0.727971 0.351709 0.804358
0.926450 0.407024 0.820555
0.235390 0.293176 0.782664
0.254960 0.273711 0.782132
0.381031 0.293592 0.786009
0.543786 0.328353 0.793850
0.728351 0.373704 0.805872
0.928250 0.425177 0.822183
0.287081 0.448993 0.794834
0.302555 0.440152 0.794386
0.368525 0.404131 0.792862
0.540544 0.427183 0.800976
0.731663 0.459607 0.813344
0.937063 0.499251 0.830204
0.367489 0.625418 0.819653
0.379535 0.621559 0.819346
0.433775 0.606699 0.818713
0.551131 0.586926 0.820108
0.748243 0.607674 0.833004
0.959258 0.634574 0.850401
0.467844 0.801996 0.858830
0.477752 0.800671 0.858856
0.523435 0.796063 0.859371
0.626543 0.791366 0.862544
0.793963 0.794865 0.872023
0.990867 0.813078 0.889277
0.582683 0.977239 0.912112
0.591392 0.977659 0.912522
0.631642 0.979537 0.914818
0.723297 0.984502 0.921007
0.874789 0.995394 0.934311
1.000096 1.000106 0.969902
