assets/luts/Epic.cube
LUT_3D_SIZE 16
-0.052611 -0.075115 -0.075115
-0.012633 -0.072159 -0.072159
0.113052 -0.062967 -0.062967
0.159954 -0.036923 -0.036923
0.204586 0.067845 0.054695
0.250433 0.108077 0.084262
0.299264 0.141798 0.110580
0.350693 0.173364 0.135801
0.404487 0.203921 0.160585
0.460760 0.233959 0.185241
0.519353 0.263700 0.209956
0.580397 0.293371 0.234896
0.644029 0.323141 0.260241
0.710469 0.353215 0.286129
0.779561 0.383516 0.312540
0.847563 0.412544 0.338192
-0.041514 -0.046789 -0.068991
0.040584 -0.042307 -0.063407
0.117154 -0.032007 -0.054356
0.160101 0.052498 0.024461
0.203199 0.089503 0.065576
0.249534 0.121032 0.091313
0.298660 0.151161 0.115822
0.350260 0.180667 0.139945
0.404159 0.209901 0.163984
0.460467 0.238965 0.188083
0.519152 0.268017 0.212401
0.580216 0.297141 0.237016
0.643915 0.326468 0.262096
0.710359 0.356168 0.287772
0.779492 0.386170 0.314038
0.847501 0.414953 0.339520
0.048577 0.107111 -0.039210
0.091383 0.107938 -0.034447
0.134549 0.112506 -0.015477
0.163058 0.122243 0.081345
0.202930 0.139604 0.099376
0.248493 0.160295 0.117056
0.297474 0.183160 0.136255
0.349141 0.207425 0.156640
0.403193 0.232701 0.177917
0.459606 0.258668 0.199930
0.518411 0.285270 0.222597
0.579564 0.312414 0.245920
0.643424 0.340102 0.269947
0.709846 0.368466 0.294754
0.779118 0.397339 0.320294
0.847179 0.425085 0.345148
0.116372 0.176333 0.035032
0.124635 0.176820 0.036827
0.150953 0.178965 0.043706
0.186741 0.183350 0.055267
0.228111 0.192139 0.072865
0.263589 0.207755 0.133029
0.303134 0.227504 0.165142
0.351404 0.248011 0.184245
0.403816 0.269565 0.202804
0.459491 0.292119 0.221977
0.517932 0.315575 0.242084
0.579001 0.339928 0.263184
0.642777 0.365244 0.285335
0.709457 0.391485 0.308570
0.778647 0.418454 0.332740
0.846787 0.444527 0.356380
0.149563 0.243750 0.068627
0.154675 0.244089 0.069383
0.173710 0.245460 0.072599
0.203917 0.248253 0.078850
0.240881 0.252713 0.088236
0.285555 0.262871 0.102043
0.332100 0.275483 0.133230
0.370120 0.293200 0.194793
0.412443 0.313615 0.230230
0.463953 0.334018 0.250552
0.520206 0.355102 0.269270
0.579960 0.377074 0.288325
0.643145 0.399951 0.308286
0.709364 0.423921 0.329502
0.778409 0.448741 0.351770
0.846473 0.472680 0.373742
0.181376 0.311479 0.098404
0.185149 0.311711 0.098941
0.200065 0.312706 0.101100
0.225863 0.314737 0.105401
0.259603 0.317937 0.112096
0.298675 0.322457 0.121260
0.346077 0.333173 0.135241
0.397099 0.344995 0.150192
0.442061 0.359723 0.210470
0.481853 0.379048 0.266665
0.529375 0.399585 0.297923
0.585498 0.419942 0.317968
0.646279 0.441116 0.337007
0.711151 0.463213 0.356504
0.779607 0.486137 0.376989
0.847161 0.508020 0.396995
0.213701 0.379327 0.128564
0.216751 0.379531 0.128930
0.228993 0.380282 0.130602
0.251287 0.381812 0.133891
0.281921 0.384284 0.139127
0.318761 0.387775 0.146329
0.360070 0.392374 0.155699
0.409834 0.403071 0.169821
0.462966 0.414397 0.185021
0.514418 0.427245 0.227457
0.555788 0.444876 0.297490
0.600175 0.465384 0.342589
0.655155 0.485847 0.367275
0.717033 0.506765 0.387253
0.783327 0.528293 0.406783
0.849678 0.548586 0.425263
0.247063 0.446804 0.159783
0.249588 0.446930 0.160095
0.260009 0.447540 0.161429
0.279493 0.448786 0.164129
0.307260 0.450773 0.168381
0.341730 0.453521 0.174372
0.381229 0.457182 0.182125
0.424868 0.461780 0.191816
0.476901 0.472184 0.206176
0.531996 0.483000 0.221513
0.587430 0.494825 0.253244
0.631664 0.511210 0.329413
0.675518 0.531543 0.385249
0.728985 0.552562 0.417352
0.791564 0.573305 0.438649
0.855410 0.592490 0.456917
0.281618 0.513450 0.192285
0.283766 0.513539 0.192549
0.292815 0.514062 0.193679
0.310058 0.515077 0.195935
0.335231 0.516707 0.199540
0.367263 0.518970 0.204615
0.404864 0.521978 0.211259
0.447129 0.525694 0.219559
0.492986 0.530260 0.229611
0.547066 0.540302 0.244220
0.604093 0.550769 0.259763
0.662306 0.562200 0.287414
0.709080 0.577925 0.366128
0.753684 0.598207 0.429415
0.806313 0.619662 0.468109
0.865877 0.638276 0.489326
0.317382 0.579205 0.226098
0.319250 0.579269 0.226320
0.327246 0.579679 0.227274
0.342629 0.580535 0.229256
0.365545 0.581889 0.232369
0.395297 0.583786 0.236768
0.430957 0.586263 0.242567
0.471567 0.589439 0.249826
0.516168 0.593249 0.258617
0.564161 0.597737 0.269113
0.620200 0.607514 0.284070
0.679282 0.617830 0.299919
0.739565 0.629302 0.328328
0.788433 0.645205 0.409094
0.833973 0.665567 0.476826
0.883054 0.684869 0.517742
0.354428 0.644162 0.261253
0.356144 0.644246 0.261434
0.363203 0.644619 0.262312
0.377112 0.645312 0.264043
0.398092 0.646539 0.266807
0.425829 0.648119 0.270683
0.459538 0.650165 0.275853
0.498402 0.652880 0.282279
0.541598 0.656106 0.290105
0.588426 0.659907 0.299485
0.638337 0.664472 0.310382
0.696512 0.674165 0.325883
0.757786 0.684731 0.342256
0.819602 0.696606 0.375290
0.869466 0.712756 0.458584
0.912265 0.730743 0.525091
0.393018 0.708752 0.297951
0.394532 0.708736 0.298147
0.400936 0.709043 0.298944
0.413604 0.709600 0.300493
0.432946 0.710689 0.302930
0.458789 0.712058 0.306436
0.490593 0.713837 0.311070
0.527711 0.716169 0.316873
0.569313 0.718978 0.324013
0.614916 0.722349 0.332442
0.663806 0.726107 0.342337
0.715495 0.730533 0.353739
0.775824 0.740573 0.369879
0.839621 0.751499 0.386944
0.901985 0.763821 0.428574
0.946673 0.777844 0.506972
0.433291 0.772971 0.336505
0.434655 0.773059 0.336638
0.440530 0.773305 0.337359
0.452160 0.773885 0.338756
0.470054 0.774699 0.341019
0.494203 0.775991 0.344196
0.524253 0.777619 0.348403
0.559626 0.779607 0.353687
0.599707 0.782102 0.360155
0.643908 0.784867 0.367870
0.691690 0.788347 0.376867
0.742491 0.792209 0.387297
0.795790 0.796585 0.399219
0.858675 0.807191 0.416135
0.924375 0.818505 0.433730
0.976126 0.828527 0.474528
0.475414 0.837866 0.376862
0.476695 0.837922 0.377018
0.482097 0.838126 0.377729
0.492838 0.838644 0.378987
0.509521 0.839400 0.381020
0.532159 0.840448 0.383962
0.560558 0.841866 0.387828
0.594307 0.843711 0.392694
0.632867 0.845856 0.398632
0.675689 0.848469 0.405708
0.722160 0.851521 0.414021
0.772046 0.854943 0.423583
0.824508 0.858937 0.434507
0.879349 0.863402 0.446851
0.944133 0.874359 0.464306
0.990562 0.883411 0.480004
0.519333 0.903515 0.419063
0.520525 0.903589 0.419213
0.525454 0.903834 0.419746
0.535458 0.904249 0.420920
0.551063 0.904967 0.422846
0.572352 0.905911 0.425585
0.599245 0.907198 0.429091
0.631422 0.908823 0.433627
0.668495 0.910781 0.439126
0.709842 0.913107 0.445686
0.755122 0.915857 0.453354
0.803816 0.919068 0.462181
0.855434 0.922603 0.472292
0.909481 0.926577 0.483761
0.963466 0.931124 0.496394
0.997488 0.939778 0.511481
0.562719 0.966107 0.460801
0.563794 0.966163 0.460902
0.568426 0.966361 0.461447
0.577755 0.966664 0.462565
0.592318 0.967299 0.464320
0.612277 0.968127 0.466835
0.637724 0.969220 0.470123
0.668319 0.970645 0.474312
0.703731 0.972366 0.479427
0.743536 0.974449 0.485509
0.787369 0.976919 0.492604
0.834652 0.980088 0.500759
0.884987 0.983695 0.510064
0.937846 0.988079 0.520612
0.981448 0.993604 0.531921
1.000562 1.000837 0.543266
-0.051638 -0.074530 -0.055662
0.011283 -0.071342 -0.054838
0.113482 -0.062172 -0.045743
0.160161 -0.035313 0.031126
0.205378 0.067813 0.059902
0.251037 0.108083 0.087346
0.299767 0.141802 0.112834
0.351087 0.173392 0.137608
0.404853 0.203927 0.162100
0.461063 0.233933 0.186531
0.519659 0.263689 0.211117
0.580650 0.293350 0.235941
0.644246 0.323110 0.261189
0.710735 0.353141 0.286996
0.779795 0.383500 0.313391
0.847766 0.412479 0.338956
-0.040148 -0.045636 -0.045636
0.042343 -0.040546 -0.040546
0.118627 0.016629 0.016629
0.160493 0.063124 0.049340
0.203816 0.094363 0.073052
0.250058 0.123834 0.096137
0.299099 0.152892 0.119258
0.350647 0.181809 0.142558
0.404519 0.210658 0.166046
0.460781 0.239475 0.189795
0.519461 0.268360 0.213830
0.580482 0.297344 0.238248
0.644149 0.326611 0.263179
0.710642 0.356216 0.288719
0.779658 0.386175 0.314868
0.847675 0.414912 0.340280
0.049445 0.107514 -0.005563
0.096658 0.108678 0.024337
0.134750 0.112995 0.038104
0.163904 0.124608 0.086457
0.203589 0.141838 0.103578
0.248989 0.162039 0.120436
0.297879 0.184432 0.138961
0.349520 0.208317 0.158827
0.403498 0.233339 0.179744
0.459893 0.259131 0.201469
0.518698 0.285576 0.223930
0.579843 0.312608 0.247074
0.643636 0.340267 0.270963
0.710162 0.368529 0.295673
0.779308 0.397357 0.321122
0.847434 0.425062 0.345903
0.116710 0.176502 0.047033
0.127276 0.177204 0.051428
0.152255 0.179297 0.056001
0.186900 0.183577 0.064691
0.228399 0.193123 0.079817
0.263900 0.208775 0.136106
0.303441 0.228373 0.167295
0.351658 0.248691 0.186021
0.404083 0.270092 0.204320
0.459742 0.292513 0.223311
0.518171 0.315869 0.243260
0.579255 0.340152 0.264241
0.642979 0.365377 0.286269
0.709630 0.391541 0.309398
0.778855 0.418449 0.333506
0.846909 0.444475 0.357086
0.149745 0.243870 0.074651
0.156265 0.244318 0.077086
0.174802 0.245688 0.079874
0.204500 0.248459 0.085407
0.241004 0.252866 0.093891
0.285700 0.263362 0.106900
0.332251 0.276033 0.136820
0.370204 0.293695 0.196917
0.412567 0.314062 0.231697
0.464142 0.334364 0.251736
0.520401 0.355371 0.270293
0.580173 0.377245 0.289233
0.643312 0.400065 0.309112
0.709585 0.423957 0.330227
0.778628 0.448785 0.352494
0.846670 0.472672 0.374400
0.181513 0.311520 0.102578
0.186161 0.311867 0.104085
0.200887 0.312864 0.106116
0.226443 0.314865 0.110185
0.259920 0.318048 0.116494
0.298787 0.322598 0.125212
0.346175 0.333449 0.138756
0.397198 0.345309 0.153344
0.442068 0.360023 0.212687
0.481876 0.379357 0.268137
0.529489 0.399841 0.298952
0.585615 0.420168 0.318840
0.646456 0.441228 0.337763
0.711286 0.463288 0.357196
0.779685 0.486160 0.377615
0.847311 0.508036 0.397571
0.213800 0.379403 0.131752
0.217417 0.379622 0.132766
0.229591 0.380406 0.134376
0.251774 0.381918 0.137576
0.282267 0.384339 0.142601
0.318942 0.387877 0.149609
0.360122 0.392436 0.158696
0.409865 0.403253 0.172573
0.463018 0.414630 0.187504
0.514411 0.427437 0.229631
0.555746 0.445069 0.298989
0.600166 0.465556 0.343599
0.655314 0.485968 0.368049
0.717152 0.506842 0.387906
0.783439 0.528332 0.407386
0.849835 0.548600 0.425822
0.247157 0.446854 0.162349
0.250083 0.447034 0.163098
0.260443 0.447667 0.164413
0.279874 0.448865 0.167045
0.307565 0.450859 0.171221
0.341953 0.453603 0.177045
0.381386 0.457255 0.184684
0.424902 0.461827 0.194186
0.476953 0.472292 0.208392
0.532057 0.483149 0.223572
0.587439 0.494996 0.255152
0.631631 0.511359 0.330883
0.675421 0.531650 0.386214
0.729039 0.552649 0.418043
0.791650 0.573351 0.439245
0.855481 0.592494 0.457433
0.281700 0.513489 0.194438
0.284127 0.513613 0.194998
0.293125 0.514144 0.196102
0.310336 0.515144 0.198357
0.335486 0.516779 0.201895
0.367456 0.519029 0.206913
0.405047 0.522041 0.213452
0.447213 0.525759 0.221654
0.492999 0.530301 0.231595
0.547128 0.540378 0.246099
0.604137 0.550824 0.261502
0.662300 0.562259 0.289179
0.709060 0.578034 0.367549
0.753617 0.598316 0.430376
0.806358 0.619726 0.468765
0.865866 0.638303 0.489838
0.317459 0.579207 0.227932
0.319506 0.579333 0.228380
0.327477 0.579739 0.229357
0.342826 0.580594 0.231291
0.365739 0.581929 0.234382
0.395461 0.583823 0.238738
0.431090 0.586337 0.244459
0.471673 0.589463 0.251670
0.516258 0.593285 0.260384
0.564188 0.597765 0.270759
0.620278 0.607558 0.285625
0.679319 0.617881 0.301410
0.739554 0.629356 0.329873
0.788371 0.645281 0.410368
0.833933 0.665635 0.477756
0.883026 0.684929 0.518354
0.354502 0.644197 0.262869
0.356301 0.644292 0.263194
0.363418 0.644650 0.264075
0.377279 0.645358 0.265811
0.398231 0.646560 0.268533
0.425965 0.648135 0.272384
0.459656 0.650247 0.277458
0.498482 0.652905 0.283906
0.541687 0.656183 0.291711
0.588487 0.659969 0.300964
0.638377 0.664510 0.311834
0.696585 0.674258 0.327322
0.757802 0.684754 0.343616
0.819605 0.696650 0.376681
0.869360 0.712829 0.459665
0.912169 0.730857 0.525885
0.393036 0.708729 0.299423
0.394666 0.708762 0.299706
0.401092 0.709071 0.300497
0.413744 0.709637 0.302022
0.433072 0.710692 0.304454
0.458915 0.712091 0.307922
0.490696 0.713870 0.312564
0.527790 0.716240 0.318345
0.569404 0.719006 0.325383
0.614970 0.722332 0.333796
0.663819 0.726129 0.343650
0.715514 0.730558 0.355020
0.775873 0.740560 0.371083
0.839678 0.751560 0.388107
0.901935 0.763841 0.429744
0.946627 0.777913 0.508003
0.433342 0.772964 0.337785
0.434793 0.773100 0.338036
0.440642 0.773376 0.338727
0.452267 0.773889 0.340101
0.470168 0.774702 0.342411
0.494298 0.776036 0.345524
0.524319 0.777616 0.349748
0.559712 0.779581 0.354983
0.599796 0.782096 0.361424
0.643936 0.784906 0.369104
0.691768 0.788385 0.378097
0.742540 0.792229 0.388484
0.795791 0.796626 0.400332
0.858713 0.807220 0.417216
0.924440 0.818508 0.434770
0.976104 0.828576 0.475589
0.475468 0.837897 0.378088
0.476785 0.837968 0.378252
0.482175 0.838172 0.378917
0.492930 0.838691 0.380168
0.509587 0.839431 0.382225
0.532222 0.840463 0.385187
0.560604 0.841912 0.389006
0.594376 0.843722 0.393856
0.632895 0.845869 0.399782
0.675778 0.848470 0.406856
0.722179 0.851520 0.415093
0.771984 0.854971 0.424688
0.824520 0.858950 0.435547
0.879341 0.863395 0.447868
0.944200 0.874406 0.465305
0.990595 0.883430 0.480938
0.519359 0.903538 0.420144
0.520551 0.903638 0.420264
0.525539 0.903841 0.420859
0.535560 0.904254 0.422033
0.551075 0.904986 0.423898
0.572390 0.905917 0.426634
0.599280 0.907246 0.430199
0.631441 0.908872 0.434697
0.668545 0.910767 0.440160
0.709832 0.913157 0.446713
0.755192 0.915905 0.454360
0.803845 0.919074 0.463200
0.855451 0.922618 0.473240
0.909469 0.926606 0.484756
0.963522 0.931135 0.497337
0.997506 0.939787 0.512333
0.562756 0.966130 0.461804
0.563827 0.966143 0.461910
0.568456 0.966341 0.462432
0.577784 0.966668 0.463554
0.592338 0.967325 0.465298
0.612302 0.968176 0.467814
0.637748 0.969269 0.471108
0.668333 0.970699 0.475319
0.703678 0.972358 0.480394
0.743650 0.974493 0.486469
0.787411 0.976976 0.493540
0.834673 0.980093 0.501724
0.884983 0.983746 0.510993
0.937847 0.988022 0.521464
0.981415 0.993675 0.532713
1.000565 1.000880 0.544091
-0.048077 -0.072458 0.057039
0.028366 -0.070989 0.057597
0.121355 -0.063566 0.058199
0.165567 -0.039410 0.063660
0.208757 0.067583 0.078940
0.253853 0.107902 0.099691
0.301998 0.141741 0.122153
0.352964 0.173323 0.145160
0.406440 0.203876 0.168489
0.462464 0.233860 0.192112
0.520899 0.263582 0.216063
0.581813 0.293245 0.240413
0.645326 0.322987 0.265278
0.711717 0.353004 0.290780
0.780728 0.383315 0.316889
0.848630 0.412321 0.342255
-0.037968 -0.049821 0.058851
0.050847 -0.036980 0.059992
0.125378 0.012601 0.061236
0.165055 0.062965 0.070624
0.207206 0.094328 0.087119
0.252659 0.123888 0.106697
0.301211 0.152943 0.127751
0.352394 0.181834 0.149674
0.406082 0.210636 0.172184
0.462158 0.239438 0.195192
0.520676 0.268281 0.218669
0.581624 0.297255 0.242639
0.645182 0.326480 0.267210
0.711560 0.356062 0.292460
0.780566 0.386038 0.318362
0.848514 0.414740 0.343539
0.062082 0.109185 0.065506
0.099124 0.110260 0.066541
0.134775 0.114682 0.075038
0.164583 0.126245 0.099315
0.205481 0.140621 0.110660
0.251171 0.158610 0.124596
0.299945 0.180026 0.141596
0.351365 0.203553 0.160556
0.405163 0.228433 0.180856
0.461364 0.254272 0.202176
0.520004 0.280801 0.224335
0.580957 0.307964 0.247246
0.644633 0.335675 0.270931
0.710989 0.364010 0.295437
0.780081 0.392907 0.320730
0.847962 0.420773 0.345415
0.118085 0.177328 0.076769
0.128390 0.178009 0.078670
0.152710 0.180855 0.080936
0.188122 0.185185 0.086767
0.228895 0.193626 0.100365
0.262716 0.208391 0.147502
0.303702 0.226615 0.171268
0.352378 0.246067 0.188160
0.404996 0.266908 0.205520
0.460734 0.288971 0.223992
0.519165 0.312180 0.243609
0.580157 0.336376 0.264359
0.643805 0.361471 0.286184
0.710370 0.387623 0.309152
0.779429 0.414531 0.333081
0.847481 0.440556 0.356596
0.150533 0.244395 0.095376
0.156991 0.244830 0.096983
0.174180 0.247290 0.097607
0.204927 0.250118 0.102064
0.242391 0.254607 0.109192
0.286725 0.263733 0.119844
0.331948 0.275470 0.150346
0.368935 0.292755 0.204695
0.412315 0.312344 0.234457
0.464380 0.332105 0.253006
0.520853 0.352760 0.270919
0.580724 0.374364 0.289461
0.643864 0.397027 0.309103
0.710043 0.420749 0.330024
0.779148 0.445378 0.352058
0.847160 0.469223 0.373879
0.182041 0.311952 0.118338
0.186686 0.312264 0.119552
0.199600 0.314312 0.119183
0.226009 0.316303 0.122790
0.260407 0.319582 0.128493
0.300161 0.324185 0.136461
0.347033 0.333776 0.148471
0.397652 0.344774 0.161850
0.441159 0.359196 0.221420
0.480795 0.378227 0.272771
0.529320 0.398129 0.300449
0.585687 0.418135 0.319516
0.646711 0.438966 0.338016
0.711616 0.460743 0.357121
0.780018 0.483420 0.377309
0.847617 0.505198 0.397162
0.214229 0.379690 0.144379
0.217830 0.379913 0.145279
0.228060 0.381410 0.144516
0.250822 0.383001 0.147467
0.281985 0.385522 0.152208
0.319389 0.389038 0.158792
0.361275 0.393691 0.167437
0.410588 0.403496 0.180221
0.463433 0.414191 0.194223
0.513930 0.426660 0.237664
0.554663 0.444183 0.304116
0.599463 0.464323 0.345938
0.655117 0.484355 0.368823
0.717061 0.504924 0.388171
0.783463 0.526215 0.407284
0.849945 0.546291 0.425544
0.247496 0.447064 0.172833
0.250419 0.447258 0.173525
0.258766 0.448417 0.172524
0.278616 0.449680 0.175015
0.306788 0.451627 0.179033
0.341763 0.454439 0.184646
0.381757 0.458128 0.192020
0.425786 0.462764 0.201233
0.477513 0.472484 0.214608
0.532388 0.482798 0.229062
0.587219 0.494318 0.261756
0.630712 0.510574 0.335836
0.674552 0.530610 0.388914
0.728650 0.551293 0.418812
0.791452 0.571744 0.439522
0.855457 0.590707 0.457399
0.281962 0.513674 0.203343
0.284422 0.513835 0.203870
0.291391 0.514699 0.202750
0.308918 0.515721 0.204923
0.334455 0.517358 0.208377
0.366863 0.519637 0.213236
0.404858 0.522623 0.219628
0.447518 0.526445 0.227660
0.493752 0.531042 0.237389
0.547569 0.540469 0.251236
0.604392 0.550536 0.266118
0.662093 0.561651 0.294572
0.708235 0.577339 0.371888
0.752732 0.597464 0.432956
0.805840 0.618543 0.469657
0.865697 0.636920 0.490131
0.317699 0.579377 0.235670
0.319755 0.579483 0.236085
0.325712 0.580180 0.234880
0.341318 0.581034 0.236779
0.364515 0.582383 0.239821
0.394586 0.584315 0.244064
0.430587 0.586787 0.249718
0.471524 0.589927 0.256783
0.516531 0.593780 0.265382
0.564764 0.598341 0.275665
0.620621 0.607631 0.290028
0.679489 0.617598 0.305293
0.739346 0.628807 0.334398
0.787673 0.644628 0.414318
0.833101 0.664821 0.480169
0.882447 0.683920 0.519369
0.354719 0.644366 0.269655
0.356543 0.644423 0.270007
0.361650 0.644983 0.268752
0.375702 0.645661 0.270471
0.396914 0.646863 0.273106
0.424886 0.648451 0.276957
0.458879 0.650564 0.281968
0.498070 0.653236 0.288323
0.541560 0.656547 0.296068
0.588649 0.660383 0.305258
0.638860 0.664862 0.315994
0.696878 0.674254 0.331029
0.757859 0.684460 0.346920
0.819378 0.696146 0.380602
0.868661 0.712255 0.463014
0.911405 0.730108 0.528048
0.393265 0.708808 0.305510
0.394835 0.708912 0.305786
0.399314 0.709273 0.304454
0.412085 0.709864 0.305985
0.431640 0.710776 0.308451
0.457683 0.712301 0.311905
0.489754 0.714108 0.316436
0.527062 0.716493 0.322195
0.568993 0.719210 0.329212
0.614814 0.722644 0.337528
0.663989 0.726475 0.347305
0.715884 0.730856 0.358614
0.776078 0.740531 0.374306
0.839669 0.751297 0.390970
0.901609 0.763341 0.433279
0.945911 0.777336 0.510920
0.433510 0.773165 0.343350
0.434944 0.773272 0.343559
0.438830 0.773545 0.342169
0.450559 0.774077 0.343610
0.468616 0.774912 0.345805
0.492938 0.776178 0.348941
0.523177 0.777718 0.353090
0.558809 0.779730 0.358343
0.599145 0.782230 0.364786
0.643561 0.785091 0.372395
0.691552 0.788582 0.381339
0.742549 0.792436 0.391626
0.796112 0.796839 0.403513
0.858769 0.807153 0.420008
0.924409 0.818209 0.437245
0.975791 0.828164 0.478619
0.475655 0.838016 0.383162
0.476961 0.838092 0.383308
0.480319 0.838241 0.381888
0.491186 0.838719 0.383163
0.507989 0.839524 0.385210
0.530719 0.840565 0.388112
0.559300 0.841994 0.391934
0.593305 0.843855 0.396814
0.632003 0.846021 0.402717
0.675050 0.848605 0.409696
0.721806 0.851648 0.417916
0.771822 0.855132 0.427477
0.824521 0.859075 0.438303
0.879596 0.863565 0.450590
0.944247 0.874359 0.467742
0.990551 0.883186 0.483076
0.519524 0.903627 0.424770
0.520714 0.903695 0.424886
0.523612 0.903867 0.423409
0.533753 0.904269 0.424627
0.549379 0.905006 0.426507
0.570812 0.905945 0.429216
0.597884 0.907251 0.432748
0.630228 0.908923 0.437227
0.667474 0.910836 0.442688
0.709037 0.913172 0.449237
0.754571 0.915930 0.456873
0.803397 0.919119 0.465629
0.855265 0.922687 0.475679
0.909511 0.926710 0.487082
0.963601 0.931205 0.499673
0.997500 0.939675 0.514458
0.562893 0.966213 0.466063
0.563941 0.966250 0.466194
0.566616 0.966365 0.464691
0.575935 0.966660 0.465795
0.590599 0.967313 0.467515
0.610709 0.968069 0.470086
0.636245 0.969252 0.473375
0.667093 0.970606 0.477515
0.702640 0.972344 0.482581
0.742661 0.974444 0.488643
0.786635 0.976936 0.495732
0.834052 0.980081 0.503878
0.884530 0.983766 0.513120
0.937587 0.988084 0.523570
0.981360 0.993667 0.534851
1.000576 1.000958 0.546172
-0.039240 -0.067901 0.100321
0.039230 -0.066356 0.100623
0.124209 -0.060229 0.101373
0.172298 -0.040610 0.103663
0.215736 0.066083 0.109558
0.259717 0.107015 0.122544
0.307023 0.141038 0.139947
0.357025 0.172894 0.159918
0.409946 0.203532 0.181128
0.465495 0.233567 0.203209
0.523581 0.263286 0.225980
0.584240 0.292929 0.249397
0.647551 0.322651 0.273513
0.713709 0.352671 0.298413
0.782595 0.382976 0.324022
0.850420 0.411929 0.348931
-0.024578 -0.043112 0.101274
0.057374 -0.021584 0.101960
0.129343 0.034040 0.102556
0.173134 0.062484 0.104645
0.214497 0.093347 0.112684
0.258416 0.123379 0.126783
0.306020 0.152537 0.144126
0.356370 0.181551 0.163620
0.409462 0.210413 0.184350
0.465115 0.239196 0.205976
0.523318 0.268021 0.228363
0.584044 0.296980 0.251480
0.647427 0.326168 0.275340
0.713498 0.355783 0.300018
0.782450 0.385676 0.325441
0.850272 0.414406 0.350181
0.076752 0.109511 0.104427
0.103349 0.113021 0.104828
0.132218 0.117182 0.111128
0.169097 0.127484 0.117461
0.210517 0.141362 0.127043
0.255734 0.159072 0.139715
0.303926 0.180324 0.155285
0.354810 0.203674 0.172893
0.408283 0.228469 0.192019
0.464193 0.254204 0.212302
0.522555 0.280677 0.233582
0.583318 0.307743 0.255775
0.646755 0.335461 0.278856
0.712968 0.363737 0.302829
0.781843 0.392578 0.327661
0.849732 0.420389 0.351929
0.120706 0.178961 0.112222
0.130534 0.179600 0.112715
0.154338 0.182422 0.114955
0.188601 0.185831 0.118159
0.227117 0.193057 0.134162
0.260099 0.206165 0.164259
0.304650 0.221559 0.177586
0.354259 0.239320 0.191599
0.407299 0.259191 0.207477
0.463072 0.280737 0.225058
0.521428 0.303662 0.244084
0.582215 0.327722 0.264364
0.645605 0.352774 0.285807
0.712002 0.378868 0.308421
0.780838 0.405765 0.332028
0.848634 0.431985 0.355368
0.152070 0.245463 0.125704
0.158398 0.245879 0.126585
0.175405 0.248337 0.127876
0.202974 0.251826 0.128004
0.244061 0.256687 0.133921
0.287691 0.263225 0.142617
0.330066 0.273691 0.175373
0.366145 0.290177 0.217906
0.412267 0.308132 0.238711
0.465072 0.326902 0.255068
0.521969 0.346839 0.271812
0.582054 0.367893 0.289629
0.645182 0.390124 0.308770
0.711298 0.413558 0.329294
0.780230 0.437983 0.351050
0.848159 0.461792 0.372656
0.183150 0.312712 0.144246
0.187738 0.313027 0.145078
0.200572 0.315049 0.145403
0.222705 0.318388 0.143810
0.259933 0.321818 0.148830
0.302272 0.326661 0.156016
0.348269 0.333672 0.166425
0.398104 0.343200 0.179589
0.438774 0.357197 0.237958
0.478680 0.375596 0.280952
0.529072 0.394338 0.303025
0.585954 0.413661 0.320590
0.647257 0.433871 0.338186
0.712374 0.455170 0.356716
0.780736 0.477416 0.376428
0.848296 0.498957 0.396002
0.215077 0.380293 0.166599
0.218672 0.380514 0.167302
0.228842 0.382028 0.167037
0.247267 0.384711 0.164942
0.280338 0.387313 0.169256
0.319585 0.391011 0.175357
0.363181 0.395835 0.183416
0.411766 0.403558 0.194570
0.464144 0.413093 0.207121
0.512564 0.424909 0.253308
0.552326 0.442153 0.313930
0.598232 0.461546 0.349898
0.654824 0.480767 0.370067
0.717155 0.500801 0.388428
0.783727 0.521536 0.406848
0.850199 0.541279 0.424701
0.248198 0.447569 0.192083
0.251101 0.447753 0.192630
0.259454 0.448867 0.192033
0.274960 0.451108 0.189645
0.304504 0.453118 0.193397
0.340747 0.455987 0.198719
