assets/luts/Fiction.cube
LUT_3D_SIZE 16
0.000000 0.007242 0.000000
0.036399 0.044523 0.010521
0.083908 0.070590 0.022808
0.143760 0.084461 0.025328
0.208752 0.073565 -0.046687
0.270211 -0.044685 -0.082330
0.330491 -0.073750 -0.100474
0.391835 -0.090264 -0.114554
0.453876 -0.107288 -0.127808
0.518331 -0.125147 -0.140844
0.586284 -0.144201 -0.154174
0.658846 -0.164690 -0.168138
0.738336 -0.187206 -0.183342
0.827863 -0.212526 -0.200371
0.950004 -0.242136 -0.220801
0.979610 0.130410 0.241095
0.026717 0.072115 0.026532
0.037082 0.072834 0.021321
0.082968 0.085608 0.025975
0.137179 0.100008 0.039322
0.203263 0.094791 -0.034095
0.266855 0.059024 -0.080426
0.328265 -0.043549 -0.100036
0.390197 -0.071122 -0.114720
0.452630 -0.093301 -0.128321
0.517410 -0.114298 -0.141598
0.585468 -0.135350 -0.155027
0.658180 -0.157296 -0.169103
0.737863 -0.180969 -0.184492
0.827479 -0.207166 -0.201739
0.949424 -0.237042 -0.221888
0.979485 0.142502 0.240136
0.053793 0.123363 0.051575
0.059290 0.123563 0.051059
0.080081 0.126507 -0.021205
0.133445 0.134956 0.046627
0.187226 0.141454 0.053245
0.249584 0.134413 -0.036560
0.316044 0.123900 -0.085612
0.381489 0.111804 -0.108676
0.446183 0.092085 -0.126393
0.512495 0.049022 -0.142009
0.581615 -0.078528 -0.156821
0.655080 -0.116214 -0.171833
0.735353 -0.148166 -0.187778
0.825360 -0.179647 -0.205662
0.947204 -0.213291 -0.226570
0.978933 0.183118 0.236024
0.082118 0.176077 0.080206
0.085931 0.176192 0.079971
0.101999 0.177180 0.076938
0.129848 0.181628 -0.062234
0.184590 0.186707 0.062607
0.236619 0.189940 0.066683
0.293114 0.194177 0.065173
0.360300 0.192817 -0.039112
0.429398 0.185836 -0.098783
0.499473 0.175175 -0.128561
0.571441 0.160269 -0.150923
0.647021 0.138633 -0.170405
0.728674 0.101793 -0.189234
0.819894 -0.072669 -0.209117
0.940735 -0.140018 -0.231493
0.977017 0.241507 0.228814
0.110417 0.230797 0.109720
0.113280 0.230915 0.109637
0.125925 0.231597 0.108631
0.148320 0.233852 0.098656
0.181947 0.239200 -0.096498
0.236563 0.241318 0.073202
0.288540 0.246830 0.089644
0.343869 0.253484 0.097076
0.404622 0.258191 0.091249
0.476037 0.256589 0.027893
0.551538 0.250984 -0.108004
0.630571 0.242565 -0.147468
0.715196 0.231470 -0.177074
0.808646 0.216799 -0.203720
0.927404 0.196242 -0.230506
0.971373 0.311239 0.222782
0.138990 0.287055 0.140367
0.141079 0.287159 0.140330
0.151034 0.287712 0.139997
0.170440 0.289250 0.137226
0.195180 0.293459 0.109415
0.235062 0.298864 -0.128727
0.290570 0.300393 0.078932
0.341827 0.306648 0.115130
0.396930 0.313567 0.124903
0.455858 0.321638 0.134629
0.525167 0.326822 0.119413
0.605120 0.327224 0.060045
0.692564 0.325203 -0.115542
0.788948 0.322183 -0.168770
0.903620 0.318908 -0.209454
0.956701 0.390464 0.232520
0.170187 0.345882 0.173902
0.171833 0.345968 0.173881
0.179714 0.346436 0.173725
0.195757 0.347602 0.172472
0.219060 0.349878 0.166432
0.244365 0.355776 0.108745
0.288832 0.360563 -0.158772
0.345369 0.361861 0.076224
0.395863 0.368112 0.141606
0.452525 0.376445 0.153934
0.513660 0.386536 0.166005
0.581311 0.398111 0.175549
0.664329 0.406649 0.152308
0.761054 0.413324 0.093118
0.872097 0.420673 -0.120638
0.929743 0.474734 0.271675
0.202492 0.406684 0.209563
0.203857 0.406732 0.209535
0.210300 0.407127 0.209446
0.223606 0.407987 0.208764
0.243638 0.409697 0.205772
0.268786 0.412790 0.193452
0.295085 0.419937 0.096225
0.342865 0.423854 -0.187823
0.400629 0.425076 0.059730
0.452198 0.432640 0.169821
0.511345 0.443237 0.184733
0.575985 0.456386 0.199721
0.648279 0.472901 0.216171
0.733877 0.491966 0.222523
0.841111 0.510732 0.196459
0.892445 0.558233 0.338256
0.235178 0.468927 0.246804
0.236359 0.468993 0.246791
0.241730 0.469290 0.246717
0.252948 0.469989 0.246296
0.270303 0.471333 0.244638
0.293057 0.473547 0.239243
0.318297 0.477777 0.214089
0.347006 0.485510 0.063095
0.397389 0.488751 -0.216750
0.458034 0.491521 -0.038863
0.511631 0.501050 0.199002
0.574448 0.514782 0.217783
0.644815 0.532569 0.236609
0.725434 0.555574 0.257566
0.819803 0.585372 0.282324
0.866612 0.633303 0.405609
0.268894 0.533757 0.286225
0.269930 0.533816 0.286220
0.274542 0.534070 0.286186
0.284166 0.534632 0.285889
0.299357 0.535771 0.284925
0.319676 0.537536 0.281740
0.344504 0.540240 0.273266
0.369334 0.545870 0.229218
0.401163 0.553741 -0.088394
0.454117 0.556317 -0.246489
0.518253 0.561369 -0.096252
0.575613 0.573785 0.225956
0.643879 0.592384 0.254066
0.722638 0.616773 0.277730
0.815216 0.648817 0.304864
0.862317 0.695797 0.431911
0.303682 0.601155 0.327905
0.304592 0.601199 0.327903
0.308629 0.601441 0.327840
0.317085 0.601951 0.327665
0.330556 0.602885 0.326997
0.348923 0.604379 0.324992
0.371637 0.606592 0.319839
0.397760 0.609978 0.305763
0.422737 0.617021 0.236917
0.458397 0.624747 -0.154634
0.514084 0.626564 -0.277109
0.582423 0.634842 -0.123421
0.645868 0.651890 0.254091
0.722038 0.677267 0.294608
0.812997 0.710714 0.324530
0.863024 0.755904 0.449255
0.339653 0.671514 0.371867
0.340486 0.671536 0.371860
0.344137 0.671731 0.371840
0.351719 0.672177 0.371715
0.363805 0.673023 0.371261
0.380578 0.674296 0.369905
0.401686 0.676246 0.366518
0.426560 0.678890 0.358629
0.452921 0.683435 0.332311
0.479576 0.691615 0.232291
0.519875 0.699020 -0.213551
0.578472 0.699752 -0.307710
0.652561 0.712757 -0.127606
0.724451 0.736536 0.288782
0.812569 0.770749 0.340786
0.865496 0.814150 0.464237
0.377230 0.745244 0.418735
0.377978 0.745299 0.418719
0.381308 0.745527 0.418739
0.388227 0.745808 0.418588
0.399458 0.746697 0.418305
0.414998 0.747836 0.417331
0.434787 0.749531 0.414896
0.458393 0.751871 0.409450
0.485581 0.755164 0.397788
0.511575 0.761506 0.349519
0.541615 0.770379 0.202579
0.587715 0.776940 -0.275593
0.649597 0.776391 -0.335288
0.731210 0.795806 -0.036776
0.814655 0.828419 0.336641
0.868698 0.870149 0.477074
0.416523 0.822842 0.468744
0.417263 0.822843 0.468761
0.420379 0.823071 0.468741
0.426973 0.823503 0.468693
0.437491 0.824195 0.468420
0.452271 0.825264 0.467664
0.471216 0.826925 0.465841
0.494036 0.829150 0.461761
0.520457 0.832119 0.453296
0.548754 0.836626 0.430246
0.575657 0.844939 0.347874
0.611508 0.854001 0.079858
0.665058 0.859118 -0.341870
0.730115 0.856408 -0.349706
0.821136 0.884353 0.187858
0.876083 0.923360 0.445340
0.458678 0.906218 0.523347
0.459376 0.906259 0.523363
0.462445 0.906458 0.523348
0.468774 0.906803 0.523296
0.478988 0.907590 0.523117
0.493350 0.908581 0.522524
0.511910 0.910123 0.521051
0.534440 0.912194 0.517735
0.560634 0.914959 0.510954
0.590192 0.918635 0.497343
0.618198 0.925166 0.445627
0.649228 0.934193 0.306799
0.694158 0.941751 -0.260560
0.756800 0.943869 -0.404896
0.822969 0.939431 -0.327889
0.883929 0.970724 0.313363
0.527490 0.978951 0.632247
0.528192 0.978984 0.632266
0.531198 0.979179 0.632380
0.537250 0.979548 0.632595
0.546772 0.980090 0.632769
0.560071 0.980958 0.632765
0.577233 0.982092 0.632235
0.598211 0.983647 0.630553
0.622677 0.985594 0.626582
0.650434 0.988020 0.618117
0.679784 0.991431 0.594854
0.707528 0.996399 0.518959
0.744063 1.000008 0.358278
0.797755 1.006396 -0.209943
0.864440 1.005365 -0.289542
0.886181 1.003692 -0.217694
0.018091 0.044596 0.023976
0.036950 0.043474 0.022260
0.086827 0.068769 0.033385
0.148562 0.080033 0.039198
0.211300 0.068321 0.017954
0.271187 -0.049565 -0.069981
0.331138 -0.076138 -0.089888
0.392374 -0.092243 -0.103577
0.454294 -0.108854 -0.116784
0.518694 -0.126422 -0.129969
0.586469 -0.145132 -0.143418
0.658899 -0.165135 -0.157320
0.738338 -0.187435 -0.172674
0.827950 -0.212984 -0.190347
0.950156 -0.242671 -0.211125
0.979600 0.130171 0.248832
0.026971 0.071801 0.030749
0.037617 0.072311 0.028414
0.082192 0.089037 0.041783
0.138339 0.102052 0.053550
0.205599 0.094091 0.031626
0.269256 0.052071 -0.070271
0.330530 -0.053186 -0.091965
0.392179 -0.076809 -0.105988
0.454374 -0.097298 -0.119246
0.518932 -0.117264 -0.132378
0.586819 -0.137674 -0.145821
0.659378 -0.159217 -0.160062
0.738954 -0.182239 -0.175227
0.828439 -0.208202 -0.192674
0.950830 -0.238320 -0.213448
0.979393 0.146394 0.250421
0.054185 0.123239 0.055760
0.060623 0.123020 0.056294
0.079725 0.125524 0.027286
0.132858 0.135526 0.058462
0.187139 0.141824 0.064206
0.252148 0.132278 -0.023204
0.318787 0.120205 -0.080914
0.383953 0.107015 -0.102624
0.448318 0.085437 -0.119449
0.514329 0.020718 -0.134502
0.583190 -0.084718 -0.148999
0.656460 -0.119763 -0.163794
0.736587 -0.150738 -0.179746
0.826625 -0.181739 -0.197799
0.948747 -0.215133 -0.218858
0.978827 0.185637 0.246488
0.082535 0.175972 0.084416
0.086304 0.175359 0.084206
0.101941 0.176167 0.081504
0.128788 0.180302 -0.046464
0.183957 0.186095 0.069463
0.236824 0.189250 0.070735
0.294474 0.193080 0.067886
0.362588 0.190888 -0.028283
0.431778 0.183360 -0.093892
0.501672 0.172256 -0.123171
0.573338 0.156882 -0.144977
0.648753 0.134400 -0.164107
0.730193 0.094853 -0.182681
0.821369 -0.081714 -0.202483
0.942536 -0.144031 -0.224785
0.977060 0.243113 0.239404
0.110737 0.230741 0.112835
0.112556 0.229871 0.111630
0.125104 0.230470 0.110687
0.147561 0.232454 0.101900
0.180582 0.237671 -0.090764
0.235862 0.240264 0.076285
0.288577 0.246143 0.092222
0.344358 0.252976 0.100924
0.406051 0.257283 0.094017
0.477887 0.255174 0.037539
0.553575 0.249194 -0.102764
0.632522 0.240465 -0.142565
0.717012 0.229086 -0.171979
0.810153 0.214071 -0.198355
0.929485 0.192762 -0.225092
0.971928 0.311594 0.232500
0.139175 0.287063 0.142121
0.139778 0.286165 0.140647
0.149653 0.286659 0.140298
0.169149 0.288060 0.137638
0.194046 0.292053 0.111269
0.233724 0.297333 -0.126763
0.289957 0.299475 0.082311
0.341803 0.306077 0.117589
0.397235 0.313204 0.128175
0.456395 0.321324 0.138480
0.526574 0.326063 0.122019
0.606828 0.326122 0.066134
0.694336 0.323846 -0.109930
0.790703 0.320501 -0.164261
0.905938 0.317010 -0.205002
0.957703 0.390331 0.240441
0.170364 0.345873 0.175555
0.170716 0.345206 0.174193
0.178524 0.345595 0.174038
0.194599 0.346680 0.172799
0.217979 0.348845 0.166905
0.243401 0.354650 0.111311
0.287732 0.359318 -0.157128
0.344864 0.361091 0.081077
0.395787 0.367614 0.143917
0.452750 0.376183 0.156827
0.514115 0.386398 0.169347
0.582112 0.397804 0.178327
0.665654 0.406025 0.154692
0.762604 0.412447 0.097825
0.873699 0.419551 -0.114445
0.930979 0.474526 0.277043
0.202693 0.406671 0.211380
0.202978 0.406151 0.210091
0.209340 0.406469 0.209985
0.222672 0.407328 0.209288
0.242787 0.408969 0.206399
0.268066 0.411927 0.194574
0.294319 0.418949 0.100229
0.342047 0.422894 -0.186099
0.400220 0.424437 0.067433
0.452111 0.432270 0.171977
0.511508 0.442991 0.187304
0.576418 0.456247 0.202665
0.648749 0.472787 0.219346
0.734886 0.491661 0.224742
0.842464 0.510162 0.198570
0.893625 0.558127 0.341766
0.235384 0.468924 0.248648
0.235655 0.468529 0.247452
0.240990 0.468813 0.247380
0.252224 0.469502 0.246985
0.269603 0.470799 0.245368
0.292406 0.472921 0.240050
0.317788 0.477088 0.215813
0.346370 0.484736 0.070831
0.396719 0.487955 -0.214966
0.457695 0.491018 0.021136
0.511574 0.500781 0.201230
0.574608 0.514614 0.220158
0.645115 0.532496 0.239225
0.725836 0.555550 0.260379
0.820466 0.585314 0.285069
0.866996 0.633462 0.408843
0.269079 0.533733 0.288068
0.269368 0.533489 0.286990
0.273947 0.533722 0.286915
0.283619 0.534315 0.286684
0.298789 0.535345 0.285676
0.319165 0.537121 0.282613
0.343993 0.539750 0.274236
0.368935 0.545310 0.231365
0.400662 0.553135 -0.078535
0.453617 0.555649 -0.244778
0.517981 0.560997 -0.087689
0.575585 0.573577 0.228287
0.644077 0.592213 0.256222
0.722952 0.616757 0.280122
0.815623 0.648861 0.307423
0.862372 0.696120 0.435637
0.303844 0.601148 0.329672
0.304149 0.600994 0.328687
0.308163 0.601192 0.328655
0.316637 0.601736 0.328477
0.330091 0.602607 0.327829
0.348481 0.604110 0.325876
0.371262 0.606269 0.320791
0.397464 0.609609 0.307062
0.422453 0.616562 0.239381
0.458023 0.624299 -0.149952
0.513639 0.626068 -0.275460
0.582259 0.634558 -0.116663
0.645849 0.651698 0.256481
0.722254 0.677240 0.296658
0.813273 0.710739 0.326742
0.863093 0.756021 0.452845
0.339834 0.671505 0.373662
0.340105 0.671345 0.372752
0.343747 0.671589 0.372735
0.351297 0.672023 0.372592
0.363454 0.672825 0.372143
0.380235 0.674115 0.370812
0.401341 0.676029 0.367472
0.426255 0.678674 0.359749
0.452735 0.683107 0.333962
0.479354 0.691230 0.235297
0.519549 0.698668 -0.210190
0.578136 0.699436 -0.306177
0.652446 0.712558 -0.120075
0.724516 0.736421 0.291173
0.812798 0.770767 0.342757
0.865506 0.814324 0.467734
0.377398 0.745249 0.420481
0.377674 0.745267 0.419638
0.381008 0.745440 0.419594
0.387936 0.745804 0.419507
0.399111 0.746594 0.419182
0.414727 0.747739 0.418210
0.434532 0.749410 0.415845
0.458174 0.751791 0.410459
0.485389 0.755031 0.398973
0.511435 0.761296 0.351408
0.541437 0.770092 0.206649
0.587520 0.776852 -0.272885
0.649378 0.776072 -0.333756
0.731132 0.795715 0.033697
0.814717 0.828378 0.338780
0.868718 0.870191 0.480483
0.416709 0.822831 0.470471
0.416997 0.822854 0.469668
0.420177 0.823111 0.469667
0.426692 0.823513 0.469600
0.437247 0.824207 0.469356
0.452040 0.825282 0.468628
0.470994 0.826899 0.466843
0.493834 0.829114 0.462801
0.520305 0.832085 0.454380
0.548696 0.836553 0.431793
0.575594 0.844759 0.350337
0.611386 0.853939 0.092212
0.665013 0.859016 -0.340031
0.729966 0.856251 -0.348198
0.821132 0.884347 0.192056
0.876086 0.923433 0.449591
0.458851 0.906215 0.525140
0.459179 0.906346 0.524340
0.462227 0.906532 0.524320
0.468552 0.906903 0.524270
0.478765 0.907656 0.524101
0.493145 0.908638 0.523512
0.511698 0.910200 0.522059
0.534266 0.912177 0.518786
0.560526 0.915001 0.512066
0.590095 0.918565 0.498539
0.618187 0.925141 0.447708
0.649205 0.934136 0.310059
0.694051 0.941693 -0.256565
0.756682 0.943873 -0.403327
0.822978 0.939403 -0.325932
0.883901 0.970716 0.320048
0.527623 0.978955 0.633754
0.528603 0.979021 0.634314
0.531604 0.979212 0.634481
0.537678 0.979533 0.634646
0.547171 0.980066 0.634854
0.560482 0.980981 0.634877
0.577621 0.982058 0.634400
0.598558 0.983655 0.632766
0.623038 0.985593 0.628896
0.650756 0.988013 0.620518
0.680113 0.991408 0.597922
0.707885 0.996413 0.523126
0.744234 0.999977 0.365103
0.797863 1.006367 -0.196582
0.864501 1.005347 -0.281616
0.886162 1.003680 -0.205929
0.043025 0.073472 0.079731
0.049968 0.073785 0.080718
0.079178 0.073535 0.085810
0.144171 0.081896 0.104946
0.209594 0.067560 0.107125
0.270601 -0.052644 0.091337
0.331017 -0.078819 0.079572
0.392424 -0.094868 0.070681
0.454423 -0.111214 0.057176
0.518763 -0.128458 0.034097
0.586565 -0.146909 -0.052287
0.659100 -0.166950 -0.084068
0.738486 -0.189200 -0.108886
0.828080 -0.214548 -0.132710
0.950332 -0.244063 -0.157862
0.979332 0.129592 0.279138
0.048210 0.086043 0.080753
0.056920 0.089647 0.081016
0.079667 0.090240 0.085261
0.143353 0.097567 0.104217
0.208505 0.087942 0.105658
0.270757 0.034969 0.088194
0.331586 -0.062071 0.074929
0.393019 -0.082595 0.065018
0.454980 -0.101528 0.049844
0.519365 -0.120503 0.017119
0.587188 -0.140230 -0.063056
0.659615 -0.161181 -0.090499
0.739152 -0.184184 -0.113814
0.828761 -0.210153 -0.136979
0.951181 -0.240047 -0.161753
0.979149 0.145842 0.280379
0.058382 0.123055 0.088665
0.063903 0.122761 0.088112
0.085149 0.124203 0.089111
0.131635 0.135907 0.100160
0.198140 0.133239 0.094437
0.264475 0.113109 0.066404
0.328697 0.092868 0.035173
0.391771 0.069874 -0.042579
0.454699 -0.039264 -0.071700
0.519700 -0.083316 -0.092011
0.587885 -0.112552 -0.109883
0.660566 -0.138747 -0.126931
0.740222 -0.165365 -0.144950
0.830149 -0.194107 -0.165174
0.953307 -0.226075 -0.188164
0.978691 0.183433 0.275636
0.084743 0.175969 0.109721
0.088507 0.175271 0.109382
0.104019 0.174191 0.108472
0.128294 0.177269 0.086981
0.182224 0.183643 0.102145
0.237206 0.184965 0.096773
0.302593 0.183414 0.078770
0.372645 0.176837 0.041762
0.440862 0.166616 -0.065193
0.509381 0.153063 -0.096599
0.579963 0.134164 -0.118426
0.654312 0.103896 -0.137565
0.735354 -0.044213 -0.156524
0.825960 -0.119127 -0.176878
0.948368 -0.166257 -0.199880
0.977594 0.240330 0.268459
0.112702 0.230702 0.133253
0.114533 0.229763 0.131893
0.123281 0.227752 0.126390
0.146332 0.229089 0.122103
0.177605 0.233988 0.029338
0.233863 0.236629 0.098822
0.288679 0.242334 0.108096
0.345856 0.248975 0.117338
0.412520 0.250075 0.100645
0.485748 0.245452 0.055380
0.561116 0.237698 -0.083038
0.639396 0.227470 -0.124375
0.723170 0.214311 -0.153433
0.815886 0.196498 -0.179422
0.936590 0.170076 -0.205951
0.973768 0.307688 0.259719
0.140771 0.286997 0.158171
0.141320 0.286097 0.155983
0.145021 0.283878 0.147206
0.165146 0.284930 0.145314
0.191559 0.288033 0.127656
0.230276 0.293378 -0.108840
0.288094 0.296123 0.101993
0.341645 0.303096 0.129344
0.398080 0.310261 0.140770
0.458858 0.317883 0.149156
0.532182 0.320396 0.127137
0.613384 0.318739 0.077491
0.700862 0.315103 -0.093106
0.797007 0.310474 -0.150399
0.914219 0.305395 -0.191176
0.961325 0.385760 0.261956
0.171697 0.345838 0.188938
0.171983 0.345147 0.186885
0.173880 0.343332 0.178239
0.190328 0.344167 0.177333
0.214393 0.346039 0.172387
0.240774 0.351175 0.127485
0.284809 0.355879 -0.146536
0.343270 0.358280 0.102392
0.395537 0.365239 0.153364
0.453307 0.373907 0.167099
0.515410 0.384118 0.180237
0.585289 0.394632 0.185106
0.670722 0.401227 0.158864
0.768514 0.406325 0.105781
0.879792 0.412235 -0.099167
0.935898 0.470446 0.290607
0.203820 0.406614 0.223109
0.204104 0.406114 0.221361
0.205358 0.404674 0.213564
0.218854 0.405342 0.213029
0.239459 0.406825 0.210591
0.265588 0.409458 0.200937
0.292017 0.416173 0.119492
0.339630 0.420089 -0.177498
0.398933 0.422175 0.093578
0.451863 0.430427 0.179973
0.511959 0.441265 0.196068
0.577397 0.454535 0.211903
0.650281 0.471050 0.229013
0.738481 0.488714 0.229459
0.847356 0.505985 0.201820
0.898440 0.555281 0.349664
0.236380 0.468890 0.259128
0.236643 0.468480 0.257607
0.237654 0.467436 0.250665
0.248922 0.468026 0.250346
0.266626 0.469170 0.248953
0.289833 0.471133 0.244164
0.316070 0.474900 0.223565
0.344387 0.482462 0.098398
0.394812 0.485695 -0.207577
0.456670 0.489158 0.071812
0.511346 0.499280 0.208885
0.575042 0.513278 0.227860
0.646085 0.531172 0.247345
0.727274 0.554213 0.268800
0.822739 0.583734 0.292396
0.868677 0.632326 0.416719
0.270000 0.533732 0.297616
0.270246 0.533459 0.296324
0.271099 0.532691 0.290035
0.280760 0.533215 0.289817
0.296168 0.534167 0.288974
0.316866 0.535770 0.286186
0.341987 0.538257 0.278343
0.367662 0.543503 0.240034
0.399030 0.551282 0.036648
0.452068 0.553861 -0.238199
0.517203 0.559471 -0.014992
0.575358 0.572380 0.236281
0.644556 0.591188 0.263155
0.723917 0.615791 0.287431
0.817044 0.647914 0.314954
0.862625 0.695955 0.446110
0.304676 0.601124 0.338468
0.304965 0.600952 0.337333
0.305767 0.600514 0.331633
0.314245 0.600946 0.331479
0.327827 0.601786 0.330962
0.346436 0.603168 0.329178
0.369440 0.605230 0.324428
0.396096 0.608342 0.312050
0.421381 0.615084 0.249132
0.456694 0.622944 -0.129442
0.512446 0.624682 -0.269574
0.581661 0.633446 -0.086789
0.645728 0.650918 0.264439
0.722769 0.676575 0.302997
0.814243 0.710148 0.333453
0.863190 0.756029 0.463048
0.340601 0.671490 0.381916
0.340878 0.671342 0.380893
0.341700 0.671143 0.375633
0.349227 0.671551 0.375505
0.361456 0.672355 0.375167
0.378423 0.673525 0.373955
0.399712 0.675309 0.370820
0.424862 0.677905 0.363448
0.451879 0.682132 0.340106
0.478467 0.690156 0.246610
0.518436 0.697651 -0.197319
0.577195 0.698355 -0.300764
0.652112 0.711860 -0.089299
0.724593 0.735836 0.298748
0.813373 0.770388 0.348643
0.865512 0.814312 0.477708
0.378120 0.745227 0.428358
0.378411 0.745265 0.427461
0.379212 0.745266 0.422520
0.386137 0.745606 0.422473
0.397357 0.746299 0.422174
0.413049 0.747416 0.421301
0.433063 0.749040 0.419141
0.456912 0.751262 0.414007
0.484335 0.754564 0.403035
0.510892 0.760596 0.358725
0.540701 0.769420 0.221116
0.586563 0.776115 -0.263678
0.648702 0.775428 -0.328788
0.730957 0.795142 0.084189
0.814987 0.828154 0.345698
0.868722 0.870182 0.490258
0.417382 0.822832 0.478167
0.417700 0.822812 0.477314
0.418508 0.823102 0.472631
0.425044 0.823488 0.472568
0.435631 0.824191 0.472389
0.450545 0.825218 0.471721
0.469649 0.826773 0.470048
0.492701 0.828981 0.466221
0.519285 0.831846 0.458148
0.548125 0.836129 0.437229
0.575196 0.844323 0.359105
0.610747 0.853490 0.126491
0.664293 0.858654 -0.333178
0.729501 0.855865 -0.343252
0.821173 0.884105 0.205629
0.875895 0.923441 0.462193
0.459505 0.906200 0.532781
0.459852 0.906296 0.531966
0.460719 0.906709 0.527344
0.467028 0.907066 0.527318
0.477259 0.907733 0.527132
0.491735 0.908791 0.526627
0.510425 0.910253 0.525295
0.533165 0.912259 0.522204
0.559565 0.914990 0.515757
0.589379 0.918559 0.502817
0.617910 0.924886 0.454809
0.648742 0.933939 0.322227
0.693607 0.941587 -0.242816
0.756229 0.943840 -0.398227
0.822830 0.939330 -0.320053
0.883778 0.970715 0.339708
0.528133 0.978928 0.640000
0.529099 0.979043 0.640569
0.531968 0.979212 0.640379
0.538013 0.979526 0.640609
0.547549 0.980094 0.640882
0.560878 0.980943 0.641008
0.578015 0.982052 0.640660
0.599030 0.983619 0.639281
0.623527 0.985531 0.635674
0.651223 0.987983 0.627866
0.680930 0.991248 0.607228
0.708613 0.996249 0.536126
0.744596 0.999977 0.385663
0.797856 1.006266 -0.143500
0.864410 1.005315 -0.256793
0.886109 1.003646 -0.164239
0.064458 0.097739 0.143663
0.069620 0.097980 0.144253
0.090369 0.098830 0.147017
0.126475 0.099625 0.151772
0.188186 0.098180 0.173451
0.256436 0.057565 0.180503
0.323097 -0.060983 0.181645
0.387730 -0.087286 0.181431
0.451451 -0.107839 0.179158
0.516769 -0.127074 0.176261
0.585176 -0.146563 0.172814
0.657898 -0.167110 0.168705
0.737735 -0.189699 0.163625
0.827407 -0.215221 0.156986
0.949525 -0.244804 0.147190
0.978527 0.129967 0.330104
0.067413 0.106440 0.143746
0.074680 0.109475 0.142995
0.092955 0.110311 0.145665
0.126425 0.110962 0.150676
0.187676 0.110038 0.173204
0.257340 0.076971 0.180256
0.324239 -0.036794 0.180602
0.388668 -0.074798 0.179907
0.452241 -0.098526 0.177424
0.517554 -0.119549 0.174388
0.585856 -0.140199 0.170819
0.658648 -0.161616 0.166506
0.738346 -0.184874 0.161122
0.828106 -0.210921 0.154063
0.950497 -0.240944 0.143448
0.978393 0.146031 0.331033
0.080205 0.135003 0.144567
0.085289 0.136044 0.144172
0.100644 0.137589 0.143871
0.127611 0.138789 0.148762
0.186040 0.139684 0.169620
0.258417 0.116654 0.172379
0.325931 0.093111 0.168608
0.390228 0.066688 0.165689
0.453711 -0.047485 0.161695
0.519029 -0.087271 0.157347
0.587375 -0.115625 0.152251
0.660222 -0.141615 0.145954
0.740171 -0.168050 0.137882
0.830009 -0.196420 0.126414
0.953071 -0.228108 0.108269
0.978083 0.183123 0.327143
0.099037 0.175081 0.152959
0.101482 0.174362 0.152002
0.113092 0.173460 0.150561
0.139039 0.178148 0.155283
0.187369 0.181123 0.163948
0.253836 0.171050 0.153058
0.320755 0.160145 0.142510
0.386623 0.149333 0.134656
0.451656 0.135499 0.126232
0.518212 0.116003 0.116746
0.587568 0.082629 0.105174
0.661238 -0.066106 0.089513
0.741691 -0.118349 0.064439
0.832221 -0.158164 -0.048907
0.956801 -0.196660 -0.108774
0.977455 0.234185 0.316441
0.117282 0.230952 0.174173
0.118787 0.229978 0.172755
0.126807 0.227831 0.168459
0.149823 0.226590 0.167829
0.177911 0.229415 0.155593
0.231018 0.232852 0.155185
0.288558 0.236965 0.156207
0.356944 0.236854 0.145962
0.429436 0.230692 0.127493
0.501696 0.222183 0.108417
0.574858 0.211809 0.086925
0.651131 0.198795 0.056304
0.733426 0.181516 -0.059977
0.825133 0.155595 -0.108114
0.948525 0.106925 -0.144585
0.975488 0.300672 0.306650
0.143856 0.287296 0.194255
0.144383 0.286310 0.192261
0.148266 0.283873 0.184812
0.163278 0.280878 0.176761
0.191579 0.282507 0.172270
0.226010 0.288003 0.096389
0.284846 0.291322 0.152613
0.341195 0.298155 0.164754
0.399585 0.304870 0.173801
0.467538 0.308425 0.167307
0.545093 0.306285 0.142703
0.626816 0.301449 0.109692
0.713496 0.295361 0.058057
0.808539 0.288330 -0.096400
0.929195 0.280160 -0.147538
0.967437 0.376250 0.300164
0.174394 0.346009 0.220161
0.174711 0.345264 0.218242
0.176759 0.343281 0.210070
0.185389 0.340366 0.197555
0.210559 0.341647 0.195016
0.239156 0.345334 0.173433
0.280403 0.350636 -0.078594
0.340456 0.353718 0.150124
0.394999 0.361018 0.180170
0.454277 0.369621 0.192867
0.517690 0.379506 0.205277
0.593458 0.386562 0.197221
