assets/luts/Fiction.cube
LUT_3D_SIZE 6
0.000000 0.007242 0.000000
0.143760 0.084461 0.025328
0.330491 -0.073750 -0.100474
0.518331 -0.125147 -0.140844
0.738336 -0.187206 -0.183342
0.979610 0.130410 0.241095
0.082118 0.176077 0.080206
0.129848 0.181628 -0.062234
0.293114 0.194177 0.065173
0.499473 0.175175 -0.128561
0.728674 0.101793 -0.189234
0.977017 0.241507 0.228814
0.170187 0.345882 0.173902
0.195757 0.347602 0.172472
0.288832 0.360563 -0.158772
0.452525 0.376445 0.153934
0.664329 0.406649 0.152308
0.929743 0.474734 0.271675
0.268894 0.533757 0.286225
0.284166 0.534632 0.285889
0.344504 0.540240 0.273266
0.454117 0.556317 -0.246489
0.643879 0.592384 0.254066
0.862317 0.695797 0.431911
0.377230 0.745244 0.418735
0.388227 0.745808 0.418588
0.434787 0.749531 0.414896
0.511575 0.761506 0.349519
0.649597 0.776391 -0.335288
0.868698 0.870149 0.477074
0.527490 0.978951 0.632247
0.537250 0.979548 0.632595
0.577233 0.982092 0.632235
0.650434 0.988020 0.618117
0.744063 1.000008 0.358278
0.886181 1.003692 -0.217694
0.064458 0.097739 0.143663
0.126475 0.099625 0.151772
0.323097 -0.060983 0.181645
0.516769 -0.127074 0.176261
0.737735 -0.189699 0.163625
0.978527 0.129967 0.330104
0.099037 0.175081 0.152959
0.139039 0.178148 0.155283
0.320755 0.160145 0.142510
0.518212 0.116003 0.116746
0.741691 -0.118349 0.064439
0.977455 0.234185 0.316441
0.174394 0.346009 0.220161
0.185389 0.340366 0.197555
0.280403 0.350636 -0.078594
0.454277 0.369621 0.192867
0.681814 0.389989 0.169216
0.945225 0.461295 0.315582
0.271895 0.533719 0.318796
0.275801 0.531220 0.298826
0.338612 0.535632 0.289585
0.449363 0.550671 -0.218810
0.645308 0.589090 0.278338
0.862996 0.695051 0.464699
0.379583 0.745264 0.444932
0.382508 0.745201 0.429116
0.430178 0.748307 0.426359
0.509856 0.759132 0.374059
0.647465 0.774183 -0.317083
0.868732 0.869980 0.507785
0.529068 0.978992 0.652048
0.538254 0.979529 0.651449
0.578472 0.981959 0.652096
0.651920 0.987841 0.641159
0.745138 0.999969 0.421090
0.886033 1.003583 0.088451
0.103351 0.136538 0.337488
0.150284 0.139929 0.339495
0.270726 0.155000 0.351306
0.472784 0.133966 0.419305
0.718366 -0.148210 0.459432
0.966563 0.164684 0.532337
0.130302 0.203221 0.331649
0.160446 0.200885 0.332462
0.272114 0.205894 0.350461
0.478944 0.188653 0.416928
0.725968 -0.033604 0.448377
0.967671 0.246353 0.525700
0.214312 0.345265 0.354365
0.219949 0.338954 0.346931
0.300131 0.356761 0.366026
0.476535 0.346686 0.392231
0.725813 0.326990 0.386637
0.968642 0.423841 0.485807
0.281976 0.534672 0.433916
0.285940 0.531825 0.423793
0.335678 0.524525 0.406245
0.437431 0.535637 0.312033
0.648297 0.578117 0.409240
0.875773 0.683287 0.546879
0.386586 0.745781 0.538616
0.390243 0.745410 0.529546
0.417648 0.744077 0.496549
0.506975 0.750610 0.481795
0.640101 0.766367 0.093381
0.868949 0.868421 0.601710
0.533858 0.979392 0.717741
0.543147 0.979831 0.717896
0.579563 0.981739 0.714713
0.655074 0.987050 0.713461
0.748851 0.999104 0.588162
0.885596 1.003199 0.398652
0.160062 0.197405 0.499245
0.192450 0.199786 0.501702
0.292512 0.211259 0.511608
0.428901 0.225348 0.536795
0.670460 0.190604 0.631563
0.932791 0.246032 0.709861
0.176044 0.245517 0.497103
0.200999 0.244186 0.500007
0.295862 0.250647 0.514087
0.432526 0.257064 0.540562
0.677173 0.229863 0.633864
0.935356 0.297643 0.708113
0.240370 0.373389 0.500656
0.249905 0.371499 0.504178
0.314883 0.373832 0.509109
0.429173 0.378150 0.536137
0.682406 0.367248 0.629167
0.945743 0.439911 0.695047
0.326527 0.531909 0.549456
0.329219 0.528535 0.546231
0.364932 0.521585 0.539445
0.466407 0.549627 0.567663
0.681759 0.550156 0.594958
0.952152 0.624456 0.641843
0.398060 0.746528 0.650207
0.401340 0.746122 0.646982
0.427213 0.744418 0.636011
0.508967 0.742945 0.628990
0.631370 0.757192 0.519341
0.869278 0.861768 0.713487
0.539455 0.980134 0.801087
0.548670 0.980602 0.801628
0.585308 0.982391 0.802408
0.652356 0.986164 0.798488
0.755848 0.996263 0.762460
0.884894 1.002632 0.598797
0.216157 0.259412 0.638908
0.242287 0.261402 0.641571
0.331543 0.270578 0.652657
0.460658 0.287488 0.673911
0.632086 0.273059 0.726940
0.886179 0.324172 0.832340
0.228071 0.298729 0.638652
0.249699 0.297971 0.642685
0.335332 0.304318 0.655727
0.464044 0.316238 0.678413
0.637467 0.298834 0.731919
0.888759 0.360937 0.833312
0.279886 0.418967 0.641976
0.291554 0.418056 0.647136
0.352116 0.416370 0.656532
0.468225 0.423216 0.682743
0.639788 0.407653 0.737066
0.900285 0.477309 0.835595
0.369126 0.575398 0.672691
0.374243 0.575105 0.674610
0.407471 0.573281 0.679196
0.488405 0.576322 0.691445
0.632498 0.574105 0.738684
0.924344 0.636038 0.828065
0.429374 0.743953 0.743066
0.432309 0.743247 0.742610
0.454221 0.740886 0.741093
0.523407 0.740268 0.742803
0.651690 0.768491 0.768305
0.879511 0.839130 0.811771
0.547541 0.980779 0.882464
0.556368 0.981261 0.883101
0.591565 0.983135 0.885384
0.657855 0.986839 0.888506
0.755173 0.993300 0.884998
0.884085 1.001959 0.763177
0.317526 0.374757 0.806493
0.336385 0.377436 0.809612
0.407991 0.388609 0.823224
0.526032 0.409106 0.848887
0.682121 0.427463 0.894811
0.844830 0.400407 0.948430
0.328682 0.406081 0.809158
0.344965 0.406787 0.811907
0.413919 0.417064 0.825694
0.529522 0.436071 0.851523
0.683820 0.453611 0.896887
0.846139 0.429115 0.949753
0.374884 0.516079 0.822248
0.387849 0.516804 0.824600
0.436005 0.514153 0.834545
0.542404 0.529745 0.862146
0.690089 0.545891 0.905338
0.851696 0.528085 0.954944
0.456167 0.672774 0.856671
0.465667 0.673636 0.858098
0.501838 0.674421 0.864037
0.566617 0.667797 0.879352
0.701135 0.684473 0.920820
0.862900 0.673715 0.964231
0.538769 0.835826 0.920400
0.546946 0.836564 0.921090
0.579247 0.838819 0.923988
0.637653 0.841264 0.928862
0.720424 0.840775 0.941996
0.881405 0.838537 0.974636
0.575644 0.979965 0.970567
0.583346 0.980522 0.971058
0.614424 0.982734 0.972933
0.673433 0.987035 0.976661
0.764903 0.993811 0.982063
0.882598 1.000711 0.968243
