assets/luts/Forest.cube
LUT_3D_SIZE 16
0.061746 -0.014252 -0.016836
0.089809 -0.020937 -0.022553
0.123885 -0.027982 -0.029087
0.164898 -0.036136 -0.036917
0.214598 -0.045841 -0.046406
0.274090 -0.057350 -0.057764
0.343222 -0.070655 -0.070963
0.421514 -0.085676 -0.085911
0.506985 -0.102037 -0.102223
0.595626 -0.118990 -0.119142
0.683219 -0.135744 -0.135869
0.765113 -0.151404 -0.151507
0.836956 -0.165136 -0.165238
0.896370 -0.176468 -0.176555
0.945696 -0.186154 -0.186236
0.991206 -0.196064 -0.196132
0.060342 0.060354 -0.018887
0.088954 0.058725 -0.025805
0.123309 0.058460 -0.032196
0.164498 0.057485 -0.039722
0.214280 0.053774 -0.048869
0.273843 0.042329 -0.059881
0.343033 -0.032201 -0.072757
0.421345 -0.059829 -0.087422
0.506870 -0.082389 -0.103486
0.595515 -0.103375 -0.120203
0.683112 -0.123024 -0.136759
0.765050 -0.140861 -0.152267
0.836923 -0.156298 -0.165872
0.896355 -0.168975 -0.177093
0.945652 -0.179721 -0.186693
0.991191 -0.190425 -0.196544
0.059177 0.116223 0.000106
0.087304 0.116223 0.000109
0.119619 0.116063 -0.025315
0.161337 0.121206 -0.041160
0.211877 0.125907 -0.053624
0.272108 0.129028 -0.065792
0.341755 0.129659 -0.078747
0.420381 0.126722 -0.092981
0.506162 0.118722 -0.108447
0.594965 0.102877 -0.124514
0.682743 0.070647 -0.140479
0.764698 -0.065284 -0.155458
0.836634 -0.103548 -0.168610
0.896047 -0.127969 -0.179460
0.945437 -0.146380 -0.188741
0.991065 -0.162215 -0.198355
0.059177 0.180702 0.000127
0.088988 0.180702 0.000128
0.122598 0.180702 0.000130
0.158581 0.180702 0.000132
0.207103 0.190987 -0.030336
0.267177 0.199973 -0.060168
0.337672 0.206459 -0.081255
0.417354 0.210018 -0.099041
0.503859 0.210136 -0.115715
0.593261 0.206125 -0.131839
0.681411 0.197547 -0.147322
0.763700 0.184105 -0.161631
0.835812 0.165484 -0.174079
0.895401 0.141032 -0.184242
0.944992 0.108073 -0.192917
0.990681 0.042960 -0.202064
0.059177 0.257174 0.000148
0.090819 0.257174 0.000148
0.126605 0.257174 0.000149
0.165038 0.257174 0.000151
0.206656 0.257174 0.000153
0.264211 0.271284 0.000159
0.331886 0.283603 -0.049188
0.411188 0.292597 -0.089367
0.498665 0.297503 -0.116629
0.589165 0.297661 -0.137612
0.678351 0.293205 -0.155007
0.761380 0.284124 -0.169745
0.834027 0.270690 -0.181888
0.893983 0.253625 -0.191450
0.943875 0.234560 -0.199426
0.989920 0.216591 -0.207972
0.059177 0.346564 0.000168
0.092567 0.346564 0.000168
0.130397 0.346564 0.000169
0.171224 0.346564 0.000170
0.215633 0.346564 0.000171
0.264211 0.346564 0.000173
0.331071 0.362961 0.000178
0.406784 0.376383 -0.008956
0.491705 0.385972 -0.085729
0.582255 0.389715 -0.127722
0.672502 0.387637 -0.155403
0.756746 0.380003 -0.175060
0.830416 0.367271 -0.189307
0.891185 0.350342 -0.199488
0.941818 0.331756 -0.207395
0.988497 0.315916 -0.215626
0.059177 0.445071 0.000187
0.094094 0.445071 0.000187
0.133744 0.445071 0.000187
0.176634 0.445071 0.000188
0.223567 0.445071 0.000189
0.275076 0.445071 0.000190
0.331071 0.445071 0.000191
0.406810 0.461522 0.000197
0.489494 0.473740 0.000201
0.576006 0.480547 -0.070536
0.664940 0.480897 -0.131109
0.749677 0.474340 -0.166973
0.824462 0.461582 -0.189574
0.886352 0.443775 -0.204006
0.938177 0.423944 -0.213941
0.985969 0.407822 -0.223060
0.059177 0.547058 0.000204
0.095354 0.547058 0.000204
0.136477 0.547058 0.000204
0.181100 0.547058 0.000204
0.230131 0.547058 0.000205
0.284001 0.547058 0.000206
0.342781 0.547058 0.000207
0.406810 0.547058 0.000209
0.489494 0.561121 0.000213
0.575197 0.569166 0.000217
0.660197 0.570972 -0.048032
0.742536 0.565744 -0.127921
0.817144 0.553221 -0.171798
0.879729 0.534557 -0.197710
0.932691 0.513357 -0.214028
0.981951 0.496476 -0.226649
0.059177 0.646690 0.000219
0.096287 0.646690 0.000219
0.138508 0.646690 0.000219
0.184449 0.646690 0.000219
0.235044 0.646690 0.000220
0.290707 0.646690 0.000220
0.351605 0.646690 0.000221
0.417963 0.646690 0.000223
0.489494 0.646690 0.000224
0.575197 0.655516 0.000228
0.659932 0.657551 0.000230
0.739234 0.652452 -0.022968
0.810875 0.640386 -0.119984
0.872650 0.621444 -0.170530
0.926091 0.599383 -0.200699
0.976710 0.581908 -0.221291
0.059177 0.738036 0.000231
0.096813 0.738036 0.000231
0.139670 0.738036 0.000231
0.186327 0.738036 0.000232
0.237847 0.738036 0.000232
0.294550 0.738036 0.000233
0.356611 0.738036 0.000233
0.424329 0.738036 0.000234
0.497337 0.738036 0.000236
0.575197 0.738036 0.000237
0.659932 0.740140 0.000240
0.739241 0.734894 0.000241
0.808772 0.722274 0.000242
0.867536 0.703296 -0.108697
0.919847 0.680911 -0.165258
0.970838 0.663301 -0.200748
0.059177 0.818139 0.000241
0.096932 0.818139 0.000241
0.139935 0.818139 0.000242
0.186764 0.818139 0.000242
0.238474 0.818139 0.000242
0.295433 0.818139 0.000243
0.357750 0.818139 0.000243
0.425793 0.818139 0.000244
0.499089 0.818139 0.000245
0.577362 0.818139 0.000247
0.659932 0.818139 0.000248
0.739241 0.812641 0.000250
0.808772 0.799472 0.000250
0.866127 0.779653 0.000250
0.915846 0.757050 -0.096106
0.965833 0.739553 -0.157970
0.059177 0.887118 0.000250
0.096630 0.887118 0.000250
0.139273 0.887118 0.000250
0.185703 0.887118 0.000250
0.236904 0.887118 0.000250
0.293256 0.887118 0.000251
0.354937 0.887118 0.000251
0.422172 0.887118 0.000252
0.494660 0.887118 0.000253
0.572049 0.887118 0.000254
0.653947 0.887118 0.000256
0.739241 0.887118 0.000257
0.808772 0.873269 0.000258
0.866127 0.852179 0.000257
0.915012 0.828419 0.000256
0.963059 0.810774 -0.082487
0.059177 0.945002 0.000257
0.095929 0.945002 0.000257
0.137738 0.945002 0.000257
0.183175 0.945002 0.000257
0.233156 0.945002 0.000257
0.288184 0.945002 0.000257
0.348306 0.945002 0.000258
0.413740 0.945002 0.000258
0.484317 0.945002 0.000259
0.559671 0.945002 0.000260
0.639465 0.945002 0.000261
0.722751 0.945002 0.000263
0.808772 0.945002 0.000265
0.866127 0.922585 0.000264
0.915012 0.897209 0.000263
0.962613 0.878531 0.000262
0.059177 0.992080 0.000262
0.094890 0.992080 0.000262
0.135468 0.992080 0.000262
0.179445 0.992080 0.000262
0.227695 0.992080 0.000262
0.280673 0.992080 0.000263
0.338441 0.992080 0.000263
0.401311 0.992080 0.000263
0.469063 0.992080 0.000264
0.541493 0.992080 0.000265
0.618109 0.992080 0.000266
0.698412 0.992080 0.000267
0.781487 0.992080 0.000269
0.866127 0.992080 0.000271
0.915012 0.964809 0.000269
0.962613 0.944649 0.000269
0.059177 0.995442 0.000262
0.093724 0.995442 0.000262
0.132931 0.995442 0.000262
0.175305 0.995442 0.000263
0.221626 0.995442 0.000263
0.272392 0.995442 0.000263
0.327628 0.995442 0.000263
0.387670 0.995442 0.000264
0.452312 0.995442 0.000264
0.521442 0.995442 0.000265
0.594643 0.995442 0.000266
0.671498 0.995442 0.000267
0.751044 0.995442 0.000269
0.832902 0.995442 0.000270
0.915012 0.995442 0.000272
0.962613 0.995442 0.000273
0.059177 0.995442 0.000262
0.092872 0.995442 0.000262
0.131068 0.995442 0.000262
0.172270 0.995442 0.000263
0.217201 0.995442 0.000263
0.266339 0.995442 0.000263
0.319743 0.995442 0.000263
0.377695 0.995442 0.000264
0.440079 0.995442 0.000264
0.506818 0.995442 0.000265
0.577516 0.995442 0.000266
0.651810 0.995442 0.000267
0.728938 0.995442 0.000268
0.808348 0.995442 0.000270
0.888902 0.995442 0.000271
0.962613 0.995442 0.000273
0.061746 -0.014252 -0.016836
0.089809 -0.020937 -0.022553
0.123885 -0.027982 -0.029087
0.164898 -0.036136 -0.036917
0.214598 -0.045841 -0.046406
0.274090 -0.057350 -0.057764
0.343222 -0.070655 -0.070963
0.421514 -0.085676 -0.085911
0.506985 -0.102037 -0.102223
0.595626 -0.118990 -0.119142
0.683219 -0.135744 -0.135869
0.765113 -0.151404 -0.151507
0.836956 -0.165136 -0.165238
0.896370 -0.176468 -0.176555
0.945696 -0.186154 -0.186236
0.991206 -0.196064 -0.196132
0.060342 0.060354 -0.018887
0.088954 0.058725 -0.025805
0.123478 0.055586 -0.031968
0.164805 0.049000 -0.039160
0.214664 0.031982 -0.048052
0.274232 -0.036053 -0.058976
0.343266 -0.057029 -0.071863
0.421592 -0.076048 -0.086601
0.507077 -0.094886 -0.102761
0.595691 -0.113453 -0.119570
0.683370 -0.131317 -0.136225
0.765152 -0.147716 -0.151796
0.836928 -0.161963 -0.165469
0.896398 -0.173667 -0.176770
0.945660 -0.183598 -0.186419
0.991232 -0.193756 -0.196304
0.059177 0.116223 0.000106
0.085834 0.116403 0.000108
0.119719 0.116246 -0.025266
0.161659 0.119798 -0.041457
0.212338 0.122701 -0.053658
0.272566 0.124181 -0.065497
0.342090 0.123337 -0.078232
0.420701 0.118790 -0.092381
0.506402 0.108607 -0.107845
0.595154 0.088624 -0.123949
0.682917 0.026340 -0.139975
0.764818 -0.083479 -0.155001
0.836687 -0.113711 -0.168226
0.896140 -0.135082 -0.179138
0.945492 -0.151732 -0.188457
0.991049 -0.166538 -0.198108
0.059177 0.180702 0.000127
0.085373 0.181022 0.000128
0.121764 0.181022 0.000130
0.158795 0.181022 0.000133
0.207401 0.190114 -0.031422
0.267610 0.197985 -0.060935
0.338058 0.203619 -0.081501
0.417674 0.206413 -0.098945
0.504189 0.205878 -0.115412
0.593492 0.201267 -0.131448
0.681636 0.192183 -0.146916
0.763846 0.178141 -0.161226
0.835890 0.158805 -0.173708
0.895517 0.133183 -0.183927
0.944958 0.097185 -0.192639
0.990672 -0.045614 -0.201815
0.059177 0.257174 0.000148
0.084722 0.257573 0.000148
0.124779 0.257573 0.000149
0.164505 0.257573 0.000151
0.206917 0.257573 0.000153
0.264474 0.270686 0.000159
0.332086 0.282205 -0.050615
0.411478 0.290542 -0.090126
0.498970 0.294968 -0.116893
0.589446 0.294762 -0.137581
0.678654 0.289994 -0.154831
0.761546 0.280736 -0.169483
0.834099 0.267216 -0.181596
0.894103 0.250142 -0.191175
0.943944 0.231025 -0.199173
0.989934 0.212929 -0.207744
0.059177 0.346564 0.000168
0.084342 0.346917 0.000168
0.127768 0.346917 0.000169
0.170023 0.346917 0.000170
0.215258 0.346917 0.000171
0.264478 0.346917 0.000173
0.331193 0.362475 0.000178
0.406956 0.375317 -0.011577
0.491900 0.384457 -0.086888
0.582521 0.387866 -0.128284
0.672808 0.385519 -0.155621
0.756890 0.377713 -0.175032
0.830486 0.364913 -0.189166
0.891346 0.348106 -0.199314
0.941857 0.329519 -0.207197
0.988541 0.313706 -0.215438
0.059177 0.445071 0.000187
0.084227 0.445285 0.000187
0.130478 0.445285 0.000187
0.174948 0.445285 0.000188
0.222687 0.445285 0.000189
0.274729 0.445285 0.000190
0.331195 0.445285 0.000191
0.406945 0.461149 0.000196
0.489619 0.472942 0.000201
0.576177 0.479461 -0.071874
0.665199 0.479511 -0.131864
0.749858 0.472838 -0.167317
0.824579 0.459964 -0.189691
0.886537 0.442154 -0.204003
0.938240 0.422338 -0.213871
0.986044 0.406210 -0.222947
0.059177 0.547058 0.000204
0.084069 0.547257 0.000204
0.132713 0.547257 0.000204
0.179039 0.547257 0.000204
0.228879 0.547257 0.000205
0.283309 0.547257 0.000206
0.342517 0.547257 0.000207
0.406946 0.547257 0.000209
0.489620 0.560908 0.000213
0.575306 0.568578 0.000217
0.660381 0.570120 -0.049559
0.742641 0.564749 -0.128655
0.817169 0.552100 -0.172179
0.879853 0.533406 -0.197916
0.932761 0.512178 -0.214099
0.982075 0.495323 -0.226647
0.059177 0.646690 0.000219
0.083852 0.646860 0.000219
0.134372 0.646860 0.000219
0.182090 0.646860 0.000219
0.233518 0.646860 0.000220
0.289744 0.646860 0.000220
0.351019 0.646860 0.000221
0.417724 0.646860 0.000223
0.489620 0.646860 0.000224
0.575307 0.655354 0.000228
0.660105 0.657064 0.000230
0.739285 0.651934 -0.024335
0.810904 0.639687 -0.120643
0.872688 0.620651 -0.170943
0.926136 0.598541 -0.200933
0.976778 0.581045 -0.221413
0.059177 0.738036 0.000231
0.083600 0.738087 0.000231
0.135283 0.738087 0.000231
0.183799 0.738087 0.000232
0.236139 0.738087 0.000232
0.293359 0.738087 0.000233
0.355843 0.738087 0.000233
0.423867 0.738087 0.000234
0.497166 0.738087 0.000236
0.575307 0.738087 0.000237
0.660105 0.740106 0.000240
0.739239 0.734504 0.000241
0.808752 0.721842 0.000242
0.867632 0.702737 -0.109285
0.919883 0.680392 -0.165595
0.970944 0.662610 -0.201021
0.059177 0.818139 0.000241
0.083322 0.818264 0.000241
0.135399 0.818264 0.000242
0.184121 0.818264 0.000242
0.236644 0.818264 0.000242
0.294101 0.818264 0.000243
0.356796 0.818264 0.000243
0.425099 0.818264 0.000244
0.498658 0.818264 0.000245
0.577260 0.818264 0.000247
0.660105 0.818264 0.000248
0.739239 0.812537 0.000250
0.808752 0.799204 0.000250
0.866138 0.779284 0.000250
0.915868 0.756719 -0.096594
0.965885 0.739104 -0.158327
0.059177 0.887118 0.000250
0.083024 0.887162 0.000250
0.134733 0.887162 0.000250
0.183016 0.887162 0.000250
0.235027 0.887162 0.000250
0.291862 0.887162 0.000251
0.353822 0.887162 0.000251
0.421392 0.887162 0.000252
0.494115 0.887162 0.000253
0.571703 0.887162 0.000254
0.653823 0.887162 0.000256
0.739239 0.887162 0.000257
0.808752 0.873140 0.000258
0.866138 0.852032 0.000257
0.915010 0.828245 0.000256
0.963073 0.810405 -0.082933
0.059177 0.945002 0.000257
0.082744 0.944996 0.000257
0.133321 0.944996 0.000257
0.180573 0.944996 0.000257
0.231321 0.944996 0.000257
0.286759 0.944996 0.000257
0.347165 0.944996 0.000258
0.412864 0.944996 0.000258
0.483670 0.944996 0.000259
0.559227 0.944996 0.000260
0.639113 0.944996 0.000261
0.722643 0.944996 0.000263
0.808752 0.944996 0.000265
0.866138 0.922481 0.000264
0.915010 0.897152 0.000263
0.962613 0.878254 0.000262
0.059177 0.992080 0.000262
0.082489 0.992037 0.000262
0.131274 0.992037 0.000262
0.176974 0.992037 0.000262
0.225940 0.992037 0.000262
0.279361 0.992037 0.000263
0.337373 0.992037 0.000263
0.400455 0.992037 0.000263
0.468436 0.992037 0.000264
0.541001 0.992037 0.000265
0.617756 0.992037 0.000266
0.698166 0.992037 0.000267
0.781372 0.992037 0.000269
0.866138 0.992037 0.000271
0.915010 0.964665 0.000269
0.962613 0.944572 0.000268
0.059177 0.995442 0.000262
0.082252 0.995442 0.000262
0.129006 0.995442 0.000262
0.172993 0.995442 0.000263
0.219970 0.995442 0.000263
0.271119 0.995442 0.000263
0.326599 0.995442 0.000263
0.386836 0.995442 0.000264
0.451659 0.995442 0.000264
0.520888 0.995442 0.000265
0.594268 0.995442 0.000266
0.671181 0.995442 0.000267
0.750951 0.995442 0.000269
0.832748 0.995442 0.000270
0.915010 0.995442 0.000272
0.962613 0.995442 0.000273
0.059177 0.995442 0.000262
0.081973 0.995442 0.000262
0.127316 0.995442 0.000262
0.170047 0.995442 0.000262
0.215610 0.995442 0.000263
0.265125 0.995442 0.000263
0.318750 0.995442 0.000263
0.376874 0.995442 0.000264
0.439442 0.995442 0.000264
0.506252 0.995442 0.000265
0.577080 0.995442 0.000266
0.651396 0.995442 0.000267
0.728673 0.995442 0.000268
0.808166 0.995442 0.000270
0.888708 0.995442 0.000271
0.962613 0.995442 0.000273
0.061707 -0.014271 0.009906
0.091071 -0.021254 0.002813
0.123874 -0.028018 -0.020189
0.164884 -0.036182 -0.025255
0.214588 -0.045894 -0.032442
0.274087 -0.057413 -0.042962
0.343199 -0.070719 -0.056555
0.421497 -0.085744 -0.072652
0.506969 -0.102109 -0.090482
0.595619 -0.119058 -0.109076
0.683211 -0.135799 -0.127483
0.765106 -0.151451 -0.144715
0.836949 -0.165176 -0.159901
0.896364 -0.176494 -0.172515
0.945691 -0.186169 -0.183194
0.991257 -0.196078 -0.193762
0.060269 0.062587 0.007708
0.088802 0.058210 -0.014019
0.123532 0.055289 -0.024601
0.164811 0.048789 -0.030359
0.214662 0.031647 -0.038142
0.274223 -0.036200 -0.048672
0.343252 -0.057105 -0.061807
0.421580 -0.076100 -0.077300
0.507059 -0.094933 -0.094501
0.595682 -0.113489 -0.112483
0.683360 -0.131350 -0.130328
0.765143 -0.147741 -0.147034
0.836926 -0.161981 -0.161740
0.896390 -0.173678 -0.173965
0.945654 -0.183609 -0.184334
0.991228 -0.193767 -0.194693
0.059177 0.116223 0.012900
0.085834 0.116403 0.013032
0.119644 0.116056 -0.014881
0.162471 0.114078 -0.038419
0.213955 0.108692 -0.051143
0.274226 0.101367 -0.062535
0.343536 0.091408 -0.074996
0.421876 0.073478 -0.089190
0.507350 -0.026316 -0.104887
0.595879 -0.077074 -0.121325
0.683424 -0.105098 -0.137683
0.765217 -0.127080 -0.153048
0.837030 -0.144769 -0.166578
0.896372 -0.158661 -0.177752
0.945667 -0.170183 -0.187334
0.991156 -0.181736 -0.197130
0.059177 0.180702 0.017496
0.085373 0.181022 0.016441
0.117572 0.181885 0.011312
0.159333 0.181885 0.011312
0.208423 0.186506 -0.031770
0.269213 0.189862 -0.062342
0.339746 0.191625 -0.081452
0.419165 0.191140 -0.097792
0.505395 0.187669 -0.113687
0.594427 0.180322 -0.129520
0.682340 0.168409 -0.145005
0.764369 0.151162 -0.159464
0.836326 0.127207 -0.172150
0.895752 0.091966 -0.182589
0.945203 -0.051060 -0.191529
0.990819 -0.100408 -0.200848
0.059177 0.257174 0.022728
0.084722 0.257573 0.020320
0.115861 0.259153 0.009326
0.162004 0.259153 0.009326
0.207919 0.259153 0.009325
0.265375 0.268227 0.009251
0.333263 0.276596 -0.054895
0.412852 0.282323 -0.092349
0.500332 0.284582 -0.117457
0.590622 0.282757 -0.137101
0.679423 0.276815 -0.153800
0.762181 0.266789 -0.168250
0.834698 0.252871 -0.180348
0.894471 0.235723 -0.190002
0.944252 0.216642 -0.198139
0.990096 0.197938 -0.206804
0.059177 0.346564 0.027884
0.084342 0.346917 0.024287
0.114968 0.348439 0.008307
0.164854 0.348439 0.008307
0.213611 0.348439 0.008307
0.265465 0.348439 0.008307
0.332055 0.360700 0.008403
0.407633 0.371154 -0.016156
0.492892 0.378435 -0.090764
0.583623 0.380357 -0.130134
0.673657 0.377007 -0.156141
0.757689 0.368580 -0.174807
0.831194 0.355572 -0.188576
0.891732 0.338860 -0.198558
0.942208 0.320564 -0.206414
0.988693 0.304752 -0.214648
0.059177 0.445071 0.032546
0.084227 0.445285 0.027992
0.114733 0.446469 0.008050
0.167814 0.446469 0.008050
0.219077 0.446469 0.008050
0.273518 0.446469 0.008050
0.332069 0.446469 0.008050
0.407628 0.459753 0.007789
0.490135 0.469792 0.007457
0.576838 0.474968 -0.076626
0.665923 0.474053 -0.134381
0.750584 0.466693 -0.168506
0.825261 0.453511 -0.190063
0.887049 0.435642 -0.203907
0.938602 0.416036 -0.213525
0.986271 0.399946 -0.222474
0.059177 0.547058 0.036448
0.084069 0.547257 0.031107
0.114376 0.548118 0.007645
0.170276 0.548118 0.007645
0.223756 0.548118 0.007645
0.280475 0.548118 0.007645
0.341504 0.548118 0.007645
0.407600 0.548118 0.007645
0.490129 0.559843 0.007187
0.575707 0.566180 0.006733
0.660619 0.566806 -0.054277
0.743092 0.560786 -0.131376
0.817741 0.547717 -0.173674
0.880294 0.528753 -0.198624
0.933230 0.507634 -0.214343
0.982259 0.490720 -0.226606
0.059177 0.646690 0.039392
0.083852 0.646860 0.033437
0.113905 0.647439 0.007135
0.172103 0.647439 0.007135
0.227263 0.647439 0.007135
0.285733 0.647439 0.007135
0.348691 0.647439 0.007135
0.416916 0.647439 0.007136
0.490133 0.647439 0.007136
0.575698 0.654497 0.006527
0.660366 0.655290 0.005983
0.739538 0.649463 -0.028467
0.811255 0.636775 -0.123236
0.873051 0.617497 -0.172435
0.926536 0.595299 -0.201784
0.976932 0.577663 -0.221846
0.059177 0.738036 0.041095
0.083600 0.738087 0.034726
0.113334 0.738587 0.006528
0.172953 0.738587 0.006528
0.229081 0.738587 0.006528
0.288533 0.738587 0.006528
0.352571 0.738587 0.006528
0.421945 0.738587 0.006528
0.496414 0.738587 0.006528
0.575699 0.738587 0.006528
0.660374 0.739290 0.005843
0.739474 0.733184 0.005239
0.808895 0.720024 0.004361
0.867722 0.700673 -0.111520
0.920161 0.678124 -0.167050
0.971084 0.660200 -0.201911
0.059177 0.818139 0.041481
0.083322 0.818264 0.034906
0.112696 0.818511 0.005844
0.172834 0.818511 0.005844
0.229115 0.818511 0.005844
0.288716 0.818511 0.005844
0.352912 0.818511 0.005844
0.422409 0.818511 0.005844
0.497076 0.818511 0.005844
0.576544 0.818511 0.005844
0.660374 0.818511 0.005844
0.739481 0.812018 0.005159
0.808897 0.798165 0.004564
0.866258 0.778014 0.004036
0.915972 0.755243 -0.098470
0.965985 0.737368 -0.159639
0.059177 0.887118 0.040518
0.083024 0.887162 0.033961
0.112032 0.887392 0.005159
0.171641 0.887392 0.005159
0.227332 0.887392 0.005160
0.286237 0.887392 0.005160
0.349610 0.887392 0.005160
0.418235 0.887392 0.005160
0.491910 0.887392 0.005160
0.570359 0.887392 0.005160
0.653216 0.887392 0.005160
0.739481 0.887392 0.005160
0.808899 0.872718 0.004509
0.866260 0.851214 0.003975
0.915048 0.827173 0.003497
0.963083 0.809166 -0.084543
0.059177 0.945002 0.038272
0.082744 0.944996 0.031954
0.111386 0.945128 0.004509
0.169483 0.945128 0.004509
0.223781 0.945128 0.004509
0.281167 0.945128 0.004509
0.342832 0.945128 0.004509
0.409519 0.945128 0.004509
0.481158 0.945128 0.004509
0.557471 0.945128 0.004510
0.638015 0.945128 0.004510
0.722114 0.945128 0.004510
0.808899 0.945128 0.004510
0.866239 0.922156 0.003933
0.915049 0.896482 0.003428
0.962613 0.877485 0.002887
0.059177 0.992080 0.035002
0.082489 0.992037 0.029092
0.110799 0.992100 0.003933
0.166535 0.992100 0.003933
0.218788 0.992100 0.003933
0.273971 0.992100 0.003933
0.333165 0.992100 0.003933
0.397111 0.992100 0.003933
0.465807 0.992100 0.003933
0.538984 0.992100 0.003933
0.616373 0.992100 0.003934
0.697292 0.992100 0.003934
0.780931 0.992100 0.003934
0.866239 0.992100 0.003935
0.915049 0.964450 0.003405
0.962613 0.944031 0.002830
0.059177 0.995442 0.031402
0.082252 0.995442 0.025964
0.110260 0.995442 0.003403
0.163343 0.995442 0.003403
0.213342 0.995442 0.003403
0.266104 0.995442 0.003403
0.322624 0.995442 0.003403
0.383589 0.995442 0.003403
0.449037 0.995442 0.003404
0.518796 0.995442 0.003404
0.592670 0.995442 0.003404
0.670059 0.995442 0.003404
0.750233 0.995442 0.003405
0.832507 0.995442 0.003405
0.915049 0.995442 0.003405
0.962613 0.995442 0.002817
0.059177 0.995442 0.028797
0.081973 0.995442 0.023683
0.109618 0.995442 0.002814
0.160885 0.995442 0.002814
0.209282 0.995442 0.002814
0.260307 0.995442 0.002814
0.314894 0.995442 0.002814
0.373702 0.995442 0.002814
0.436827 0.995442 0.002814
0.504118 0.995442 0.002814
0.575310 0.995442 0.002815
0.650113 0.995442 0.002815
0.727804 0.995442 0.002815
0.807551 0.995442 0.002816
0.888484 0.995442 0.002816
0.962613 0.995442 0.002817
0.059177 0.010652 0.070047
0.089500 -0.003361 0.070320
0.125681 -0.024045 0.070595
0.163795 -0.034321 0.069319
0.213746 -0.044698 0.077970
0.273440 -0.056725 0.085021
0.342744 -0.070393 0.089046
0.421166 -0.085657 0.088703
0.506765 -0.102159 0.082239
0.595404 -0.119178 0.066372
0.683032 -0.135956 0.029404
0.765024 -0.151615 -0.078185
0.836915 -0.165336 -0.112773
0.896365 -0.176642 -0.136911
0.945634 -0.186306 -0.155461
0.991218 -0.196195 -0.171031
0.059177 0.066011 0.070047
0.085866 0.059169 0.070633
0.125051 0.055163 0.070582
0.164118 0.049229 0.069032
0.214065 0.032932 0.076363
0.273742 -0.035675 0.082141
0.342914 -0.057005 0.085074
0.421317 -0.076179 0.083563
0.506874 -0.095087 0.075677
0.595543 -0.113688 0.057255
0.683236 -0.131550 -0.025902
0.765086 -0.147935 -0.087647
0.836907 -0.162158 -0.118346
0.896361 -0.173851 -0.140768
0.945660 -0.183759 -0.158315
0.991199 -0.193893 -0.173323
0.059177 0.122295 0.070047
0.085373 0.120931 0.070370
0.119615 0.113334 0.069019
0.163845 0.111608 0.066552
0.214584 0.107125 0.068571
0.274458 0.100337 0.069198
0.343585 0.090608 0.067055
0.421842 0.072589 0.059635
0.507301 -0.028836 0.041966
0.595841 -0.077630 -0.045275
0.683370 -0.105450 -0.087165
0.765164 -0.127327 -0.114999
0.836977 -0.144944 -0.136920
0.896399 -0.158801 -0.154317
0.945622 -0.170301 -0.168533
0.991120 -0.181825 -0.181533
0.059177 0.180702 0.070047
0.085373 0.181022 0.070370
0.117572 0.181885 0.071231
0.158581 0.180702 0.070047
0.209598 0.179164 0.062060
0.272127 0.173695 0.043980
0.342814 0.167078 0.013390
0.421816 0.158653 -0.059599
0.507514 0.147209 -0.085834
0.596142 0.131088 -0.107814
0.683590 0.107397 -0.127567
0.765315 0.065017 -0.145156
0.836980 -0.072865 -0.160162
0.896289 -0.104761 -0.172345
0.945528 -0.125355 -0.182664
0.991003 -0.143661 -0.193135
0.059177 0.257174 0.080345
0.084722 0.257573 0.079487
0.115861 0.259153 0.075464
0.154455 0.260818 0.063543
0.208973 0.260818 0.063543
0.266412 0.263358 0.065814
0.335479 0.266036 0.040269
0.415652 0.266540 -0.064033
0.502967 0.264537 -0.097575
0.592816 0.259445 -0.120530
0.681106 0.251137 -0.139535
0.763425 0.239576 -0.155875
0.835547 0.224987 -0.169560
0.895074 0.208030 -0.180523
0.944651 0.189354 -0.189782
0.990361 0.169326 -0.199435
0.059177 0.346564 0.090327
0.084342 0.346917 0.088387
0.114968 0.348439 0.080061
0.152220 0.351018 0.060039
0.209609 0.351018 0.060039
0.267141 0.351018 0.060039
0.333368 0.357202 0.062357
0.409008 0.363610 0.056164
0.494929 0.367214 -0.070111
0.585814 0.366313 -0.118113
0.675586 0.361020 -0.145705
0.759235 0.351580 -0.165197
0.832279 0.338326 -0.179650
0.892563 0.322140 -0.190356
0.942745 0.304780 -0.198931
0.988975 0.289301 -0.207898
0.059177 0.445071 0.099233
0.084227 0.445285 0.096463
0.114733 0.446469 0.084803
0.151665 0.448742 0.059207
0.211520 0.448742 0.059207
0.271039 0.448742 0.059207
