assets/luts/Forest.cube
LUT_3D_SIZE 6
0.061746 -0.014252 -0.016836
0.164898 -0.036136 -0.036917
0.343222 -0.070655 -0.070963
0.595626 -0.118990 -0.119142
0.836956 -0.165136 -0.165238
0.991206 -0.196064 -0.196132
0.059177 0.180702 0.000127
0.158581 0.180702 0.000132
0.337672 0.206459 -0.081255
0.593261 0.206125 -0.131839
0.835812 0.165484 -0.174079
0.990681 0.042960 -0.202064
0.059177 0.445071 0.000187
0.176634 0.445071 0.000188
0.331071 0.445071 0.000191
0.576006 0.480547 -0.070536
0.824462 0.461582 -0.189574
0.985969 0.407822 -0.223060
0.059177 0.738036 0.000231
0.186327 0.738036 0.000232
0.356611 0.738036 0.000233
0.575197 0.738036 0.000237
0.808772 0.722274 0.000242
0.970838 0.663301 -0.200748
0.059177 0.945002 0.000257
0.183175 0.945002 0.000257
0.348306 0.945002 0.000258
0.559671 0.945002 0.000260
0.808772 0.945002 0.000265
0.962613 0.878531 0.000262
0.059177 0.995442 0.000262
0.172270 0.995442 0.000263
0.319743 0.995442 0.000263
0.506818 0.995442 0.000265
0.728938 0.995442 0.000268
0.962613 0.995442 0.000273
0.059177 0.010652 0.070047
0.163795 -0.034321 0.069319
0.342744 -0.070393 0.089046
0.595404 -0.119178 0.066372
0.836915 -0.165336 -0.112773
0.991218 -0.196195 -0.171031
0.059177 0.180702 0.070047
0.158581 0.180702 0.070047
0.342814 0.167078 0.013390
0.596142 0.131088 -0.107814
0.836980 -0.072865 -0.160162
0.991003 -0.143661 -0.193135
0.059177 0.445071 0.099233
0.151665 0.448742 0.059207
0.333712 0.448742 0.059208
0.578175 0.466829 -0.050749
0.826457 0.441840 -0.183316
0.986633 0.389315 -0.216603
0.059177 0.738036 0.115157
0.149373 0.739460 0.055666
0.346561 0.739460 0.055666
0.576669 0.739460 0.055666
0.809172 0.716950 0.051384
0.971418 0.656145 -0.198075
0.059177 0.945002 0.109985
0.146115 0.945481 0.050699
0.334976 0.945481 0.050699
0.554310 0.945481 0.050699
0.809189 0.945481 0.050699
0.962613 0.876103 0.046876
0.059177 0.995442 0.092083
0.143160 0.995442 0.046252
0.308312 0.995442 0.046252
0.500529 0.995442 0.046252
0.726141 0.995442 0.046252
0.962613 0.995442 0.046253
0.059177 0.010722 0.328021
0.176634 0.010748 0.328021
0.331071 0.010807 0.328021
0.586074 -0.096638 0.364409
0.833650 -0.160609 0.342895
0.990248 -0.195385 0.283820
0.059177 0.209560 0.328021
0.151665 0.169552 0.331481
0.333712 0.169552 0.331481
0.589369 0.141250 0.350303
0.834778 -0.066987 0.321379
0.990337 -0.143991 0.262067
0.059177 0.445071 0.328021
0.151665 0.448742 0.331481
0.331071 0.445071 0.328021
0.587314 0.432387 0.305346
0.833207 0.403326 0.265176
0.987852 0.377033 0.228843
0.059177 0.738036 0.361615
0.149373 0.739460 0.348440
0.310963 0.744917 0.300830
0.582138 0.744917 0.300830
0.811383 0.707993 0.300174
0.973019 0.651418 0.227487
0.059177 0.945002 0.350723
0.146115 0.945481 0.333207
0.301002 0.947528 0.287145
0.541871 0.947528 0.287145
0.811784 0.947528 0.287145
0.962613 0.874636 0.287204
0.059177 0.995442 0.312761
0.143160 0.995442 0.297168
0.292554 0.995442 0.275294
0.492105 0.995442 0.275294
0.722420 0.995442 0.275294
0.962613 0.995442 0.275294
0.059177 0.010811 0.613485
0.186327 0.010827 0.613485
0.356611 0.010870 0.613485
0.575197 0.010951 0.613485
0.815646 -0.099106 0.600627
0.982942 -0.175849 0.542402
0.059177 0.225043 0.613485
0.149373 0.165842 0.615012
0.346561 0.165842 0.615012
0.576669 0.165842 0.615012
0.817049 0.132332 0.595222
0.983537 -0.115304 0.534533
0.059177 0.480680 0.613485
0.149373 0.466732 0.615012
0.310963 0.416211 0.620622
0.582138 0.416211 0.620622
0.824202 0.401927 0.583651
0.985296 0.374701 0.522585
0.059177 0.738036 0.613485
0.149373 0.739460 0.615012
0.310963 0.744917 0.620622
0.575197 0.738036 0.613485
0.812438 0.732124 0.604938
0.973665 0.717225 0.579140
0.059177 0.945002 0.597268
0.146115 0.945481 0.591590
0.301002 0.947528 0.578384
0.550765 0.949239 0.587811
0.813820 0.949239 0.587811
0.962613 0.898563 0.596052
0.059177 0.995442 0.540544
0.143160 0.995442 0.533574
0.292554 0.995442 0.524151
0.534628 0.995442 0.570661
0.741486 0.995442 0.570661
0.962613 0.995442 0.570661
0.059177 0.010884 0.839637
0.183175 0.010893 0.839637
0.348306 0.010923 0.839637
0.559671 0.010985 0.839637
0.808772 0.011079 0.839637
0.965904 -0.085261 0.767391
0.059177 0.219972 0.839637
0.146115 0.160594 0.840103
0.334976 0.160594 0.840103
0.554310 0.160594 0.840103
0.809189 0.160594 0.840103
0.966230 0.136429 0.764944
0.059177 0.469134 0.839637
0.146115 0.450562 0.840103
0.301002 0.401681 0.842470
0.541871 0.401681 0.842470
0.811784 0.401681 0.842470
0.968130 0.389228 0.763005
0.059177 0.722274 0.839637
0.146115 0.716860 0.840103
0.301002 0.703869 0.842470
0.550765 0.713029 0.844346
0.813820 0.713029 0.844346
0.973760 0.707018 0.783934
0.059177 0.945002 0.839637
0.146115 0.945481 0.840103
0.301002 0.947528 0.842470
0.550765 0.949239 0.844346
0.808772 0.945002 0.839637
0.962613 0.942713 0.837081
0.059177 0.995442 0.765189
0.143160 0.995442 0.762519
0.292554 0.995442 0.758983
0.534628 0.995442 0.777058
0.796375 0.995442 0.828285
0.962613 0.995442 0.828285
0.059177 0.010929 0.977630
0.172270 0.010936 0.977630
0.319743 0.010956 0.977630
0.506818 0.011000 0.977630
0.728938 0.011071 0.977630
0.962613 0.011162 0.977630
0.059177 0.202621 0.977630
0.143160 0.155805 0.977630
0.308312 0.155805 0.977630
0.500528 0.155805 0.977630
0.726141 0.155805 0.977630
0.962613 0.155805 0.977630
0.059177 0.428897 0.977630
0.143160 0.412327 0.977630
0.292554 0.389172 0.977630
0.492105 0.389173 0.977630
0.722419 0.389172 0.977630
0.962613 0.389173 0.977630
0.059177 0.666127 0.977630
0.143160 0.659127 0.977630
0.292554 0.649653 0.977630
0.534628 0.696252 0.977630
0.741486 0.696252 0.977630
0.962613 0.696252 0.977630
0.059177 0.878531 0.977630
0.143160 0.876104 0.977630
0.292554 0.872948 0.977630
0.534628 0.889147 0.977630
0.796375 0.934841 0.977630
0.962613 0.934841 0.977630
0.059177 0.995442 0.977630
0.143160 0.995442 0.977630
0.292554 0.995442 0.977630
0.534628 0.995442 0.977630
0.796375 0.995442 0.977630
0.962613 0.995442 0.977630
