assets/luts/Gotham.cube
LUT_3D_SIZE 16
0.000000 0.000000 0.048724
0.003626 0.000951 0.052444
0.015206 0.003487 0.056177
0.037722 0.007781 0.060395
0.076277 0.014117 0.071093
0.136936 0.022746 0.086112
0.210767 0.033796 0.102952
0.294153 0.047145 0.121064
0.385591 0.062452 0.140211
0.483703 0.079421 0.160241
0.585856 0.097674 0.180984
0.687681 0.116603 0.202088
0.781138 0.135808 0.223882
0.850844 0.155728 0.246342
0.909913 0.175256 0.268203
0.957233 0.195419 0.290535
0.002009 0.007074 0.067420
0.004615 0.007714 0.065823
0.015723 0.009707 0.063175
0.038221 0.013671 0.065121
0.076879 0.019922 0.074707
0.137548 0.028683 0.088873
0.211346 0.039979 0.105177
0.294668 0.053585 0.122925
0.386050 0.069113 0.141816
0.484148 0.086223 0.161663
0.586250 0.104506 0.182247
0.687982 0.122972 0.203211
0.781400 0.140747 0.224206
0.851073 0.159304 0.246022
0.910180 0.178501 0.268065
0.957384 0.198484 0.290567
0.008330 0.026363 0.086600
0.010507 0.026816 0.086883
0.019460 0.028880 0.083680
0.041484 0.033691 0.076385
0.079400 0.041159 0.089470
0.140170 0.051263 0.100041
0.213809 0.064106 0.114152
0.296875 0.079191 0.130634
0.388055 0.095926 0.148547
0.486015 0.113720 0.167629
0.588007 0.131080 0.187601
0.689524 0.147675 0.208083
0.782607 0.163470 0.228644
0.851827 0.178350 0.248729
0.910840 0.193159 0.268502
0.957841 0.211171 0.290739
0.020382 0.060316 0.111321
0.022470 0.060746 0.111680
0.031170 0.062466 0.112887
0.048782 0.066604 0.109787
0.088374 0.076926 0.093108
0.146024 0.090689 0.120263
0.218616 0.107245 0.131715
0.301427 0.124815 0.145343
0.392231 0.142233 0.161460
0.489792 0.158995 0.179295
0.591478 0.174757 0.198218
0.692808 0.189204 0.217760
0.784657 0.202464 0.237506
0.853382 0.214772 0.256898
0.912070 0.226899 0.275968
0.958540 0.240514 0.296128
0.040315 0.113664 0.141784
0.042457 0.114042 0.142095
0.051526 0.115716 0.143361
0.069679 0.119060 0.145440
0.100050 0.126211 0.141386
0.160473 0.143271 0.119287
0.227758 0.161694 0.155075
0.308612 0.180325 0.167920
0.398850 0.197899 0.181300
0.496135 0.214229 0.196912
0.597068 0.228999 0.214367
0.697583 0.241905 0.232697
0.788094 0.253147 0.251314
0.855904 0.262903 0.269603
0.914017 0.272334 0.287707
0.959775 0.283423 0.306982
0.070880 0.181210 0.177191
0.073183 0.181518 0.177461
0.083046 0.182899 0.178660
0.102896 0.185666 0.180820
0.133282 0.190045 0.183614
0.174703 0.199990 0.175871
0.245790 0.220296 0.152689
0.320968 0.239991 0.193442
0.408528 0.258762 0.207963
0.504785 0.275374 0.221195
0.605155 0.289591 0.236230
0.704735 0.301492 0.252861
0.793024 0.311079 0.270108
0.859479 0.318686 0.287052
0.916886 0.325774 0.303792
0.961431 0.334549 0.321766
0.114658 0.256710 0.217062
0.117137 0.257019 0.217322
0.127381 0.258192 0.218396
0.146893 0.260588 0.220475
0.175355 0.264355 0.223422
0.212020 0.269661 0.226707
0.261566 0.282401 0.210047
0.342233 0.303346 0.193006
0.423715 0.322655 0.235936
0.516765 0.340099 0.251268
0.615525 0.354216 0.264295
0.713999 0.365379 0.278457
0.799398 0.373469 0.293627
0.864338 0.379442 0.308930
0.920588 0.384542 0.324075
0.963684 0.391366 0.340586
0.165939 0.337938 0.260550
0.168142 0.338172 0.260774
0.177367 0.339178 0.261765
0.195328 0.341292 0.263734
0.222146 0.344546 0.266621
0.257392 0.349296 0.270220
0.300593 0.355411 0.273781
0.359744 0.370520 0.240905
0.447808 0.389639 0.240839
0.533965 0.407262 0.282755
0.629141 0.421740 0.297293
0.725683 0.432217 0.309435
0.807173 0.439183 0.322111
0.870313 0.443515 0.335043
0.925231 0.446816 0.348155
0.966435 0.451999 0.363041
0.219477 0.422099 0.306749
0.221482 0.422305 0.307006
0.229952 0.423195 0.307905
0.246599 0.425052 0.309737
0.271847 0.427963 0.312530
0.305616 0.432114 0.316164
0.347563 0.437653 0.320201
0.397636 0.444655 0.322836
0.468424 0.460832 0.268717
0.559853 0.476516 0.295198
0.647443 0.490945 0.331667
0.740084 0.501068 0.344205
0.816183 0.506968 0.354935
0.877531 0.510014 0.365489
0.930511 0.511678 0.376170
0.969706 0.515242 0.389021
0.274492 0.506973 0.354736
0.276340 0.507142 0.354929
0.284140 0.507963 0.355833
0.299613 0.509550 0.357533
0.323326 0.512126 0.360154
0.355448 0.515821 0.363646
0.395865 0.520724 0.367769
0.444663 0.527029 0.371877
0.501394 0.535458 0.362985
0.585025 0.549864 0.305759
0.673833 0.561446 0.351777
0.757810 0.571067 0.380100
0.827317 0.576193 0.390691
0.886204 0.578064 0.399546
0.936473 0.578332 0.408078
0.973254 0.580507 0.418882
0.330270 0.589980 0.403230
0.331646 0.590136 0.403138
0.338703 0.590844 0.403876
0.353034 0.592243 0.405421
0.375229 0.594497 0.407846
0.405586 0.597787 0.411074
0.444211 0.602186 0.415067
0.491107 0.607777 0.419354
0.546610 0.614607 0.423062
0.612037 0.625465 0.387496
0.702182 0.634756 0.359220
0.780642 0.641555 0.405764
0.841530 0.646114 0.427012
0.896972 0.647033 0.435922
0.943419 0.646051 0.443158
0.977136 0.647191 0.452307
0.385993 0.668933 0.450938
0.387246 0.669064 0.450920
0.392843 0.669616 0.450835
0.405789 0.670861 0.452090
0.426360 0.672766 0.454286
0.454878 0.675719 0.457292
0.491410 0.679618 0.461049
0.536115 0.684671 0.465276
0.588999 0.690760 0.469380
0.649908 0.698291 0.468174
0.725923 0.709317 0.404580
0.806298 0.713917 0.415360
0.862087 0.716246 0.451667
0.910880 0.716338 0.471913
0.951669 0.714340 0.480207
0.981583 0.714354 0.488603
0.439564 0.741606 0.496021
0.440818 0.741774 0.496078
0.446102 0.742315 0.496281
0.456944 0.743310 0.496691
0.475982 0.745197 0.498766
0.502456 0.747654 0.501562
0.536643 0.751116 0.505110
0.578702 0.755490 0.509185
0.628602 0.760946 0.513459
0.686292 0.767499 0.517186
0.750896 0.776875 0.494573
0.822184 0.784492 0.441897
0.884580 0.787566 0.463158
0.929427 0.785252 0.495159
0.961749 0.782332 0.515550
0.986546 0.781669 0.526659
0.490418 0.807737 0.538440
0.491594 0.807834 0.538509
0.496619 0.808322 0.538842
0.506842 0.809220 0.539527
0.523550 0.810850 0.540948
0.547949 0.813076 0.543574
0.579633 0.816141 0.546918
0.618894 0.820060 0.550912
0.665377 0.824976 0.555205
0.719200 0.830772 0.559459
0.778663 0.837476 0.561882
0.833126 0.846669 0.528383
0.894753 0.853155 0.490309
0.946437 0.855754 0.509964
0.973866 0.850171 0.538798
0.992237 0.848396 0.561753
0.539113 0.868676 0.578969
0.540312 0.868832 0.579113
0.544980 0.869200 0.579499
0.554624 0.870012 0.580365
0.570118 0.871360 0.581831
0.592427 0.873393 0.584239
0.621625 0.876150 0.587404
0.657988 0.879789 0.591304
0.701168 0.884140 0.595629
0.750916 0.889377 0.600116
0.804050 0.895315 0.604398
0.851661 0.901658 0.604456
0.900255 0.910041 0.573477
0.950709 0.916147 0.540323
0.983625 0.918626 0.557332
0.997959 0.914760 0.587349
0.589415 0.927952 0.621099
0.590449 0.927967 0.621200
0.594993 0.928340 0.621749
0.604177 0.929110 0.622780
0.618971 0.930219 0.624424
0.639843 0.931970 0.626897
0.667093 0.934329 0.630088
0.700783 0.937302 0.633863
0.740819 0.940925 0.638217
0.787172 0.945196 0.642986
0.832782 0.949814 0.647923
0.875860 0.954663 0.653176
0.918664 0.960307 0.655166
0.955372 0.967522 0.632321
0.985434 0.974338 0.601031
1.003558 0.979933 0.603518
0.000183 0.000390 0.052230
0.003706 0.001183 0.052889
0.015275 0.003619 0.057720
0.037810 0.007743 0.066414
0.076444 0.013708 0.078085
0.137130 0.021912 0.092232
0.210961 0.032513 0.108276
0.294351 0.045387 0.125745
0.385780 0.060277 0.144394
0.483902 0.076880 0.164056
0.585975 0.094918 0.184456
0.687796 0.115008 0.206255
0.781339 0.135785 0.228847
0.850880 0.155804 0.250798
0.909967 0.175271 0.272039
0.957333 0.195416 0.293897
0.002104 0.007210 0.067725
0.004705 0.007843 0.066262
0.015821 0.009774 0.064900
0.038366 0.013330 0.070040
0.077048 0.019044 0.080224
0.137749 0.027218 0.093566
0.211515 0.037916 0.109092
0.294810 0.050955 0.126237
0.386146 0.065992 0.144666
0.484238 0.082734 0.164208
0.586261 0.100759 0.184517
0.688072 0.119419 0.205296
0.781539 0.138709 0.227186
0.851059 0.158429 0.249438
0.910089 0.177768 0.271045
0.957374 0.197785 0.293170
0.008397 0.026458 0.088320
0.010590 0.026949 0.088766
0.019583 0.029009 0.086814
0.041525 0.033606 0.082610
0.079598 0.040598 0.093579
0.140429 0.050153 0.103933
0.213912 0.062410 0.117698
0.297001 0.076925 0.133707
0.388150 0.093152 0.151254
0.486089 0.110637 0.170075
0.588048 0.127984 0.189821
0.689548 0.144669 0.210135
0.782581 0.160648 0.230551
0.851863 0.175859 0.250555
0.910895 0.191450 0.270619
0.957805 0.210544 0.293377
0.020427 0.060401 0.113727
0.022452 0.060898 0.114031
0.031237 0.062649 0.115384
0.048965 0.066756 0.113198
0.088461 0.076723 0.099974
0.146175 0.089987 0.123434
0.218793 0.105971 0.134545
0.301562 0.123129 0.148013
0.392280 0.140244 0.163988
0.489873 0.156802 0.181598
0.591499 0.172404 0.200328
0.692701 0.186863 0.219750
0.784705 0.200271 0.239395
0.853403 0.212754 0.258678
0.912143 0.225079 0.277685
0.958615 0.238878 0.297763
0.040307 0.113727 0.144073
0.042308 0.114238 0.144220
0.051453 0.115927 0.145529
0.069745 0.119287 0.147702
0.100326 0.126423 0.144338
0.160566 0.143045 0.124704
0.227826 0.161030 0.157718
0.308761 0.179300 0.170188
0.398988 0.196589 0.183466
0.496215 0.212674 0.199018
0.597126 0.227326 0.216360
0.697605 0.240205 0.234597
0.788201 0.251442 0.253112
0.855930 0.261353 0.271347
0.914033 0.270852 0.289343
0.959821 0.282113 0.308511
0.070774 0.181251 0.179287
0.072839 0.181675 0.179302
0.082765 0.183053 0.180493
0.102776 0.185856 0.182712
0.133333 0.190232 0.185550
0.174930 0.200118 0.178425
0.245958 0.220049 0.157002
0.321010 0.239451 0.195870
0.408651 0.257937 0.209845
0.504850 0.274301 0.223044
0.605209 0.288421 0.238047
0.704802 0.300204 0.254652
0.793029 0.309793 0.271838
0.859574 0.317534 0.288669
0.916886 0.324638 0.305344
0.961491 0.333508 0.323282
0.114453 0.256784 0.218980
0.116605 0.257148 0.218907
0.126947 0.258328 0.219989
0.146573 0.260685 0.222100
0.175226 0.264504 0.225079
0.212079 0.269881 0.228413
0.261799 0.282540 0.212384
0.342343 0.303104 0.196499
0.423700 0.322206 0.238107
0.516818 0.339448 0.252996
0.615616 0.353514 0.265964
0.714125 0.364471 0.280084
0.799425 0.372587 0.295227
0.864357 0.378619 0.310503
0.920630 0.383694 0.325550
0.963681 0.390566 0.341976
0.165661 0.337949 0.262300
0.167525 0.338202 0.262167
0.176834 0.339229 0.263169
0.194889 0.341348 0.265137
0.221846 0.344690 0.268084
0.257260 0.349383 0.271719
0.300659 0.355564 0.275335
0.359883 0.370622 0.243196
0.447832 0.389439 0.243712
0.533962 0.406932 0.284585
0.629189 0.421227 0.298839
0.725800 0.431618 0.310914
0.807219 0.438515 0.323564
0.870351 0.442874 0.336469
0.925240 0.446212 0.349530
0.966428 0.451386 0.364349
0.219238 0.422165 0.308409
0.220895 0.422387 0.308252
0.229409 0.423235 0.309166
0.246084 0.425068 0.311000
0.271471 0.428014 0.313841
0.305395 0.432186 0.317477
0.347448 0.437757 0.321577
0.397711 0.444738 0.324394
0.468581 0.460887 0.270977
0.559897 0.476364 0.297609
0.647452 0.490663 0.333233
0.740126 0.500660 0.345533
0.816231 0.506534 0.356255
0.877603 0.509567 0.366777
0.930537 0.511198 0.377428
0.969757 0.514796 0.390263
0.274282 0.507025 0.356267
0.275768 0.507162 0.356076
0.283592 0.507965 0.356948
0.299093 0.509561 0.358656
0.322866 0.512187 0.361315
0.355134 0.515848 0.364788
0.395671 0.520836 0.368996
0.444515 0.527065 0.373130
0.501398 0.535561 0.364534
0.585076 0.549858 0.307925
0.673821 0.561326 0.353685
0.757739 0.570847 0.381402
0.827349 0.575899 0.391952
0.886211 0.577731 0.400625
0.936514 0.577988 0.409223
0.973267 0.580199 0.420009
0.330476 0.590006 0.404945
0.331476 0.590168 0.404493
0.338198 0.590853 0.404869
0.352543 0.592266 0.406448
0.374831 0.594550 0.408901
0.405258 0.597781 0.412156
0.443939 0.602200 0.416134
0.490947 0.607798 0.420375
0.546526 0.614683 0.424150
0.612033 0.625495 0.389055
0.702153 0.634711 0.361143
0.780624 0.641510 0.407384
0.841537 0.645958 0.428210
0.897014 0.646800 0.437081
0.943450 0.645859 0.444266
0.977107 0.646960 0.453373
0.386146 0.669013 0.452367
0.387105 0.669090 0.451971
0.392670 0.669622 0.451956
0.405347 0.670875 0.453012
0.425967 0.672762 0.455178
0.454525 0.675699 0.458244
0.491168 0.679689 0.462027
0.535899 0.684675 0.466248
0.588861 0.690832 0.470365
0.649888 0.698404 0.469400
0.725904 0.709325 0.406154
0.806346 0.713943 0.417078
0.862027 0.716149 0.453118
0.910881 0.716227 0.473085
0.951687 0.714251 0.481251
0.981593 0.714198 0.489645
0.439711 0.741637 0.497334
0.440617 0.741725 0.497052
0.445933 0.742351 0.497229
0.456759 0.743307 0.497654
0.475646 0.745196 0.499631
0.502142 0.747624 0.502441
0.536371 0.751126 0.505977
0.578483 0.755518 0.510078
0.628410 0.760937 0.514389
0.686174 0.767580 0.518115
0.750829 0.776888 0.495834
0.822162 0.784509 0.443403
0.884647 0.787570 0.464750
0.929442 0.785227 0.496484
0.961778 0.782254 0.516678
0.986545 0.781550 0.527683
0.490600 0.807791 0.539609
0.491414 0.807800 0.539360
0.496464 0.808335 0.539703
0.506692 0.809218 0.540427
0.523299 0.810851 0.541759
0.547738 0.813095 0.544405
0.579479 0.816119 0.547741
0.618692 0.820087 0.551728
0.665184 0.824978 0.556077
0.719176 0.830821 0.560289
0.778645 0.837519 0.562855
0.833060 0.846715 0.529643
0.894818 0.853150 0.491742
0.946431 0.855774 0.511469
0.973848 0.850142 0.540067
0.992220 0.848407 0.562859
0.539297 0.868688 0.580019
0.540115 0.868843 0.579857
0.544847 0.869213 0.580304
0.554467 0.869960 0.581164
0.569955 0.871373 0.582680
0.592234 0.873403 0.585031
0.621517 0.876165 0.588232
0.657812 0.879806 0.592096
0.701013 0.884162 0.596414
0.750828 0.889373 0.600923
0.803907 0.895314 0.605227
0.851656 0.901674 0.605391
0.900221 0.910081 0.574755
0.950702 0.916206 0.541656
0.983590 0.918620 0.558660
0.997950 0.914760 0.588613
0.589554 0.927935 0.622092
0.590318 0.927966 0.621928
0.594826 0.928337 0.622452
0.604042 0.929106 0.623484
0.618850 0.930217 0.625160
0.639758 0.931970 0.627671
0.666995 0.934334 0.630798
0.700671 0.937311 0.634604
0.740781 0.940934 0.639008
0.787182 0.945218 0.643791
0.832730 0.949802 0.648759
0.875938 0.954709 0.654073
0.918679 0.960340 0.656108
0.955368 0.967546 0.633415
0.985435 0.974330 0.602226
1.003550 0.979975 0.604771
0.000771 0.001486 0.085063
0.004190 0.002015 0.086928
0.015769 0.004227 0.089423
0.038460 0.008184 0.096562
0.077219 0.014052 0.107033
0.137957 0.021918 0.120086
0.211715 0.031894 0.135066
0.295021 0.044078 0.151480
0.386391 0.058531 0.169153
0.484418 0.075274 0.188034
0.586528 0.094257 0.207886
0.688308 0.115039 0.228270
0.781662 0.135827 0.248622
0.851236 0.155781 0.268277
0.910332 0.175171 0.287430
0.957489 0.195352 0.307539
0.002721 0.007874 0.087534
0.005209 0.008387 0.088723
0.016403 0.010157 0.091349
0.039021 0.013485 0.097898
0.077855 0.018763 0.107460
0.138617 0.026188 0.119626
0.212323 0.035856 0.133899
0.295571 0.047815 0.149828
0.386934 0.062065 0.167207
0.484789 0.078743 0.186055
0.586811 0.097673 0.206027
0.688443 0.118285 0.226610
0.781702 0.138770 0.247236
0.851362 0.158453 0.267167
0.910420 0.177687 0.286547
0.957567 0.197703 0.306864
0.009033 0.026908 0.102940
0.011158 0.027410 0.103591
0.020018 0.029309 0.104957
0.041466 0.032752 0.105316
0.080343 0.037614 0.111110
0.141155 0.044734 0.120101
0.214510 0.054449 0.132072
0.297471 0.066498 0.146353
0.388502 0.080597 0.162515
0.486384 0.096471 0.180236
0.588175 0.113665 0.199118
0.689779 0.131333 0.219073
0.782648 0.150736 0.240876
0.851930 0.169712 0.262154
0.910893 0.188201 0.282741
0.957812 0.207583 0.303918
0.021062 0.060817 0.126210
0.022971 0.061290 0.126432
0.031204 0.063155 0.127120
0.049637 0.067226 0.128027
0.088289 0.075478 0.123362
0.146730 0.086574 0.136577
0.219497 0.100002 0.146501
0.301975 0.115284 0.159291
0.392668 0.131069 0.174405
0.490195 0.146699 0.191157
0.591685 0.161901 0.209164
0.692877 0.176478 0.228030
0.784886 0.190418 0.247255
0.853612 0.203735 0.266166
0.912251 0.217063 0.284840
0.958612 0.232527 0.305115
0.040788 0.114109 0.155034
0.042578 0.114623 0.154927
0.050773 0.116566 0.154946
0.069751 0.120047 0.157451
0.101323 0.127056 0.156724
0.160741 0.141673 0.144977
0.228105 0.157954 0.168580
0.309232 0.174543 0.179720
0.399476 0.190541 0.192601
0.496464 0.205753 0.207830
0.597337 0.219872 0.224727
0.697745 0.232572 0.242477
0.788376 0.244034 0.260638
0.856064 0.254383 0.278549
0.914199 0.264550 0.296247
0.959917 0.276302 0.315028
0.070860 0.181547 0.188972
0.072576 0.181936 0.188591
0.081284 0.183599 0.188336
0.101908 0.186449 0.190731
0.133400 0.190952 0.193865
0.175875 0.200666 0.189173
0.246173 0.218821 0.173782
0.321087 0.236956 0.205537
0.409052 0.254180 0.217978
0.505203 0.269601 0.230870
0.605430 0.283148 0.245728
0.704925 0.294723 0.262132
0.793246 0.304318 0.278986
0.859683 0.312339 0.295529
0.917010 0.319809 0.311908
0.961541 0.329030 0.329519
0.113993 0.257022 0.227627
0.115729 0.257317 0.227167
0.124726 0.258742 0.226769
0.144988 0.261155 0.228954
0.174419 0.265011 0.232117
0.212161 0.270446 0.235698
0.262562 0.282897 0.222237
0.342506 0.302025 0.210563
0.423724 0.320142 0.246827
0.517094 0.336486 0.260204
0.615834 0.349893 0.272914
0.714361 0.360535 0.286944
0.799556 0.368573 0.301955
0.864513 0.374731 0.316919
0.920699 0.380047 0.331676
0.963763 0.387092 0.347890
0.165056 0.338161 0.270364
0.166439 0.338406 0.269772
0.174333 0.339486 0.269135
0.192860 0.341614 0.271170
0.220447 0.345028 0.274231
0.256553 0.349819 0.278036
0.300751 0.356052 0.281892
0.360594 0.370892 0.252677
0.447926 0.388603 0.255539
0.534016 0.405309 0.292178
0.629545 0.418960 0.305348
0.725881 0.428941 0.317125
0.807447 0.435646 0.329679
0.870575 0.440037 0.342412
0.925332 0.443486 0.355282
0.966530 0.448802 0.369944
0.219025 0.422300 0.316296
0.220242 0.422516 0.315715
0.226838 0.423422 0.314539
0.243893 0.425251 0.316426
0.269753 0.428213 0.319315
0.304224 0.432474 0.323129
0.346900 0.438075 0.327369
0.397863 0.445092 0.330730
0.469151 0.461037 0.280395
0.559860 0.475676 0.307262
0.647494 0.489424 0.339606
0.740442 0.498969 0.351327
0.816466 0.504587 0.361756
0.877774 0.507534 0.372103
0.930644 0.509259 0.382705
0.969800 0.512930 0.395437
0.274914 0.507171 0.364132
0.275999 0.507355 0.363645
0.281129 0.508082 0.361742
0.296892 0.509694 0.363523
0.321062 0.512313 0.366202
0.353729 0.516021 0.369791
0.394710 0.521022 0.373998
0.444040 0.527298 0.378316
0.501547 0.535833 0.371295
0.585553 0.549950 0.317087
0.673737 0.560843 0.361539
0.757874 0.569942 0.386982
0.827522 0.574669 0.397097
0.886327 0.576416 0.405623
0.936602 0.576622 0.414160
0.973359 0.578813 0.424845
0.331312 0.590192 0.411989
0.332287 0.590331 0.411576
0.336595 0.590927 0.409697
0.350496 0.592331 0.410729
0.372923 0.594623 0.413188
0.403721 0.597887 0.416529
0.442780 0.602364 0.420548
0.490189 0.608023 0.424933
0.546100 0.614849 0.428742
0.611986 0.625649 0.395860
0.702343 0.634774 0.369219
0.780645 0.641172 0.413910
0.841517 0.645353 0.433317
0.897101 0.646047 0.441814
0.943560 0.645009 0.448851
0.977186 0.645958 0.457890
0.386885 0.669074 0.458511
0.387773 0.669254 0.458171
0.391756 0.669629 0.456571
0.403511 0.670876 0.456847
0.424284 0.672875 0.459110
0.453035 0.675701 0.462137
0.489945 0.679689 0.465983
0.534987 0.684746 0.470292
0.588216 0.690881 0.474493
0.649558 0.698409 0.474406
0.725864 0.709443 0.412819
0.806394 0.713957 0.424119
0.861908 0.715952 0.459155
0.910866 0.715788 0.478037
0.951734 0.713807 0.485739
0.981674 0.713635 0.493987
0.440412 0.741902 0.502797
0.441271 0.741905 0.502497
0.445079 0.742428 0.501266
0.455914 0.743383 0.501726
0.474220 0.745196 0.503183
0.500847 0.747682 0.506055
0.535267 0.751219 0.509637
0.577620 0.755651 0.513801
0.627774 0.760980 0.518159
0.685751 0.767586 0.522039
0.750684 0.776949 0.501238
0.822124 0.784609 0.449771
0.884760 0.787625 0.471240
0.929422 0.785204 0.502267
0.961669 0.781966 0.521619
0.986542 0.781216 0.532025
0.491195 0.807889 0.544531
0.492006 0.807943 0.544310
0.495603 0.808333 0.543277
0.505865 0.809197 0.544003
0.522340 0.810806 0.545276
0.546725 0.813118 0.547824
0.578517 0.816137 0.551180
0.617925 0.820135 0.555235
0.664519 0.824971 0.559609
0.718565 0.830826 0.563932
0.778431 0.837593 0.566923
0.832997 0.846804 0.535000
0.894696 0.853312 0.497699
0.946419 0.855908 0.517555
0.973802 0.850178 0.545635
0.992159 0.848337 0.567688
0.539863 0.868846 0.584626
0.540665 0.868858 0.584433
0.544127 0.869192 0.583657
0.553717 0.869986 0.584516
0.569285 0.871375 0.586029
0.591468 0.873434 0.588315
0.620790 0.876192 0.591556
0.657199 0.879802 0.595456
0.700500 0.884147 0.599851
0.750466 0.889449 0.604466
0.803642 0.895339 0.608780
0.851534 0.901633 0.609601
0.900192 0.910141 0.579760
0.950623 0.916213 0.547170
0.983618 0.918674 0.564498
0.997919 0.914819 0.593834
0.590082 0.928064 0.626327
0.590823 0.928064 0.626154
0.594108 0.928348 0.625527
0.603366 0.929089 0.626589
0.618125 0.930193 0.628302
0.639053 0.931948 0.630777
0.666469 0.934250 0.634006
0.700274 0.937282 0.637851
0.740327 0.940894 0.642305
0.786754 0.945223 0.647083
0.832602 0.949838 0.652088
0.875742 0.954743 0.657414
0.918674 0.960310 0.659931
0.955362 0.967606 0.638041
0.985448 0.974420 0.607248
1.003513 0.980098 0.610047
0.001964 0.003459 0.127929
0.005169 0.004160 0.127475
0.017119 0.005851 0.132252
0.039533 0.009109 0.137101
0.078208 0.014993 0.147596
0.139258 0.022628 0.161312
0.213213 0.032317 0.177092
0.296517 0.044261 0.193991
0.387797 0.058534 0.211524
0.485724 0.075141 0.229386
0.587708 0.094017 0.247469
0.689305 0.114772 0.265376
0.782540 0.135564 0.282713
0.852031 0.155546 0.299137
0.911064 0.174986 0.315146
0.957921 0.195173 0.332358
0.002850 0.009751 0.131327
0.005904 0.009725 0.130511
0.017608 0.011456 0.133017
0.040193 0.014270 0.138159
0.079021 0.019572 0.148201
0.140078 0.026804 0.161327
0.213812 0.036239 0.176563
0.297027 0.048001 0.193073
0.388232 0.062131 0.210307
0.486157 0.078655 0.228105
0.588037 0.097434 0.246150
0.689546 0.117998 0.264140
0.782685 0.138508 0.281629
0.852151 0.158256 0.298234
0.911217 0.177500 0.314444
0.958009 0.197544 0.331832
0.010775 0.029407 0.134013
0.012796 0.029631 0.134557
0.020402 0.030175 0.138004
0.042966 0.032922 0.142553
0.082330 0.037238 0.150402
0.143177 0.043615 0.161028
0.216299 0.052372 0.174078
0.299119 0.063560 0.188891
0.389991 0.077231 0.205074
0.487690 0.093379 0.222331
0.589328 0.111838 0.240362
0.690798 0.131244 0.258751
0.783617 0.150666 0.276936
0.852654 0.169542 0.294340
0.911572 0.188065 0.311358
0.958251 0.207429 0.329380
0.022619 0.061811 0.150676
0.024555 0.062286 0.151205
0.032709 0.064086 0.153161
0.050504 0.067482 0.155871
0.087680 0.072845 0.157923
0.148265 0.079121 0.163798
0.220828 0.087542 0.172417
0.303125 0.098142 0.183488
0.393639 0.110721 0.196719
0.490948 0.124507 0.211829
0.592376 0.140572 0.229707
0.693410 0.157764 0.249017
0.785099 0.175414 0.268742
0.853800 0.192707 0.287901
0.912470 0.209852 0.306597
0.958730 0.227956 0.325894
0.042622 0.115058 0.177325
0.044436 0.115538 0.177505
0.052139 0.117407 0.177886
0.069487 0.120951 0.178455
0.102966 0.127681 0.181640
0.159947 0.138677 0.179935
0.229063 0.151354 0.191065
0.310544 0.164458 0.200692
0.400443 0.177917 0.212899
0.497215 0.191292 0.227187
0.597905 0.204348 0.242956
0.698195 0.216940 0.259802
0.788983 0.228993 0.277117
0.856455 0.240533 0.294288
0.914527 0.252089 0.311236
0.960132 0.265425 0.329269
0.073011 0.182308 0.209976
0.074755 0.182699 0.209847
0.082256 0.184245 0.209009
0.099956 0.187362 0.208084
0.133394 0.192129 0.211756
0.177552 0.201389 0.211502
0.246037 0.216126 0.205346
0.321600 0.231678 0.225204
0.410019 0.246454 0.235849
0.506143 0.260104 0.248329
0.606056 0.272644 0.262831
0.705374 0.283780 0.278494
0.793688 0.293499 0.294579
0.860124 0.302127 0.310480
0.917398 0.310411 0.326177
0.961742 0.320513 0.343037
0.116418 0.257677 0.247686
0.118128 0.257990 0.247380
0.125177 0.259258 0.245703
0.141744 0.261874 0.243806
0.172806 0.265879 0.247327
0.212326 0.271567 0.251424
0.263975 0.283477 0.242845
0.342555 0.299768 0.238227
0.424070 0.316026 0.264527
0.517889 0.330551 0.276046
0.616721 0.342809 0.288310
0.714923 0.352867 0.302047
0.799924 0.360900 0.316596
0.864847 0.367194 0.330944
0.921020 0.373062 0.345153
0.963998 0.380676 0.360702
0.167280 0.338663 0.289308
0.168709 0.338941 0.288853
0.174642 0.339990 0.286843
0.188921 0.342209 0.284267
0.217793 0.345605 0.287572
0.255337 0.350604 0.291743
0.301039 0.357022 0.296026
0.361819 0.371316 0.272378
