assets/luts/Gotham.cube
LUT_3D_SIZE 6
0.000000 0.000000 0.048724
0.037722 0.007781 0.060395
0.210767 0.033796 0.102952
0.483703 0.079421 0.160241
0.781138 0.135808 0.223882
0.957233 0.195419 0.290535
0.020382 0.060316 0.111321
0.048782 0.066604 0.109787
0.218616 0.107245 0.131715
0.489792 0.158995 0.179295
0.784657 0.202464 0.237506
0.958540 0.240514 0.296128
0.114658 0.256710 0.217062
0.146893 0.260588 0.220475
0.261566 0.282401 0.210047
0.516765 0.340099 0.251268
0.799398 0.373469 0.293627
0.963684 0.391366 0.340586
0.274492 0.506973 0.354736
0.299613 0.509550 0.357533
0.395865 0.520724 0.367769
0.585025 0.549864 0.305759
0.827317 0.576193 0.390691
0.973254 0.580507 0.418882
0.439564 0.741606 0.496021
0.456944 0.743310 0.496691
0.536643 0.751116 0.505110
0.686292 0.767499 0.517186
0.884580 0.787566 0.463158
0.986546 0.781669 0.526659
0.589415 0.927952 0.621099
0.604177 0.929110 0.622780
0.667093 0.934329 0.630088
0.787172 0.945196 0.642986
0.918664 0.960307 0.655166
1.003558 0.979933 0.603518
0.001964 0.003459 0.127929
0.039533 0.009109 0.137101
0.213213 0.032317 0.177092
0.485724 0.075141 0.229386
0.782540 0.135564 0.282713
0.957921 0.195173 0.332358
0.022619 0.061811 0.150676
0.050504 0.067482 0.155871
0.220828 0.087542 0.172417
0.490948 0.124507 0.211829
0.785099 0.175414 0.268742
0.958730 0.227956 0.325894
0.116418 0.257677 0.247686
0.141744 0.261874 0.243806
0.263975 0.283477 0.242845
0.517889 0.330551 0.276046
0.799924 0.360900 0.316596
0.963998 0.380676 0.360702
0.276751 0.507630 0.379688
0.292758 0.510008 0.373891
0.393016 0.521493 0.384768
0.586495 0.550120 0.335837
0.827965 0.572480 0.408262
0.973552 0.576389 0.435328
0.441742 0.742139 0.513619
0.454628 0.743477 0.510271
0.533423 0.751345 0.517540
0.684913 0.767864 0.530432
0.884811 0.787868 0.485031
0.986584 0.780831 0.541501
0.591127 0.928266 0.634913
0.602382 0.929068 0.633271
0.665960 0.934258 0.641006
0.786415 0.945216 0.654245
0.918802 0.960385 0.668308
1.003430 0.980189 0.621309
0.011333 0.016511 0.306612
0.058405 0.024182 0.307101
0.220356 0.036276 0.333984
0.489985 0.080019 0.389803
0.786030 0.138396 0.429185
0.959977 0.196261 0.454625
0.021734 0.090293 0.324226
0.056423 0.073794 0.320143
0.228860 0.089081 0.341901
0.496093 0.128065 0.388782
0.789550 0.177059 0.425481
0.961071 0.228533 0.452134
0.131490 0.269265 0.352983
0.154727 0.272230 0.356651
0.266589 0.282896 0.376408
0.525699 0.303715 0.402242
0.805480 0.332671 0.432880
0.966412 0.365880 0.465663
0.287456 0.511036 0.464458
0.303750 0.513339 0.463611
0.388434 0.524559 0.464887
0.590486 0.550287 0.461566
0.832953 0.563433 0.497438
0.975658 0.570517 0.523000
0.450421 0.744303 0.583475
0.463403 0.745699 0.581641
0.531475 0.752890 0.581674
0.684940 0.769946 0.597686
0.884355 0.790005 0.587606
0.987624 0.781862 0.618391
0.598223 0.929697 0.692503
0.609487 0.930501 0.691372
0.668252 0.935143 0.695107
0.791141 0.946224 0.711230
0.921437 0.961426 0.728672
1.002594 0.981337 0.705090
0.033427 0.042848 0.535865
0.098077 0.051359 0.534695
0.274832 0.077039 0.545742
0.515660 0.083214 0.588137
0.793231 0.142279 0.619617
0.961329 0.204761 0.632182
0.045092 0.129249 0.548350
0.078136 0.094677 0.544064
0.271323 0.121898 0.550262
0.519871 0.132358 0.593454
0.796402 0.181483 0.620803
0.962414 0.236284 0.632452
0.092522 0.325497 0.587570
0.122954 0.314927 0.589755
0.277128 0.287140 0.583130
0.540288 0.306356 0.617493
0.811734 0.335516 0.636373
0.968219 0.370209 0.647598
0.308592 0.533598 0.616446
0.322273 0.534462 0.619269
0.390762 0.540561 0.637030
0.590295 0.553138 0.660572
0.843139 0.569120 0.692675
0.979956 0.588628 0.713229
0.465665 0.750349 0.712994
0.478654 0.751675 0.712989
0.546221 0.758255 0.717689
0.698993 0.774875 0.736343
0.887566 0.794744 0.763890
0.991689 0.791268 0.783160
0.611177 0.933377 0.802245
0.622465 0.934233 0.801717
0.680979 0.938796 0.805931
0.810543 0.950038 0.827699
0.931573 0.964648 0.845873
0.999978 0.984556 0.850794
0.069720 0.082843 0.790251
0.135798 0.090782 0.789249
0.306429 0.121289 0.789302
0.526830 0.155784 0.808658
0.806580 0.152311 0.852236
0.970492 0.192674 0.854112
0.080095 0.160185 0.797572
0.112901 0.128933 0.794729
0.298745 0.156373 0.792412
0.524598 0.189521 0.810247
0.807728 0.191276 0.853865
0.971290 0.226810 0.855197
0.127412 0.344049 0.826094
0.157108 0.330673 0.823744
0.293143 0.301242 0.813646
0.530658 0.330867 0.818438
0.815595 0.342200 0.860823
0.975361 0.365814 0.862367
0.220810 0.552831 0.852835
0.242355 0.548956 0.854390
0.359312 0.540242 0.857456
0.589982 0.555192 0.840303
0.840858 0.570732 0.871697
0.984048 0.585906 0.877720
0.467886 0.757627 0.840234
0.479427 0.758611 0.841632
0.539664 0.765413 0.850074
0.684983 0.783272 0.878350
0.885547 0.799125 0.881492
0.994356 0.809402 0.895153
0.622174 0.936684 0.873858
0.633510 0.937528 0.874253
0.691672 0.942227 0.877286
0.818944 0.953698 0.886132
0.944540 0.970191 0.899926
0.999968 0.990419 0.908052
0.098186 0.113549 0.872815
0.155747 0.120338 0.871100
0.311701 0.146673 0.866576
0.517522 0.181092 0.874023
0.779294 0.192412 0.905581
0.973620 0.206023 0.926854
0.106004 0.175894 0.876378
0.138634 0.153911 0.873801
0.304853 0.177593 0.868098
0.514809 0.210790 0.874069
0.778799 0.224666 0.905530
0.974191 0.239260 0.927191
0.151079 0.344697 0.891973
0.177574 0.332640 0.889514
0.305633 0.312881 0.879510
0.522496 0.341016 0.876160
0.784387 0.358882 0.906114
0.977322 0.374002 0.928467
0.222461 0.543302 0.911336
0.246888 0.538745 0.911157
0.366544 0.531037 0.907905
0.591765 0.557067 0.888733
0.817327 0.574975 0.908399
0.985526 0.587038 0.930645
0.427819 0.745754 0.890146
0.438466 0.745427 0.892043
0.502231 0.748521 0.901804
0.673801 0.765958 0.921398
0.883825 0.799777 0.913206
0.995609 0.808532 0.932068
0.633357 0.941018 0.903658
0.644708 0.941907 0.904091
0.702628 0.946863 0.906753
0.828026 0.958816 0.913419
0.949208 0.975380 0.922042
1.000067 1.000057 0.928846
