assets/luts/Horror.cube
LUT_3D_SIZE 16
0.000413 0.057782 0.040987
0.000934 0.062353 0.040832
0.006047 0.071834 0.040181
0.021772 0.083772 0.034282
0.054572 0.096586 0.051064
0.108906 0.110416 0.071582
0.171948 0.125329 0.094129
0.238084 0.141210 0.118059
0.307061 0.157781 0.142879
0.379498 0.174934 0.168437
0.457297 0.192785 0.194794
0.543416 0.211364 0.222150
0.641247 0.230156 0.249977
0.747307 0.247519 0.275987
0.844850 0.262091 0.297147
0.919292 0.272699 0.311229
0.002332 0.089195 0.055570
0.002974 0.090653 0.056053
0.006752 0.096984 0.015109
0.020654 0.105319 0.057857
0.052633 0.116396 0.063464
0.107776 0.127762 0.077480
0.171611 0.140435 0.097816
0.238130 0.154426 0.120830
0.307216 0.169634 0.145315
0.379706 0.185654 0.170624
0.457511 0.202612 0.196792
0.543707 0.220537 0.223945
0.641447 0.238876 0.251510
0.747581 0.256007 0.277170
0.845111 0.270244 0.298035
0.919529 0.280379 0.311829
0.007587 0.128019 0.077118
0.008507 0.128926 0.077926
0.012141 0.132390 0.079324
0.023471 0.141603 0.050930
0.050729 0.152255 0.088834
0.102924 0.164713 0.098258
0.169056 0.175592 0.110995
0.237233 0.186946 0.129963
0.307301 0.199416 0.152277
0.380201 0.213214 0.176459
0.458121 0.228496 0.202038
0.544396 0.245212 0.228650
0.642164 0.262977 0.255667
0.748191 0.279830 0.280650
0.845745 0.293571 0.300830
0.920017 0.303210 0.314214
0.018943 0.173937 0.107574
0.020150 0.174576 0.108320
0.024282 0.176714 0.110472
0.033568 0.182606 0.112270
0.057383 0.194935 0.090562
0.102410 0.207872 0.127823
0.162747 0.222211 0.140527
0.232732 0.233680 0.151676
0.305077 0.244534 0.168270
0.379539 0.256252 0.188955
0.458392 0.269600 0.212242
0.545212 0.285044 0.237320
0.643287 0.302413 0.263195
0.749330 0.319748 0.287328
0.846676 0.333552 0.306592
0.920691 0.342519 0.319289
0.039675 0.226971 0.145698
0.041162 0.227453 0.146341
0.046000 0.228993 0.148316
0.055969 0.232429 0.151605
0.073079 0.240841 0.150910
0.113427 0.255122 0.131652
0.165416 0.269571 0.172535
0.226382 0.285383 0.188220
0.298451 0.298064 0.198481
0.375175 0.309549 0.212462
0.456077 0.322046 0.230939
0.544395 0.336883 0.252728
0.643453 0.354361 0.276194
0.750036 0.372510 0.298383
0.847460 0.386571 0.315957
0.921083 0.395129 0.327679
0.072976 0.286089 0.190244
0.074716 0.286461 0.190794
0.080326 0.287728 0.192539
0.091597 0.290251 0.195731
0.108649 0.294911 0.199503
0.130983 0.305696 0.192214
0.178169 0.320822 0.175312
0.232408 0.336029 0.221221
0.294255 0.352873 0.239288
0.367275 0.367653 0.250672
0.449384 0.381514 0.262615
0.539669 0.397114 0.278785
0.640379 0.415817 0.298146
0.748278 0.435535 0.317128
0.846102 0.450351 0.332057
0.918608 0.458545 0.341952
0.118958 0.350119 0.239911
0.120638 0.350438 0.240407
0.125892 0.351474 0.241966
0.135989 0.353596 0.244931
0.150982 0.357027 0.248878
0.170588 0.362866 0.252199
0.194270 0.375730 0.234649
0.246635 0.391059 0.220050
0.302953 0.406612 0.272866
0.366604 0.424881 0.293038
0.441642 0.443232 0.307797
0.530936 0.462107 0.319451
0.633119 0.483612 0.333483
0.742385 0.505792 0.347903
0.840777 0.521589 0.358726
0.911412 0.529573 0.365811
0.168659 0.418109 0.293657
0.170147 0.418396 0.294115
0.174760 0.419350 0.295522
0.183641 0.421144 0.298222
0.197094 0.424054 0.302021
0.214713 0.428411 0.306215
0.236231 0.435213 0.307975
0.261348 0.450012 0.277243
0.318450 0.465459 0.264669
0.377583 0.481886 0.326781
0.445306 0.503051 0.349714
0.525651 0.527015 0.369335
0.623940 0.553428 0.383393
0.732890 0.579265 0.394081
0.831297 0.596717 0.400046
0.897972 0.604847 0.403429
0.220849 0.489810 0.350924
0.222184 0.490081 0.351315
0.226263 0.490873 0.352619
0.234192 0.492489 0.355101
0.246272 0.495045 0.358718
0.262312 0.498751 0.362934
0.282032 0.504002 0.366595
0.305064 0.511852 0.365383
0.332175 0.528335 0.318493
0.394313 0.544216 0.308827
0.458666 0.563002 0.381619
0.533579 0.589207 0.409688
0.623721 0.620208 0.433496
0.725890 0.651207 0.450339
0.820709 0.671468 0.454983
0.880608 0.680190 0.455786
0.275594 0.565148 0.411728
0.276777 0.565380 0.412092
0.280423 0.566109 0.413240
0.287566 0.567560 0.415489
0.298523 0.569841 0.418859
0.313173 0.573017 0.422737
0.331457 0.577522 0.426874
0.352869 0.583700 0.429031
0.376381 0.593115 0.419512
0.407854 0.610814 0.355414
0.476605 0.627792 0.354559
0.549271 0.651358 0.438282
0.635048 0.684401 0.472819
0.730994 0.718404 0.497777
0.817562 0.741792 0.511142
0.868204 0.751955 0.515138
0.333325 0.644632 0.476460
0.334398 0.644811 0.476793
0.337698 0.645449 0.477815
0.344200 0.646776 0.479831
0.354229 0.648836 0.482863
0.367780 0.651734 0.486441
0.384923 0.655714 0.490418
0.405330 0.661072 0.493602
0.428514 0.668196 0.492811
0.451546 0.679928 0.465695
0.491122 0.698256 0.384448
0.569204 0.717376 0.405549
0.652640 0.747611 0.499287
0.744600 0.782716 0.535689
0.825872 0.806700 0.554506
0.868408 0.816494 0.563602
0.394876 0.729123 0.545956
0.395901 0.729309 0.546261
0.398902 0.729875 0.547138
0.404841 0.731199 0.548831
0.414159 0.733004 0.551375
0.426857 0.735580 0.554558
0.443116 0.739104 0.558241
0.462746 0.743930 0.561452
0.485277 0.750286 0.562303
0.510222 0.758793 0.554557
0.534015 0.773400 0.495964
0.586659 0.790977 0.403969
0.675394 0.812943 0.469057
0.762847 0.844414 0.563121
0.839663 0.867707 0.590139
0.878502 0.876493 0.601349
0.459974 0.817702 0.619660
0.460918 0.817967 0.619915
0.463745 0.818455 0.620606
0.469241 0.819420 0.621896
0.477854 0.821114 0.623824
0.490121 0.823528 0.626623
0.505973 0.827013 0.629919
0.525166 0.831445 0.632871
0.547382 0.837181 0.633860
0.572552 0.844768 0.629510
0.596022 0.856512 0.593808
0.628897 0.871968 0.495283
0.698787 0.885577 0.434208
0.786689 0.905552 0.545749
0.856047 0.924873 0.617673
0.896196 0.931846 0.629933
0.523262 0.902195 0.691070
0.524138 0.902321 0.691251
0.526789 0.902830 0.691770
0.531961 0.903813 0.692685
0.540119 0.905331 0.694030
0.552150 0.907529 0.696559
0.567692 0.910658 0.699354
0.586677 0.914625 0.701798
0.608750 0.919887 0.702552
0.633777 0.926499 0.698393
0.659049 0.935863 0.673486
0.685545 0.949169 0.584798
0.737647 0.959585 0.466922
0.811747 0.964676 0.500298
0.874750 0.973454 0.602347
0.923698 0.977125 0.603881
0.577801 0.966444 0.751945
0.578617 0.966550 0.752097
0.581108 0.966877 0.752463
0.585999 0.967564 0.753069
0.593628 0.968655 0.753991
0.605378 0.970333 0.756262
0.620492 0.972486 0.758587
0.638912 0.975252 0.760498
0.660514 0.978808 0.760917
0.685092 0.983228 0.757098
0.711276 0.988907 0.739837
0.735195 0.996743 0.665427
0.776078 1.004058 0.538913
0.837254 1.009441 0.480477
0.892480 1.012310 0.540728
0.947248 1.015689 0.545496
0.554872 0.939668 0.722679
0.555595 0.939822 0.722864
0.557998 0.940149 0.723188
0.562502 0.940917 0.723875
0.569958 0.942129 0.725065
0.581141 0.944010 0.727232
0.595669 0.946573 0.729726
0.613627 0.949964 0.731894
0.635148 0.954303 0.732558
0.659756 0.959824 0.729071
0.686187 0.967228 0.710473
0.711575 0.978530 0.629314
0.758876 0.987605 0.497625
0.827242 0.989609 0.482256
0.881754 0.990818 0.569537
0.937504 0.992568 0.569363
0.265963 0.544022 0.390275
0.266845 0.544182 0.390587
0.269531 0.544709 0.391406
0.275147 0.545897 0.393143
0.284518 0.547999 0.395790
0.298753 0.551285 0.399580
0.318058 0.556448 0.403400
0.342155 0.563967 0.403404
0.367079 0.577420 0.362462
0.420829 0.587511 0.305906
0.482316 0.591109 0.388805
0.549655 0.601890 0.413438
0.632545 0.615455 0.426082
0.729973 0.628795 0.428720
0.823916 0.639093 0.426865
0.893809 0.645745 0.426030
0.002460 0.089629 0.059535
0.003219 0.091411 0.061149
0.006825 0.098540 0.051888
0.021013 0.106685 0.067669
0.054074 0.115802 0.073653
0.109017 0.126253 0.087351
0.172174 0.138641 0.106080
0.238276 0.152623 0.127616
0.307200 0.167695 0.150761
0.379649 0.183672 0.175039
0.457444 0.200580 0.200436
0.543632 0.218356 0.226966
0.641425 0.236598 0.254100
0.747522 0.253490 0.279505
0.844991 0.267774 0.300221
0.919451 0.278020 0.313937
0.007805 0.128280 0.081136
0.008856 0.129325 0.082617
0.012681 0.132834 0.085474
0.023534 0.142307 0.068794
0.051045 0.152553 0.095393
0.104510 0.163697 0.103456
0.170256 0.173888 0.116506
0.237900 0.185048 0.135102
0.307563 0.197486 0.156728
0.380197 0.211350 0.180291
0.458117 0.226495 0.205137
0.544346 0.243055 0.231192
0.642087 0.260598 0.257739
0.748095 0.277151 0.282415
0.845711 0.290820 0.302402
0.919942 0.300263 0.315593
0.019213 0.174137 0.110854
0.020532 0.174843 0.111977
0.024759 0.176962 0.114442
0.034194 0.182703 0.117489
0.057488 0.195107 0.099530
0.102635 0.207807 0.132201
0.163785 0.221396 0.143534
0.233752 0.232304 0.154839
0.305754 0.242972 0.171532
0.379917 0.254637 0.191972
0.458549 0.267919 0.214935
0.545251 0.283257 0.239647
0.643222 0.300504 0.265230
0.749346 0.317531 0.288934
0.846648 0.331150 0.308019
0.920648 0.340088 0.320620
0.039962 0.227102 0.148368
0.041501 0.227659 0.149106
0.046373 0.229206 0.151131
0.056491 0.232585 0.154670
0.074000 0.240684 0.156017
0.113518 0.255116 0.137450
0.165487 0.269411 0.175591
0.226959 0.284769 0.190282
0.299240 0.297017 0.200346
0.375825 0.308294 0.214434
0.456518 0.320672 0.232916
0.544643 0.335371 0.254553
0.643602 0.352724 0.277855
0.750176 0.370604 0.299805
0.847533 0.384609 0.317274
0.921080 0.393169 0.328894
0.073255 0.286205 0.192423
0.074975 0.286638 0.192895
0.080577 0.287905 0.194605
0.091937 0.290414 0.197861
0.109128 0.294999 0.201917
0.131723 0.305573 0.196671
0.178240 0.320755 0.179393
0.232468 0.335826 0.223502
0.294459 0.352442 0.240943
0.367854 0.366869 0.251835
0.449962 0.380471 0.263754
0.540119 0.395895 0.279949
0.640778 0.414439 0.299257
0.748550 0.433950 0.318110
0.846207 0.448706 0.333023
0.918796 0.456835 0.342907
0.119182 0.350169 0.241712
0.120751 0.350582 0.242004
0.125961 0.351598 0.243484
0.136119 0.353690 0.246496
0.151225 0.357151 0.250551
0.170932 0.362912 0.254137
0.194726 0.375638 0.238283
0.246717 0.390920 0.223168
0.302929 0.406428 0.274589
0.366702 0.424506 0.294325
0.441959 0.442622 0.308591
0.531417 0.461242 0.320040
0.633439 0.482558 0.334106
0.742778 0.504587 0.348389
0.841093 0.520268 0.359199
0.911832 0.528194 0.366339
0.168822 0.418147 0.295149
0.170148 0.418445 0.295361
0.174706 0.419435 0.296672
0.183628 0.421220 0.299394
0.197164 0.424125 0.303254
0.214910 0.428490 0.307579
0.236499 0.435264 0.309602
0.261582 0.449945 0.280197
0.318494 0.465362 0.267059
0.377545 0.481687 0.328167
0.445329 0.502734 0.350717
0.525779 0.526521 0.369952
0.624108 0.552686 0.383691
0.733210 0.578347 0.394214
0.831657 0.595732 0.400213
0.898357 0.603732 0.403650
0.220998 0.489895 0.352182
0.222135 0.490121 0.352264
0.226127 0.490928 0.353499
0.234102 0.492553 0.355980
0.246262 0.495098 0.359613
0.262384 0.498797 0.363910
0.282131 0.504054 0.367713
0.305296 0.511838 0.366780
0.332320 0.528318 0.320858
0.394331 0.544159 0.310775
0.458619 0.562808 0.382761
0.533600 0.588931 0.410435
0.623706 0.619775 0.433999
0.726063 0.650639 0.450482
0.820852 0.670699 0.455035
0.880987 0.679324 0.455753
0.275695 0.565251 0.412799
0.276677 0.565436 0.412825
0.280240 0.566097 0.413879
0.287428 0.567564 0.416178
0.298473 0.569899 0.419607
0.313147 0.573056 0.423498
0.331494 0.577559 0.427689
0.352982 0.583734 0.429969
0.376581 0.593053 0.420926
0.407907 0.610785 0.357302
0.476620 0.627712 0.356044
0.549235 0.651178 0.439255
0.634963 0.684105 0.473403
0.730946 0.718035 0.498110
0.817649 0.741320 0.511301
0.868380 0.751429 0.515136
0.333391 0.644644 0.477356
0.334255 0.644814 0.477387
0.337510 0.645452 0.478330
0.344024 0.646771 0.480338
0.354107 0.648817 0.483375
0.367699 0.651769 0.487026
0.384882 0.655716 0.491030
0.405313 0.661068 0.494265
0.428554 0.668177 0.493570
0.451714 0.679843 0.467049
0.491154 0.698266 0.385946
0.569215 0.717334 0.406695
0.652563 0.747470 0.500040
0.744578 0.782497 0.536136
0.825854 0.806373 0.554770
0.868384 0.816181 0.563844
0.394892 0.729109 0.546735
0.395700 0.729269 0.546764
0.398680 0.729873 0.547541
0.404631 0.731157 0.549182
0.413964 0.732965 0.551811
0.426683 0.735556 0.554940
0.442983 0.739042 0.558683
0.462693 0.743952 0.561989
0.485278 0.750299 0.562899
0.510294 0.758734 0.555364
0.534095 0.773426 0.497224
0.586675 0.790994 0.405095
0.675383 0.812845 0.469989
0.762799 0.844277 0.563642
0.839670 0.867488 0.590479
0.878440 0.876228 0.601624
0.459997 0.817720 0.620353
0.460725 0.817935 0.620320
0.463482 0.818400 0.620895
0.468989 0.819382 0.622176
0.477618 0.821108 0.624132
0.489923 0.823501 0.626933
0.505767 0.826995 0.630234
0.525021 0.831422 0.633207
0.547293 0.837179 0.634290
0.572447 0.844717 0.630044
0.596057 0.856436 0.594758
0.628868 0.871952 0.496392
0.698774 0.885556 0.435039
0.786642 0.905525 0.546321
0.856068 0.924829 0.618139
0.896129 0.931723 0.630258
0.523295 0.902252 0.691671
0.523935 0.902340 0.691604
0.526527 0.902841 0.692012
0.531742 0.903787 0.692938
0.539881 0.905256 0.694282
0.551921 0.907507 0.696727
0.567466 0.910591 0.699607
0.586492 0.914561 0.702114
0.608654 0.919831 0.702866
0.633658 0.926439 0.698804
0.659017 0.935806 0.674263
0.685488 0.949170 0.585919
0.737571 0.959588 0.467741
0.811683 0.964673 0.500938
0.874718 0.973413 0.602893
0.923645 0.977105 0.604421
0.577819 0.966476 0.752524
0.578378 0.966488 0.752377
0.580773 0.966843 0.752576
0.585742 0.967555 0.753227
0.593310 0.968648 0.754186
0.605136 0.970284 0.756420
0.620206 0.972448 0.758858
0.638777 0.975248 0.760833
0.660373 0.978808 0.761188
0.684949 0.983226 0.757527
0.711258 0.988814 0.740427
0.735192 0.996703 0.666572
0.776019 1.004037 0.539796
0.837174 1.009444 0.481073
0.892488 1.012298 0.541284
0.947251 1.015649 0.545968
0.554886 0.939674 0.723403
0.555487 0.939800 0.723326
0.557776 0.940090 0.723625
0.562288 0.940930 0.724340
0.569741 0.942142 0.725547
0.580878 0.943946 0.727770
0.595438 0.946552 0.730286
0.613547 0.949940 0.732473
0.634987 0.954271 0.733303
0.659655 0.959789 0.729961
0.686270 0.967141 0.711932
0.711574 0.978464 0.631412
0.758767 0.987596 0.500022
0.827176 0.989619 0.483926
0.881729 0.990838 0.571063
0.937514 0.992584 0.570889
0.266254 0.544075 0.392984
0.267024 0.544267 0.393183
0.269760 0.544813 0.394023
0.275389 0.545985 0.395969
0.284949 0.548083 0.399030
0.299315 0.551388 0.403261
0.318736 0.556480 0.407764
0.342928 0.563931 0.408918
0.368041 0.577103 0.373354
0.420735 0.587588 0.316557
0.482245 0.591269 0.396372
0.549740 0.602088 0.419916
0.633051 0.615516 0.432152
0.731100 0.628483 0.434184
0.825184 0.638499 0.432458
0.895291 0.645045 0.431760
0.003339 0.090405 0.079575
0.004202 0.093129 0.081175
0.007900 0.099194 0.085735
0.020488 0.107979 0.097434
0.054066 0.114823 0.109728
0.108332 0.124838 0.123248
0.171191 0.137165 0.139295
0.237251 0.151049 0.157466
0.306281 0.166015 0.177319
0.378841 0.181930 0.198675
0.456726 0.198709 0.221615
0.543031 0.216347 0.246153
0.640948 0.234375 0.271894
0.747077 0.251145 0.296409
0.844652 0.265219 0.316271
0.919192 0.275594 0.329176
0.009174 0.128879 0.097692
0.010201 0.130069 0.098765
0.013919 0.133323 0.101738
0.023549 0.141156 0.103822
0.055356 0.147599 0.112198
0.110424 0.154835 0.122283
0.173019 0.164348 0.136535
0.238819 0.175535 0.153706
0.307603 0.188070 0.173055
0.379927 0.201886 0.194211
0.457669 0.216918 0.216969
0.543888 0.233072 0.241248
0.641606 0.250037 0.266510
0.747718 0.265945 0.290278
0.845328 0.279369 0.309787
0.919655 0.289091 0.322716
0.020547 0.174716 0.124154
0.021731 0.175457 0.124837
0.025601 0.177528 0.126397
0.035615 0.182421 0.131142
0.057504 0.193359 0.124313
0.103593 0.204304 0.143671
0.168590 0.214111 0.151390
0.237484 0.223388 0.164199
0.307851 0.233588 0.181241
0.380900 0.245170 0.201078
0.458849 0.258445 0.223004
0.545225 0.273393 0.246495
0.642963 0.289833 0.270834
0.748986 0.305926 0.293709
0.846477 0.319013 0.312195
0.920518 0.327913 0.324554
0.041306 0.227598 0.159311
0.042593 0.228134 0.159542
0.046811 0.229631 0.160105
0.057237 0.232909 0.163652
0.075948 0.240151 0.168583
0.113573 0.253724 0.155325
0.165573 0.266867 0.184243
0.229575 0.280044 0.194998
0.302506 0.290590 0.205131
0.378224 0.301061 0.219953
0.458097 0.313013 0.238503
0.545489 0.327272 0.259743
0.643956 0.343957 0.282404
0.750340 0.361088 0.303749
0.847655 0.374618 0.320870
0.921207 0.383091 0.332299
0.074669 0.286598 0.201680
0.076012 0.287018 0.201541
0.080517 0.288180 0.201418
0.091896 0.290716 0.204245
0.110025 0.295193 0.209187
0.133851 0.304780 0.209651
0.178298 0.319654 0.192642
0.232330 0.333828 0.230065
0.295349 0.349247 0.244948
0.370133 0.362158 0.254287
0.452120 0.374789 0.266479
0.541767 0.389527 0.282895
0.642006 0.407326 0.302037
0.749416 0.426139 0.320642
0.846856 0.440410 0.335470
0.919652 0.448525 0.345321
0.120448 0.350547 0.249587
0.121572 0.350871 0.249240
0.125482 0.351763 0.248742
0.135470 0.353851 0.251159
0.151225 0.357328 0.255634
0.171697 0.362986 0.260218
0.196024 0.375026 0.249581
0.246734 0.390050 0.233259
0.302771 0.404814 0.279613
0.366851 0.422078 0.297661
0.443256 0.439102 0.310008
0.533118 0.456683 0.320991
0.635074 0.477078 0.334941
0.744020 0.498311 0.349263
0.842269 0.513538 0.360182
0.913198 0.521365 0.367342
0.169863 0.418462 0.301859
0.170736 0.418742 0.301409
0.173988 0.419474 0.300743
0.182660 0.421248 0.302853
0.196633 0.424224 0.306995
0.214920 0.428516 0.311725
0.237048 0.435238 0.314681
0.262309 0.449560 0.289424
0.318506 0.464619 0.274962
0.377332 0.480324 0.332144
0.445238 0.500696 0.353400
0.526206 0.523674 0.371119
0.625207 0.548878 0.383665
0.734458 0.573702 0.393790
0.832964 0.590473 0.399753
0.899912 0.598341 0.403350
0.221833 0.490129 0.357857
0.222525 0.490294 0.357418
0.225264 0.490920 0.356658
0.232932 0.492474 0.358596
0.245449 0.495085 0.362479
0.261943 0.498777 0.366934
0.282182 0.504037 0.371224
0.305740 0.511795 0.371269
0.332703 0.528038 0.328342
0.394336 0.543479 0.317105
0.458304 0.561639 0.386416
0.533412 0.587185 0.412560
0.623708 0.617389 0.434993
0.726561 0.647469 0.450130
0.821899 0.666967 0.454114
0.882456 0.675495 0.454740
0.276362 0.565442 0.417607
0.276922 0.565553 0.417089
0.279320 0.566070 0.416411
0.286162 0.567468 0.418120
0.297434 0.569824 0.421629
0.312417 0.573010 0.425770
0.331134 0.577490 0.430222
0.352989 0.583688 0.432996
0.377173 0.592888 0.425753
0.408064 0.610598 0.363376
0.476623 0.627174 0.361107
0.548920 0.650188 0.442375
0.634720 0.682581 0.474926
0.730786 0.715996 0.498840
0.817718 0.738753 0.511225
0.869152 0.748638 0.514479
0.333968 0.644818 0.481533
0.334443 0.644972 0.481042
0.336513 0.645384 0.480296
0.342699 0.646612 0.481804
0.352908 0.648678 0.484907
0.366744 0.651585 0.488685
0.384206 0.655630 0.492892
0.404950 0.660985 0.496455
0.428512 0.668021 0.496189
0.452099 0.679673 0.471698
0.491173 0.698169 0.390754
0.569187 0.716827 0.410734
0.652283 0.746553 0.502450
0.744272 0.781130 0.537238
0.825581 0.804762 0.555351
0.868278 0.814327 0.564128
0.395374 0.729271 0.550306
0.395785 0.729292 0.549836
0.397604 0.729798 0.549121
0.403248 0.730848 0.550299
0.412633 0.732751 0.552899
0.425584 0.735427 0.556252
0.442099 0.738960 0.560040
0.462026 0.743764 0.563569
0.484841 0.750099 0.564754
0.510282 0.758583 0.558153
0.534185 0.773122 0.501457
0.586527 0.790908 0.408892
0.675313 0.812396 0.473030
0.762549 0.843533 0.565425
0.839382 0.866413 0.591394
0.878196 0.874982 0.602339
0.460431 0.817913 0.623530
0.460750 0.817976 0.622981
0.462388 0.818276 0.622182
0.467541 0.819207 0.623031
0.476324 0.820940 0.625055
0.488633 0.823367 0.627878
0.504691 0.826677 0.631220
0.524102 0.831205 0.634358
0.546631 0.836978 0.635784
0.572047 0.844525 0.631849
0.596031 0.856178 0.598286
0.628678 0.871895 0.500333
0.698617 0.885482 0.437785
0.786568 0.905187 0.548588
0.855902 0.924277 0.619416
0.895822 0.930966 0.631426
0.523660 0.902361 0.694577
0.523939 0.902362 0.694021
0.525385 0.902653 0.693122
0.530291 0.903516 0.693672
0.538451 0.905084 0.695127
0.550478 0.907282 0.697430
0.566167 0.910318 0.700355
0.585422 0.914342 0.702957
0.607765 0.919597 0.703888
0.632995 0.926209 0.700354
0.658753 0.935542 0.677174
0.685193 0.948950 0.589780
0.737164 0.959545 0.470722
0.811600 0.964640 0.502806
0.874641 0.973202 0.604695
0.923410 0.976806 0.606452
0.578110 0.966459 0.754918
0.578364 0.966549 0.754561
0.579736 0.966765 0.753565
0.584278 0.967330 0.753873
0.591950 0.968438 0.754892
0.603626 0.970041 0.756882
0.618899 0.972231 0.759386
0.637523 0.975047 0.761525
0.659354 0.978611 0.762195
0.684127 0.983110 0.758698
0.710815 0.988642 0.742745
0.734829 0.996550 0.670261
0.775466 1.003924 0.543501
0.836844 1.009455 0.482823
0.892410 1.012221 0.542878
0.947234 1.015425 0.547549
0.555259 0.939805 0.726054
0.555510 0.939828 0.725770
0.556870 0.940062 0.725025
0.561101 0.940748 0.725414
0.568454 0.941959 0.726507
0.579674 0.943761 0.728806
0.594338 0.946340 0.731580
0.612592 0.949765 0.734006
0.634230 0.954057 0.735107
0.659135 0.959585 0.732122
0.686083 0.966857 0.715726
0.711331 0.978188 0.637436
0.758169 0.987540 0.506335
0.826789 0.989625 0.487840
0.881609 0.990825 0.574656
0.937522 0.992587 0.574384
0.267127 0.544366 0.399585
0.267764 0.544512 0.399582
0.269937 0.544942 0.399818
0.275419 0.546108 0.401558
0.285277 0.548221 0.405360
0.299908 0.551534 0.410429
0.319721 0.556483 0.416212
0.344205 0.563725 0.419664
0.369986 0.576221 0.394861
0.420132 0.587700 0.336742
0.481892 0.591623 0.410920
0.549832 0.602439 0.432484
0.633934 0.615532 0.443820
0.733378 0.627625 0.444883
0.827875 0.637181 0.443534
0.898423 0.643490 0.443073
0.004852 0.098014 0.113709
0.005786 0.100293 0.114735
0.009547 0.105207 0.117831
0.019790 0.114720 0.127333
0.042819 0.129304 0.142955
0.089717 0.143165 0.164555
0.157805 0.152786 0.186299
0.228407 0.162998 0.205530
0.300284 0.175081 0.223999
0.374622 0.188873 0.242882
0.453705 0.204154 0.263119
0.540866 0.220670 0.285274
0.639326 0.237893 0.309206
0.745886 0.253967 0.332316
0.843916 0.267529 0.350577
0.918411 0.277521 0.361829
0.011419 0.132947 0.124632
0.012457 0.134098 0.125498
0.015975 0.136631 0.127750
0.025302 0.143278 0.134157
0.047233 0.153558 0.148758
0.096162 0.162476 0.167569
0.163894 0.169073 0.184836
0.232887 0.177820 0.200893
0.303513 0.188626 0.217555
0.376984 0.201177 0.235453
0.455488 0.215228 0.255045
0.542217 0.230608 0.276605
0.640427 0.246769 0.299866
0.746782 0.262098 0.322327
0.844535 0.275201 0.340328
0.918989 0.284840 0.351840
0.024432 0.176092 0.146212
0.025624 0.176817 0.146886
0.029365 0.178703 0.148568
0.038570 0.183084 0.152562
0.057123 0.191548 0.161426
0.109739 0.196898 0.173082
0.173039 0.203281 0.183347
0.239028 0.211401 0.195955
0.307894 0.220940 0.210787
0.380265 0.231894 0.227655
0.458024 0.244274 0.246477
0.544330 0.258038 0.267147
0.642221 0.272890 0.289111
0.748125 0.287186 0.310162
0.845809 0.299259 0.327395
0.920010 0.308201 0.339035
0.045632 0.228274 0.179016
0.046911 0.228836 0.179391
0.050617 0.230337 0.179945
0.059566 0.233510 0.181747
0.078411 0.239806 0.187673
0.113222 0.250801 0.188486
0.168824 0.260798 0.200612
0.237742 0.268777 0.208329
0.308700 0.277190 0.220537
0.381921 0.286843 0.235871
0.459986 0.298192 0.253598
0.546277 0.311552 0.273271
0.644133 0.326793 0.294143
0.750224 0.342155 0.313964
0.847498 0.354519 0.330091
0.921255 0.362775 0.340934
0.079006 0.287162 0.219133
0.080277 0.287577 0.219177
0.083843 0.288779 0.218574
0.092741 0.291271 0.218571
0.111084 0.295787 0.223040
0.137205 0.303829 0.229700
0.178219 0.317384 0.219064
0.232450 0.329886 0.244057
0.299422 0.342036 0.253176
0.375523 0.352190 0.262019
0.456523 0.363318 0.275080
0.544929 0.376709 0.291584
0.644099 0.393129 0.310099
0.750854 0.410400 0.327893
0.847996 0.423711 0.342249
0.921144 0.431626 0.351840
0.123836 0.351074 0.264762
0.124843 0.351400 0.264543
0.127680 0.352273 0.263252
0.135132 0.354226 0.262335
0.150935 0.357733 0.266050
0.173094 0.363201 0.272209
0.199367 0.373666 0.271846
0.246754 0.388220 0.254287
0.302496 0.401747 0.290817
0.367833 0.417151 0.305248
0.446706 0.431639 0.314105
0.536887 0.447263 0.324711
0.638222 0.465999 0.338634
0.746724 0.485735 0.352747
0.844473 0.500045 0.363689
0.915944 0.507598 0.371039
0.172238 0.418964 0.314862
0.173063 0.419275 0.314507
0.175400 0.419911 0.312912
0.181687 0.421429 0.311624
0.195470 0.424401 0.314865
0.214962 0.428788 0.320425
0.238301 0.435297 0.325254
0.264235 0.448622 0.309030
