assets/luts/Horror.cube
LUT_3D_SIZE 6
0.000413 0.057782 0.040987
0.021772 0.083772 0.034282
0.171948 0.125329 0.094129
0.379498 0.174934 0.168437
0.641247 0.230156 0.249977
0.919292 0.272699 0.311229
0.018943 0.173937 0.107574
0.033568 0.182606 0.112270
0.162747 0.222211 0.140527
0.379539 0.256252 0.188955
0.643287 0.302413 0.263195
0.920691 0.342519 0.319289
0.118958 0.350119 0.239911
0.135989 0.353596 0.244931
0.194270 0.375730 0.234649
0.366604 0.424881 0.293038
0.633119 0.483612 0.333483
0.911412 0.529573 0.365811
0.275594 0.565148 0.411728
0.287566 0.567560 0.415489
0.331457 0.577522 0.426874
0.407854 0.610814 0.355414
0.635048 0.684401 0.472819
0.868204 0.751955 0.515138
0.459974 0.817702 0.619660
0.469241 0.819420 0.621896
0.505973 0.827013 0.629919
0.572552 0.844768 0.629510
0.698787 0.885577 0.434208
0.896196 0.931846 0.629933
0.554872 0.939668 0.722679
0.562502 0.940917 0.723875
0.595669 0.946573 0.729726
0.659756 0.959824 0.729071
0.758876 0.987605 0.497625
0.937504 0.992568 0.569363
0.267127 0.544366 0.399585
0.275419 0.546108 0.401558
0.319721 0.556483 0.416212
0.420132 0.587700 0.336742
0.633934 0.615532 0.443820
0.898423 0.643490 0.443073
0.024432 0.176092 0.146212
0.038570 0.183084 0.152562
0.173039 0.203281 0.183347
0.380265 0.231894 0.227655
0.642221 0.272890 0.289111
0.920010 0.308201 0.339035
0.123836 0.351074 0.264762
0.135132 0.354226 0.262335
0.199367 0.373666 0.271846
0.367833 0.417151 0.305248
0.638222 0.465999 0.338634
0.915944 0.507598 0.371039
0.277774 0.565855 0.427148
0.284564 0.567438 0.423595
0.330509 0.577406 0.435721
0.408488 0.610216 0.376602
0.634196 0.679516 0.478613
0.870809 0.743002 0.513426
0.461262 0.818162 0.629753
0.465559 0.818988 0.625968
0.502551 0.826348 0.633501
0.571229 0.844217 0.635665
0.698452 0.885320 0.443766
0.895312 0.929555 0.634092
0.556000 0.940003 0.731385
0.559510 0.940516 0.728338
0.592221 0.945944 0.733803
0.657882 0.959202 0.736160
0.756955 0.987352 0.517925
0.937533 0.992545 0.580630
0.278143 0.546611 0.454626
0.285417 0.548433 0.455062
0.322679 0.557641 0.463125
0.416030 0.587866 0.453176
0.646365 0.612565 0.506270
0.918358 0.632050 0.513950
0.044924 0.211255 0.273590
0.054055 0.204789 0.274783
0.147650 0.231299 0.307005
0.331004 0.279768 0.376476
0.619905 0.301420 0.455822
0.909175 0.320615 0.498976
0.145483 0.357458 0.338831
0.155510 0.360025 0.341311
0.211696 0.374599 0.355481
0.374011 0.396484 0.402335
0.646057 0.411771 0.427806
0.922988 0.431502 0.446579
0.290534 0.567925 0.482091
0.295828 0.569578 0.480603
0.330082 0.578960 0.481420
0.417547 0.606604 0.483709
0.633534 0.663101 0.517682
0.887982 0.707446 0.522470
0.466770 0.819942 0.667172
0.470063 0.820575 0.664002
0.493227 0.825270 0.657235
0.568631 0.842556 0.667329
0.697637 0.884751 0.498343
0.893208 0.921504 0.658615
0.560399 0.941359 0.763701
0.563404 0.941778 0.761027
0.582653 0.944892 0.754176
0.651778 0.957531 0.762283
0.751548 0.986577 0.594333
0.938002 0.992670 0.623568
0.302696 0.552580 0.539563
0.311332 0.554726 0.541034
0.348677 0.564698 0.548317
0.426367 0.587419 0.569555
0.660088 0.607396 0.624366
0.932146 0.621435 0.644430
0.082304 0.255571 0.420328
0.088281 0.242983 0.419940
0.176346 0.266883 0.440120
0.319813 0.312806 0.485538
0.566720 0.373728 0.581404
0.872022 0.380084 0.659275
0.183088 0.398568 0.462339
0.185881 0.392943 0.461185
0.224770 0.387612 0.466758
0.350498 0.418415 0.513362
0.593541 0.453869 0.594504
0.895532 0.455036 0.643619
0.313739 0.575039 0.553514
0.319252 0.576356 0.554827
0.351700 0.584430 0.563079
0.433384 0.605155 0.584336
0.662436 0.624676 0.602281
0.926941 0.637322 0.602089
0.479752 0.822802 0.724528
0.483006 0.823599 0.723721
0.503327 0.828546 0.722759
0.563759 0.841851 0.724870
0.696526 0.884014 0.612447
0.891477 0.908068 0.718432
0.569335 0.943766 0.816066
0.572535 0.944342 0.814855
0.590925 0.947574 0.811891
0.642951 0.956277 0.809748
0.748507 0.984049 0.733569
0.939455 0.993249 0.705528
0.320963 0.568302 0.637743
0.331121 0.571108 0.639684
0.374057 0.583461 0.648787
0.456796 0.606726 0.671646
0.616810 0.637184 0.729387
0.895790 0.646148 0.790975
0.134301 0.308085 0.560146
0.135978 0.291321 0.558953
0.220856 0.313001 0.575515
0.365702 0.357316 0.621551
0.551519 0.415983 0.673458
0.828117 0.451044 0.771037
0.232149 0.452793 0.594791
0.229466 0.440875 0.591860
0.250796 0.413974 0.590752
0.379286 0.443813 0.633200
0.569209 0.490959 0.690830
0.846125 0.512383 0.777602
0.368606 0.637391 0.673454
0.369382 0.633314 0.671722
0.384809 0.623257 0.669368
0.443511 0.616050 0.676097
0.618442 0.647684 0.738558
0.898914 0.651384 0.786712
0.501591 0.830922 0.790310
0.504841 0.831550 0.790950
0.524957 0.835771 0.795443
0.580159 0.848068 0.807872
0.697851 0.881063 0.790590
0.898278 0.898844 0.817209
0.586367 0.947015 0.880932
0.589739 0.947685 0.880982
0.608559 0.951339 0.882580
0.658630 0.960888 0.887831
0.766318 0.981009 0.890196
0.942099 0.994584 0.828662
0.348262 0.596712 0.750649
0.358695 0.599322 0.752652
0.402344 0.610077 0.761944
0.488909 0.629662 0.786703
0.645232 0.665027 0.845025
0.837082 0.691014 0.905778
0.184889 0.359750 0.684936
0.184158 0.341328 0.683456
0.264707 0.360172 0.698285
0.408954 0.403619 0.742965
0.590699 0.462336 0.791800
0.796535 0.505734 0.861859
0.278205 0.502796 0.716713
0.272549 0.487281 0.713114
0.281978 0.446377 0.708823
0.410725 0.474419 0.747319
0.597221 0.524657 0.805502
0.805354 0.565313 0.878968
0.416168 0.693083 0.794857
0.413935 0.685575 0.791398
0.417421 0.662374 0.782852
0.459378 0.633312 0.782714
0.627096 0.665811 0.857079
0.826010 0.702566 0.931368
0.557638 0.879487 0.922922
0.558528 0.877249 0.921957
0.569581 0.871532 0.920671
0.608612 0.865886 0.922843
0.713996 0.880897 0.943235
0.890813 0.908505 0.979039
0.673943 1.006394 0.990072
0.676464 1.006890 0.990381
0.691997 1.010215 0.991809
0.736431 1.020127 0.995518
0.837153 1.044205 0.999939
0.967017 1.077621 0.995103
