assets/luts/Landscape.cube
LUT_3D_SIZE 16
0.007689 0.000000 0.003887
0.053420 -0.010328 -0.009903
0.106631 -0.022138 -0.021996
0.167100 -0.035441 -0.035366
0.235079 -0.050299 -0.050255
0.309621 -0.066512 -0.066481
0.389341 -0.083776 -0.083758
0.472690 -0.101765 -0.101746
0.557915 -0.120107 -0.120093
0.641432 -0.138044 -0.138033
0.721553 -0.155221 -0.155204
0.796765 -0.171313 -0.171303
0.865963 -0.186071 -0.186065
0.927931 -0.199283 -0.199275
0.983236 -0.211077 -0.211069
1.030227 -0.221091 -0.221083
-0.022853 0.046972 -0.023403
0.051561 0.045436 0.016728
0.103044 0.048674 -0.009225
0.165031 0.046486 -0.033484
0.233779 0.036697 -0.049967
0.308716 -0.027979 -0.066594
0.388571 -0.059368 -0.083982
0.472097 -0.082963 -0.101999
0.557392 -0.104690 -0.120347
0.640963 -0.125035 -0.138269
0.721187 -0.144036 -0.155423
0.796439 -0.161590 -0.171482
0.865680 -0.177575 -0.186236
0.927714 -0.191811 -0.199421
0.983089 -0.204491 -0.211194
1.030023 -0.215259 -0.221206
-0.050221 0.102481 -0.050405
0.027398 0.102268 -0.053352
0.102613 0.099140 0.031522
0.160038 0.106426 0.028104
0.226816 0.112687 -0.021884
0.303062 0.114557 -0.056172
0.384365 0.112076 -0.079317
0.468797 0.104518 -0.099842
0.554766 0.089392 -0.119412
0.638866 0.057768 -0.137969
0.719385 -0.065337 -0.155466
0.794898 -0.104557 -0.171725
0.864401 -0.131869 -0.186566
0.926521 -0.153750 -0.199806
0.982007 -0.172071 -0.211583
1.029128 -0.187251 -0.221584
-0.080637 0.165367 -0.080735
-0.068047 0.165691 -0.085590
0.099320 0.162947 -0.073781
0.160604 0.160020 0.048257
0.224729 0.171113 0.047657
0.296864 0.181188 0.037599
0.375442 0.189090 -0.036608
0.460558 0.192377 -0.078483
0.547893 0.191482 -0.107236
0.633176 0.186061 -0.130715
0.714690 0.176036 -0.151075
0.791034 0.160975 -0.169068
0.861074 0.139727 -0.185008
0.923752 0.108979 -0.198932
0.979642 0.050505 -0.211165
1.027041 -0.092510 -0.221457
-0.114547 0.235461 -0.114603
-0.107054 0.235807 -0.118825
0.052789 0.234956 -0.121296
0.166010 0.230079 -0.083010
0.225834 0.227883 0.067024
0.295869 0.241879 0.068341
0.372439 0.254316 0.061460
0.453477 0.264626 0.045928
0.537897 0.271789 -0.052546
0.623398 0.273245 -0.099294
0.706005 0.269928 -0.131166
0.783566 0.262504 -0.155970
0.854818 0.251363 -0.176221
0.918399 0.236747 -0.192974
0.975128 0.219030 -0.207107
1.023114 0.198204 -0.218702
-0.151512 0.311772 -0.151556
-0.146113 0.312097 -0.155062
-0.105853 0.312180 -0.162060
0.146149 0.309128 -0.151345
0.236863 0.303283 -0.080400
0.297323 0.301773 0.087546
0.372036 0.317574 0.090177
0.451654 0.331279 0.085159
0.534169 0.342245 0.073715
0.615689 0.349243 0.052324
0.695628 0.351582 -0.067936
0.773066 0.348445 -0.116688
0.845161 0.340967 -0.149751
0.909880 0.329677 -0.174596
0.967734 0.315671 -0.194082
1.016669 0.299283 -0.209305
-0.190866 0.392890 -0.190889
-0.186630 0.393196 -0.193844
-0.161168 0.393696 -0.202361
0.083310 0.392103 -0.202039
0.226907 0.387261 -0.174458
0.311886 0.381260 -0.057969
0.373772 0.380343 0.109453
0.451800 0.396899 0.112922
0.532836 0.410557 0.109060
0.613331 0.419749 0.099128
0.691375 0.424598 0.083007
0.765007 0.425431 0.055862
0.834737 0.421565 -0.081461
0.899312 0.412729 -0.129977
0.957836 0.400373 -0.162821
1.007567 0.385294 -0.186673
-0.231884 0.477399 -0.231904
-0.228379 0.477612 -0.234408
-0.209592 0.478246 -0.242854
-0.138340 0.477682 -0.248009
0.193973 0.474372 -0.237134
0.308354 0.468270 -0.190220
0.390147 0.462586 0.067815
0.453737 0.462138 0.132325
0.533427 0.478129 0.136151
0.612490 0.489235 0.132592
0.689513 0.495505 0.123286
0.762443 0.497248 0.109034
0.830135 0.494794 0.088921
0.891197 0.488503 0.055011
0.947791 0.478250 -0.092399
0.997093 0.464224 -0.138764
-0.273679 0.563391 -0.273700
-0.270718 0.563581 -0.275880
-0.255811 0.564238 -0.283772
-0.209459 0.564347 -0.292191
0.116560 0.562233 -0.289679
0.285167 0.557425 -0.266045
0.390600 0.550677 -0.198321
0.470356 0.545506 0.113814
0.535472 0.545416 0.155675
0.613374 0.558059 0.158978
0.689160 0.565508 0.155275
0.760954 0.567967 0.146114
0.827928 0.565741 0.132540
0.888474 0.559288 0.114783
0.942953 0.549599 0.091535
0.989569 0.537029 0.049694
-0.314556 0.647438 -0.314560
-0.312021 0.647610 -0.316469
-0.299701 0.648259 -0.323681
-0.265611 0.648725 -0.333464
-0.163440 0.647508 -0.336146
0.239197 0.644074 -0.325029
0.371657 0.638134 -0.287463
0.471491 0.631159 -0.197629
0.549339 0.626631 0.149221
0.615634 0.626813 0.178525
0.690190 0.635062 0.180947
0.760892 0.638031 0.176778
0.826850 0.635986 0.167413
0.886633 0.629168 0.153985
0.940652 0.618797 0.137234
0.986959 0.605282 0.117228
-0.353688 0.727837 -0.353683
-0.351467 0.727984 -0.355369
-0.341077 0.728572 -0.361872
-0.314308 0.729226 -0.371855
-0.247208 0.728739 -0.378213
0.148886 0.726372 -0.374325
0.334729 0.721617 -0.353234
0.454301 0.714988 -0.301325
0.549391 0.708097 -0.187805
0.625457 0.704241 0.179778
0.692521 0.704581 0.200451
0.762294 0.707774 0.201717
0.827083 0.705683 0.196806
0.885902 0.698408 0.186901
0.939153 0.687310 0.173434
0.984985 0.672711 0.157299
-0.390331 0.803115 -0.390314
-0.388393 0.803200 -0.391799
-0.379499 0.803752 -0.397622
-0.357601 0.804483 -0.407290
-0.308463 0.804477 -0.416111
-0.178412 0.802932 -0.416740
0.276840 0.799375 -0.405622
0.421230 0.793808 -0.373949
0.532340 0.786697 -0.307756
0.623175 0.780201 -0.166647
0.697500 0.776928 0.206700
0.764625 0.777463 0.221001
0.828636 0.775005 0.220897
0.886434 0.767153 0.214957
0.938730 0.755165 0.204586
0.983920 0.739521 0.191034
-0.423993 0.872190 -0.424003
-0.422308 0.872307 -0.425298
-0.414593 0.872774 -0.430552
-0.396332 0.873439 -0.439617
-0.358034 0.873833 -0.449487
-0.272896 0.872965 -0.453531
0.177329 0.870388 -0.448771
0.372742 0.865916 -0.429671
0.500458 0.859618 -0.387519
0.604921 0.852493 -0.307260
0.691826 0.846414 -0.128498
0.764108 0.843771 0.230066
0.830994 0.844372 0.239897
0.888045 0.835658 0.238197
0.939466 0.822690 0.231374
0.983743 0.805809 0.220445
-0.454098 0.933701 -0.454108
-0.452606 0.933784 -0.455261
-0.445867 0.934240 -0.459940
-0.430349 0.934891 -0.468332
-0.399415 0.935460 -0.478400
-0.336807 0.935115 -0.485161
-0.183345 0.933337 -0.484409
0.305289 0.929899 -0.473576
0.455689 0.924736 -0.446369
0.572751 0.918096 -0.393962
0.671157 0.911139 -0.299897
0.753890 0.905673 0.033634
0.824203 0.903437 0.250041
0.890434 0.904177 0.256799
0.941125 0.890129 0.253719
0.984676 0.871777 0.245896
-0.480962 0.986874 -0.480971
-0.479651 0.986942 -0.482014
-0.473726 0.987258 -0.486187
-0.460403 0.987857 -0.493894
-0.434761 0.988480 -0.503708
-0.386349 0.988510 -0.512208
-0.287096 0.987331 -0.514405
0.200571 0.984990 -0.509049
0.398238 0.980984 -0.491848
0.529579 0.975491 -0.456698
0.638293 0.969040 -0.394553
0.731100 0.962545 -0.286812
0.809978 0.957712 0.136970
0.878305 0.956075 0.267008
0.943457 0.956754 0.271900
0.986340 0.937486 0.267324
-0.503802 1.031315 -0.503811
-0.502655 1.031403 -0.504733
-0.497428 1.031745 -0.508479
-0.485817 1.032342 -0.515501
-0.464187 1.033010 -0.524849
-0.425219 1.033338 -0.534130
-0.351647 1.032621 -0.538725
-0.177258 1.030668 -0.537035
0.325487 1.027346 -0.526604
0.477028 1.022517 -0.502939
0.595727 1.016394 -0.459969
0.697095 1.009606 -0.388349
0.784453 1.003282 -0.265737
0.859473 0.999645 0.184568
0.925693 0.998665 0.280945
0.988667 0.999259 0.284730
0.006636 -0.004642 0.047742
0.050642 0.008628 0.045825
0.105244 -0.018867 0.049305
0.167170 -0.036038 0.045860
0.235389 -0.051320 0.033019
0.309917 -0.067414 -0.037034
0.389546 -0.084468 -0.063392
0.472820 -0.102243 -0.085638
0.557998 -0.120383 -0.106622
0.641429 -0.138152 -0.126467
0.721538 -0.155303 -0.145239
0.796759 -0.171383 -0.162631
0.865959 -0.186144 -0.178479
0.927927 -0.199340 -0.192598
0.983235 -0.211127 -0.205177
1.030227 -0.221155 -0.215868
0.023140 0.045056 0.046500
0.051627 0.045506 0.046851
0.113549 0.034185 0.035327
0.174518 -0.022704 -0.025032
0.240665 -0.046966 -0.047515
0.313700 -0.065094 -0.065354
0.392274 -0.082918 -0.083086
0.474950 -0.101129 -0.101254
0.559636 -0.119554 -0.119653
0.642802 -0.137509 -0.137603
0.722736 -0.154676 -0.154762
0.797756 -0.170757 -0.170853
0.866738 -0.185498 -0.185586
0.928564 -0.198706 -0.198780
0.983854 -0.210470 -0.210553
1.030201 -0.219279 -0.219496
-0.033079 0.100435 0.042717
-0.042142 0.104059 -0.043652
0.103017 0.099558 0.040544
0.163196 0.103590 0.034773
0.231158 0.106425 -0.025119
0.307212 0.105120 -0.058238
0.387734 0.099740 -0.080256
0.471550 0.088428 -0.100185
0.556980 0.065634 -0.119407
0.640638 -0.044949 -0.137754
0.720902 -0.091157 -0.155118
0.796143 -0.120172 -0.171294
0.865398 -0.143422 -0.186066
0.927395 -0.162857 -0.199242
0.982839 -0.179543 -0.211010
1.029320 -0.192129 -0.219949
-0.073619 0.164296 -0.055357
-0.078907 0.166541 -0.079309
0.091341 0.164363 -0.076182
0.160945 0.160365 0.051529
0.226151 0.169827 0.049798
0.298666 0.178501 0.039323
0.377615 0.185019 -0.040261
0.462766 0.187058 -0.080587
0.549830 0.185134 -0.108407
0.634853 0.178763 -0.131302
0.716114 0.167695 -0.151276
0.792256 0.151291 -0.169025
0.862130 0.127909 -0.184760
0.924640 0.092049 -0.198577
0.980368 -0.049437 -0.210740
1.027271 -0.104721 -0.219935
-0.110160 0.234754 -0.099089
-0.113854 0.236292 -0.114057
-0.038111 0.236044 -0.121616
0.163116 0.230889 -0.085730
0.226109 0.228182 0.068802
0.296666 0.241136 0.069566
0.373392 0.252730 0.062386
0.454518 0.262371 0.047039
0.539179 0.268819 -0.055105
0.624723 0.269675 -0.100869
0.707293 0.265874 -0.132110
0.784740 0.258094 -0.156434
0.855793 0.246626 -0.176373
0.919280 0.231706 -0.192900
0.975918 0.213599 -0.206896
1.023386 0.193447 -0.217348
-0.148315 0.311241 -0.140152
-0.151090 0.312389 -0.151222
-0.116939 0.312881 -0.161347
0.139179 0.309934 -0.152695
0.235473 0.303813 -0.082820
0.297564 0.302021 0.088824
0.372510 0.317096 0.091159
0.452257 0.330236 0.085977
0.534812 0.340720 0.074553
0.616312 0.347358 0.053798
0.696546 0.349330 -0.069362
0.773950 0.345951 -0.117646
0.845952 0.338198 -0.150307
0.910725 0.326749 -0.174836
0.968489 0.312653 -0.194098
1.016964 0.296692 -0.208175
-0.188348 0.392486 -0.181843
-0.190476 0.393351 -0.190570
-0.167466 0.394022 -0.200767
0.059205 0.392696 -0.202327
0.223512 0.387744 -0.175882
0.311095 0.381567 -0.060351
0.373962 0.380528 0.110535
0.452105 0.396487 0.113828
0.533198 0.409752 0.109879
0.613780 0.418701 0.100000
0.691894 0.423265 0.084141
0.765392 0.423967 0.057903
0.835307 0.419839 -0.081847
0.899915 0.410880 -0.130393
0.958377 0.398468 -0.163008
1.007858 0.383524 -0.185634
-0.229785 0.477042 -0.224415
-0.231498 0.477694 -0.231580
-0.213960 0.478449 -0.240981
-0.147951 0.478086 -0.247712
0.188149 0.474813 -0.237793
0.306344 0.468624 -0.191488
0.389639 0.462795 0.066910
0.453859 0.462255 0.133337
0.533587 0.477862 0.137073
0.612727 0.488660 0.133465
0.689763 0.494691 0.124215
0.762758 0.496277 0.110148
0.830416 0.493705 0.090550
0.891551 0.487335 0.057742
0.948174 0.476975 -0.092005
0.997312 0.462998 -0.137254
-0.271914 0.563140 -0.267336
-0.273243 0.563564 -0.273328
-0.259063 0.564314 -0.281814
-0.215041 0.564595 -0.291447
0.101898 0.562563 -0.289749
0.281934 0.557772 -0.266767
0.389325 0.550936 -0.199325
0.470004 0.545641 0.114064
0.535546 0.545490 0.156686
0.613517 0.557859 0.159936
0.689234 0.565067 0.156217
0.761182 0.567376 0.147111
0.828045 0.565063 0.133739
0.888710 0.558450 0.116254
0.943124 0.548756 0.093707
0.989569 0.536207 0.058132
-0.313053 0.647220 -0.309088
-0.314107 0.647588 -0.314200
-0.302261 0.648285 -0.321769
-0.269405 0.648822 -0.332339
-0.171868 0.647756 -0.335860
0.234380 0.644303 -0.325277
0.369554 0.638352 -0.288105
0.470590 0.631345 -0.198408
0.549096 0.626732 0.149919
0.615713 0.626886 0.179583
0.690238 0.634897 0.181944
0.761039 0.637721 0.177786
0.826941 0.635464 0.168451
0.886758 0.628602 0.155180
0.940806 0.618138 0.138666
0.987037 0.604655 0.120267
-0.352367 0.727598 -0.348936
-0.353198 0.727905 -0.353263
-0.343106 0.728512 -0.360027
-0.317066 0.729260 -0.370539
-0.251973 0.728891 -0.377668
0.138667 0.726599 -0.374249
0.331927 0.721825 -0.353516
0.452898 0.715189 -0.301823
0.548766 0.708138 -0.188243
0.625312 0.704303 0.180623
0.692616 0.704722 0.201536
0.762308 0.707637 0.202778
0.827151 0.705474 0.197881
0.885969 0.698077 0.188035
0.939182 0.686848 0.174688
0.985024 0.672274 0.159342
-0.389176 0.802865 -0.386157
-0.389795 0.803193 -0.389887
-0.381123 0.803712 -0.395944
-0.359729 0.804461 -0.405947
-0.311661 0.804633 -0.415336
-0.185709 0.803122 -0.416413
0.272960 0.799559 -0.405623
0.419377 0.793901 -0.374224
0.531358 0.786836 -0.308125
0.622733 0.780286 -0.166601
0.697299 0.776984 0.207630
0.764674 0.777505 0.222131
0.828646 0.774865 0.222013
0.886421 0.766902 0.216110
0.938735 0.754834 0.205771
0.983853 0.739126 0.192598
-0.422985 0.871977 -0.420307
-0.423410 0.872184 -0.423501
-0.415816 0.872685 -0.428870
-0.397886 0.873413 -0.438204
-0.360308 0.873853 -0.448490
-0.276759 0.873035 -0.453017
0.170020 0.870460 -0.448510
0.370411 0.866003 -0.429652
0.499256 0.859725 -0.387612
0.604210 0.852565 -0.307407
0.691447 0.846469 -0.127871
0.763973 0.843816 0.231123
0.831030 0.844409 0.241078
0.888075 0.835499 0.239365
0.939434 0.822459 0.232553
0.983745 0.805493 0.221784
-0.453204 0.933538 -0.450855
-0.453511 0.933753 -0.453584
-0.446860 0.934163 -0.458376
-0.431572 0.934862 -0.466945
-0.401064 0.935463 -0.477331
-0.339432 0.935194 -0.484512
-0.189613 0.933419 -0.483994
0.302265 0.929967 -0.473368
0.454108 0.924804 -0.446333
0.571809 0.918194 -0.394023
0.670671 0.911224 -0.299792
0.753631 0.905666 0.042433
0.824166 0.903461 0.251200
0.890456 0.904199 0.258002
0.941132 0.890033 0.254903
0.984673 0.871629 0.247079
-0.480171 0.986731 -0.478104
-0.480329 0.986883 -0.480426
-0.474517 0.987171 -0.484706
-0.461321 0.987791 -0.492529
-0.435993 0.988420 -0.502598
-0.388160 0.988541 -0.511420
-0.290127 0.987356 -0.513866
0.195443 0.985002 -0.508679
0.396455 0.981069 -0.491635
0.528400 0.975583 -0.456614
0.637551 0.969057 -0.394507
0.730665 0.962568 -0.286569
0.809791 0.957752 0.138528
0.878204 0.956087 0.268097
0.943462 0.956766 0.272993
0.986337 0.937423 0.268420
-0.503109 1.031203 -0.501270
-0.503191 1.031304 -0.503257
-0.498023 1.031655 -0.507095
-0.486569 1.032270 -0.514206
-0.465109 1.032968 -0.523712
-0.426539 1.033322 -0.533250
-0.353749 1.032646 -0.538131
-0.182901 1.030710 -0.536602
0.323091 1.027398 -0.526321
0.475698 1.022581 -0.502762
0.594965 1.016450 -0.459845
0.696561 1.009654 -0.388254
0.784127 1.003312 -0.265380
0.859362 0.999662 0.185811
0.925633 0.998666 0.281962
0.988668 0.999261 0.285733
-0.007208 -0.009950 0.098430
0.054341 0.011003 0.094362
0.100625 0.018792 0.094291
0.160072 0.014891 0.102312
0.231886 -0.042866 0.107701
0.308798 -0.065634 0.107937
0.389542 -0.085190 0.103727
0.473283 -0.103999 0.093817
0.558643 -0.122554 0.073859
0.642222 -0.140384 -0.030981
0.722244 -0.157327 -0.086589
0.797366 -0.173133 -0.116994
0.866469 -0.187602 -0.140863
0.928337 -0.200542 -0.160730
0.983538 -0.212057 -0.177654
1.030424 -0.221840 -0.191815
-0.018078 0.048761 0.099000
0.048730 0.042475 0.106955
0.106670 0.040058 0.100159
0.167577 0.029013 0.102430
0.238273 -0.042126 0.102552
0.313288 -0.065442 0.099182
0.392616 -0.084729 0.091796
0.475543 -0.103340 0.077218
0.560299 -0.121740 0.042096
0.643436 -0.139489 -0.070262
0.723178 -0.156386 -0.103483
0.798152 -0.172172 -0.128783
0.867104 -0.186669 -0.149999
0.928816 -0.199578 -0.168095
0.983945 -0.211120 -0.183766
1.030288 -0.219727 -0.195746
0.041041 0.098293 0.095764
0.049460 0.099517 0.096904
0.102750 0.099280 0.096512
0.175723 0.090013 0.086836
0.251406 0.067983 0.065082
0.326586 0.014038 -0.027155
0.404219 -0.067833 -0.070597
0.485235 -0.093795 -0.095191
0.568299 -0.115393 -0.116280
0.650178 -0.134881 -0.135508
0.728939 -0.152863 -0.153345
0.803195 -0.169435 -0.169822
0.871532 -0.184462 -0.184806
0.932914 -0.197836 -0.198143
0.987788 -0.209746 -0.210026
1.030071 -0.209308 -0.210824
0.053526 0.158910 0.106289
0.047076 0.160664 0.100775
0.033583 0.168685 -0.026346
0.161924 0.161381 0.082487
0.232816 0.164305 0.074792
0.308081 0.166214 0.060340
0.389745 0.164879 -0.045342
0.474487 0.160323 -0.085386
0.560252 0.152431 -0.111511
0.643894 0.139698 -0.133178
0.723976 0.120389 -0.152315
0.799123 0.089493 -0.169525
0.868151 -0.038094 -0.184925
0.930040 -0.101495 -0.198507
0.985327 -0.133268 -0.210500
1.028173 -0.139544 -0.211430
-0.075962 0.230822 0.092629
-0.083956 0.232455 0.075815
-0.102345 0.239425 -0.104380
0.147539 0.234790 -0.090500
0.227375 0.229484 0.083162
0.300667 0.238114 0.080142
0.378756 0.245939 0.070591
0.460441 0.252420 0.054183
0.546480 0.255161 -0.066280
0.632168 0.253042 -0.108189
0.714203 0.246844 -0.136988
0.791104 0.236951 -0.159743
0.861515 0.223494 -0.178558
0.924477 0.206391 -0.194336
0.980670 0.185577 -0.207810
1.024471 0.173312 -0.209661
-0.128314 0.308502 -0.050220
-0.132910 0.309738 -0.081471
-0.146990 0.315147 -0.147840
0.097864 0.313740 -0.155598
0.228660 0.306324 -0.091102
0.298723 0.303227 0.096178
0.375027 0.315151 0.096487
0.455603 0.325789 0.089638
0.538605 0.334247 0.077164
0.620414 0.339236 0.054687
0.701424 0.339207 -0.079815
0.779161 0.334271 -0.124520
0.851027 0.325368 -0.155121
0.915388 0.313040 -0.178187
0.972929 0.298117 -0.196502
1.018196 0.286296 -0.201237
-0.174321 0.390394 -0.130950
-0.177386 0.391290 -0.143979
-0.188500 0.395485 -0.189005
-0.111955 0.395466 -0.202282
0.206701 0.390510 -0.181841
0.307372 0.383182 -0.071139
0.374824 0.381386 0.114983
0.453781 0.395122 0.117015
0.535458 0.406614 0.111943
0.616419 0.414138 0.101220
0.694601 0.417610 0.084860
0.768504 0.417357 0.054957
0.838964 0.412112 -0.090631
0.903674 0.402357 -0.136184
0.962259 0.389368 -0.167200
1.009081 0.376710 -0.178807
-0.219024 0.475386 -0.186373
-0.221290 0.476084 -0.195499
-0.230366 0.479350 -0.230705
-0.182718 0.480096 -0.245876
0.157549 0.477132 -0.240886
0.296772 0.470594 -0.197944
0.387254 0.463890 0.057963
0.454516 0.462938 0.136340
0.534775 0.476840 0.139235
0.614349 0.486357 0.134855
0.691623 0.491363 0.124985
0.764847 0.492116 0.110504
0.832617 0.488948 0.090617
0.893861 0.482035 0.052712
0.951077 0.471038 -0.098905
0.998249 0.458271 -0.127254
-0.263209 0.561708 -0.236664
-0.264897 0.562257 -0.243739
-0.272538 0.564931 -0.272793
-0.237460 0.565922 -0.287814
-0.094661 0.564425 -0.290856
0.266257 0.559603 -0.270952
0.383208 0.552298 -0.205562
0.468392 0.546415 0.111461
0.536079 0.546007 0.158862
0.614397 0.557079 0.161556
0.690356 0.563324 0.157285
0.762541 0.564836 0.147727
0.829705 0.561886 0.134018
0.890328 0.554873 0.116384
0.944944 0.544828 0.093703
0.989569 0.532990 0.088083
-0.305795 0.646015 -0.283470
-0.307084 0.646459 -0.289224
-0.313567 0.648584 -0.313775
-0.285802 0.649686 -0.327839
-0.205448 0.649131 -0.335661
0.209651 0.645862 -0.327662
0.359684 0.639741 -0.292529
0.466424 0.632327 -0.204270
0.547896 0.627301 0.148850
0.616064 0.627238 0.181266
0.690913 0.634279 0.183252
0.761891 0.636312 0.178659
0.828016 0.633535 0.169032
0.887981 0.626158 0.155485
0.942080 0.615406 0.138844
0.987163 0.602267 0.135215
-0.346224 0.726661 -0.327099
-0.347197 0.726979 -0.331866
-0.352775 0.728731 -0.352963
-0.329939 0.729867 -0.365814
-0.273294 0.729893 -0.376603
0.048661 0.727817 -0.375306
0.317897 0.723133 -0.356410
0.446153 0.716266 -0.306151
0.545768 0.709009 -0.193944
0.624405 0.704780 0.180391
0.692849 0.704977 0.202883
0.762822 0.707185 0.203846
0.827856 0.704359 0.198656
0.886818 0.696429 0.188549
0.940152 0.684952 0.175038
0.985121 0.670494 0.169826
-0.383894 0.802017 -0.367305
-0.384621 0.802290 -0.371327
-0.389480 0.803857 -0.389643
-0.370210 0.804833 -0.401262
-0.326998 0.805416 -0.413290
-0.217521 0.804125 -0.416612
0.252576 0.800604 -0.407377
0.410095 0.794937 -0.377307
0.526545 0.787682 -0.312225
0.620494 0.780812 -0.172362
0.696633 0.777269 0.207857
0.764936 0.777781 0.223288
0.829025 0.774471 0.222947
0.886981 0.766015 0.216790
0.939454 0.753622 0.206252
0.983935 0.737831 0.200870
-0.418381 0.871236 -0.403904
-0.418907 0.871468 -0.407278
-0.423114 0.872819 -0.423277
-0.406620 0.873712 -0.433779
-0.372062 0.874399 -0.445906
-0.295872 0.873776 -0.452605
0.122434 0.871394 -0.449399
0.358227 0.867011 -0.431753
0.492664 0.860519 -0.390661
0.600659 0.853225 -0.311181
0.689738 0.846821 -0.134603
0.763385 0.843957 0.231567
0.831184 0.844563 0.242038
0.888334 0.835220 0.240178
0.939894 0.821794 0.233210
0.983763 0.804613 0.228746
-0.449197 0.932908 -0.436496
-0.449551 0.933074 -0.439348
-0.453230 0.934243 -0.453375
-0.438974 0.935036 -0.462807
-0.410544 0.935785 -0.474521
-0.353280 0.935755 -0.483625
-0.219488 0.934134 -0.484277
0.285459 0.930768 -0.474669
0.445788 0.925600 -0.448543
0.566951 0.918864 -0.396918
0.667921 0.911715 -0.303369
0.752293 0.905996 -0.036324
0.823741 0.903663 0.251748
0.890591 0.904336 0.258890
0.941362 0.889770 0.255679
0.984661 0.871081 0.253208
-0.476647 0.986164 -0.465443
-0.476848 0.986273 -0.467867
-0.480090 0.987208 -0.480240
-0.467659 0.987880 -0.488682
-0.443738 0.988633 -0.499741
-0.398644 0.988877 -0.509983
-0.306963 0.987982 -0.513692
0.162183 0.985619 -0.509382
0.385951 0.981684 -0.493147
0.522463 0.976191 -0.458738
0.634009 0.969569 -0.397095
0.728509 0.962971 -0.289756
0.808785 0.957923 0.135193
0.877831 0.956190 0.268840
0.943599 0.956860 0.273941
0.986378 0.937134 0.273988
-0.500002 1.030686 -0.490056
-0.500098 1.030800 -0.492132
-0.499862 1.031256 -0.500381
-0.488884 1.031925 -0.508007
-0.468320 1.032730 -0.518293
-0.431263 1.033232 -0.528863
-0.361413 1.032733 -0.535008
-0.202295 1.030873 -0.534177
0.313783 1.027627 -0.524532
0.470559 1.022834 -0.501471
0.591680 1.016693 -0.458821
0.694515 1.009845 -0.387059
0.782866 1.003429 -0.262554
0.858752 0.999675 0.192500
0.925354 0.998668 0.287210
0.988595 0.999257 0.290951
-0.014707 -0.015927 0.155809
0.057993 -0.010276 0.153290
0.106906 0.024779 0.147714
0.157414 0.030405 0.149145
0.223797 0.029815 0.160948
0.299750 -0.032479 0.171380
0.383951 -0.071391 0.177505
0.470312 -0.097887 0.178942
0.557284 -0.120355 0.176309
0.641746 -0.140372 0.169112
0.722414 -0.158539 0.157004
0.797835 -0.175053 0.139064
0.867126 -0.189862 0.112680
0.929072 -0.202895 0.065853
0.984378 -0.214428 -0.084178
1.031204 -0.224097 -0.123038
-0.023502 0.050944 0.157231
0.041349 0.034745 0.169767
0.109445 0.039494 0.157066
0.162740 0.040124 0.154298
0.228495 0.036321 0.162175
0.304130 -0.032659 0.169961
0.387411 -0.072274 0.174086
0.472961 -0.098311 0.174065
0.559232 -0.120377 0.170257
0.643237 -0.140108 0.161982
0.723539 -0.158095 0.148637
0.798775 -0.174462 0.128881
0.867820 -0.189175 0.098607
0.929622 -0.202129 -0.014892
0.984822 -0.213611 -0.099842
1.031113 -0.222100 -0.130346
-0.015977 0.106192 0.152856
0.024194 0.104914 0.158571
0.099418 0.095775 0.166945
0.167832 0.092487 0.159287
0.240508 0.080322 0.161810
0.320702 0.044031 0.160690
0.401956 -0.064596 0.156063
0.484696 -0.095094 0.149025
0.568639 -0.118149 0.138823
0.650916 -0.138130 0.123281
0.729676 -0.156134 0.099102
0.804104 -0.172516 0.049061
0.872332 -0.187236 -0.086697
0.933666 -0.200299 -0.122366
0.988379 -0.211840 -0.147590
1.030633 -0.211241 -0.153997
0.061345 0.158679 0.151496
0.064323 0.159542 0.152313
0.093949 0.161857 0.154477
0.160843 0.160254 0.152708
0.244131 0.151230 0.142875
0.331543 0.130893 0.123041
0.416470 0.101616 0.093747
0.500116 0.052155 0.030482
0.583352 -0.081067 -0.088378
0.664337 -0.116196 -0.119971
0.741911 -0.141034 -0.143507
0.814918 -0.161229 -0.163033
0.882282 -0.178420 -0.179851
0.942688 -0.193138 -0.194318
0.996132 -0.205924 -0.206935
1.029727 -0.180672 -0.186355
0.088483 0.225160 0.167597
0.089389 0.225901 0.166157
0.091602 0.230036 0.156874
0.099040 0.240504 0.082522
0.228659 0.230799 0.132843
0.308584 0.231447 0.125013
0.391065 0.231091 0.110908
0.477377 0.227912 0.080075
0.565263 0.221357 -0.062854
0.650198 0.211639 -0.109473
0.730779 0.198722 -0.138011
0.806087 0.182140 -0.160109
0.874983 0.161021 -0.178333
0.936650 0.133370 -0.193673
0.991096 0.092926 -0.206831
1.026478 0.126991 -0.186610
0.038817 0.302028 0.172085
-0.029655 0.303140 0.167041
-0.083245 0.308366 0.137117
-0.114264 0.319118 -0.120690
0.209099 0.311917 -0.087504
0.300731 0.305295 0.125086
0.380672 0.311202 0.121381
