assets/luts/Landscape.cube
LUT_3D_SIZE 6
0.007689 0.000000 0.003887
0.167100 -0.035441 -0.035366
0.389341 -0.083776 -0.083758
0.641432 -0.138044 -0.138033
0.865963 -0.186071 -0.186065
1.030227 -0.221091 -0.221083
-0.080637 0.165367 -0.080735
0.160604 0.160020 0.048257
0.375442 0.189090 -0.036608
0.633176 0.186061 -0.130715
0.861074 0.139727 -0.185008
1.027041 -0.092510 -0.221457
-0.190866 0.392890 -0.190889
0.083310 0.392103 -0.202039
0.373772 0.380343 0.109453
0.613331 0.419749 0.099128
0.834737 0.421565 -0.081461
1.007567 0.385294 -0.186673
-0.314556 0.647438 -0.314560
-0.265611 0.648725 -0.333464
0.371657 0.638134 -0.287463
0.615634 0.626813 0.178525
0.826850 0.635986 0.167413
0.986959 0.605282 0.117228
-0.423993 0.872190 -0.424003
-0.396332 0.873439 -0.439617
0.177329 0.870388 -0.448771
0.604921 0.852493 -0.307260
0.830994 0.844372 0.239897
0.983743 0.805809 0.220445
-0.503802 1.031315 -0.503811
-0.485817 1.032342 -0.515501
-0.351647 1.032621 -0.538725
0.477028 1.022517 -0.502939
0.784453 1.003282 -0.265737
0.988667 0.999259 0.284730
-0.014707 -0.015927 0.155809
0.157414 0.030405 0.149145
0.383951 -0.071391 0.177505
0.641746 -0.140372 0.169112
0.867126 -0.189862 0.112680
1.031204 -0.224097 -0.123038
0.061345 0.158679 0.151496
0.160843 0.160254 0.152708
0.416470 0.101616 0.093747
0.664337 -0.116196 -0.119971
0.882282 -0.178420 -0.179851
1.029727 -0.180672 -0.186355
-0.126661 0.385250 0.152306
-0.175202 0.399444 -0.177790
0.376571 0.383193 0.132264
0.622932 0.404964 0.111271
0.848072 0.395919 -0.102173
1.011555 0.364049 -0.156659
-0.287267 0.643318 -0.215748
-0.311060 0.651063 -0.311752
0.337450 0.642982 -0.300058
0.616954 0.628170 0.186677
0.830726 0.629855 0.172033
0.987468 0.598170 0.166003
-0.407789 0.869593 -0.366660
-0.422016 0.874167 -0.422401
-0.146228 0.873394 -0.450372
0.593194 0.854706 -0.318352
0.831578 0.844997 0.244857
0.983763 0.803100 0.245322
-0.493150 1.029594 -0.465834
-0.491428 1.031116 -0.493023
-0.373857 1.032815 -0.526863
0.461156 1.023321 -0.497192
0.780662 1.003666 -0.253375
0.988615 0.999274 0.303446
-0.037302 -0.037651 0.365595
0.187247 0.042922 0.349984
0.366100 0.073314 0.349778
0.613494 0.059874 0.391663
0.853947 -0.158571 0.392142
1.027385 -0.218133 0.353594
-0.071801 0.189409 0.367784
0.141017 0.139512 0.401872
0.388385 0.133346 0.371144
0.637152 0.089578 0.386034
0.873420 -0.161205 0.369544
1.029014 -0.182697 0.332429
0.135922 0.377219 0.355337
0.157367 0.382407 0.360318
0.374301 0.380882 0.358265
0.679853 0.336777 0.312265
0.926273 0.257100 0.232940
1.025914 0.312273 0.284231
0.189434 0.622481 0.407328
0.156712 0.628383 0.383906
-0.144494 0.662474 -0.182560
0.622507 0.633774 0.293335
0.856044 0.610095 0.268956
0.989636 0.585040 0.336093
-0.281482 0.855188 0.335706
-0.312043 0.860171 0.271323
-0.379899 0.884937 -0.386922
0.533419 0.867923 -0.336031
0.835103 0.848553 0.298116
0.984213 0.798580 0.373579
-0.426502 1.020424 -0.165321
-0.429820 1.022472 -0.251533
-0.384745 1.029619 -0.402804
0.415443 1.025876 -0.426818
0.770653 1.005335 0.137758
0.988700 0.999330 0.406606
-0.061866 -0.062040 0.602532
0.207170 -0.040021 0.592639
0.401841 0.099590 0.570619
0.602831 0.122150 0.576279
0.823369 0.113627 0.591401
0.996135 -0.107373 0.566714
-0.094015 0.203645 0.608129
0.106346 0.103073 0.650615
0.403692 0.136142 0.599874
0.618782 0.145911 0.591496
0.836922 0.130242 0.592649
0.999016 0.089651 0.560082
-0.066305 0.418818 0.590889
-0.048823 0.408444 0.608753
0.349764 0.355656 0.651614
0.647478 0.341286 0.619156
0.884946 0.301069 0.593323
1.012726 0.326498 0.544523
0.220485 0.621591 0.585609
0.227916 0.624319 0.588170
0.330679 0.635262 0.598677
0.616536 0.627717 0.590365
0.890192 0.599339 0.558332
1.013090 0.603838 0.561355
0.312116 0.834340 0.616226
0.313974 0.836235 0.610010
0.321575 0.850463 0.574495
0.419492 0.885311 0.370935
0.838392 0.851856 0.517848
0.985762 0.810818 0.588558
0.115646 0.999898 0.569315
0.098931 1.000932 0.555788
0.185808 1.009727 0.497402
0.437146 1.024700 0.377670
0.766313 1.008931 0.469213
0.989008 0.999558 0.595893
-0.083507 -0.083624 0.812878
0.206061 -0.073496 0.806500
0.411268 0.097090 0.777976
0.608339 0.144680 0.770735
0.813689 0.165389 0.777434
0.976744 0.151248 0.748462
-0.107019 0.200065 0.817527
0.059085 0.053330 0.854704
0.402518 0.117186 0.812295
0.613925 0.161295 0.788666
0.824481 0.178059 0.787776
0.977130 0.197341 0.746251
-0.159733 0.422246 0.817771
-0.144861 0.403387 0.837777
0.329276 0.334649 0.877664
0.619953 0.333341 0.832177
0.863631 0.313525 0.825225
0.979782 0.369481 0.743716
0.130216 0.633538 0.789752
0.135200 0.629511 0.796470
0.260943 0.619299 0.835919
0.593621 0.604488 0.854800
0.862983 0.593474 0.825221
0.988216 0.612190 0.757779
0.295792 0.837390 0.789954
0.300170 0.838837 0.791399
0.350706 0.847292 0.799513
0.564912 0.854555 0.806792
0.832234 0.845579 0.796466
0.991375 0.843536 0.791481
0.371011 0.988905 0.773198
0.385044 0.988945 0.771126
0.469583 0.989676 0.767960
0.618206 0.996301 0.766142
0.782298 1.013095 0.727590
0.989569 0.999968 0.798091
-0.099275 -0.099357 0.966670
0.190260 -0.093264 0.962313
0.395111 0.048783 0.941484
0.580610 0.152034 0.914670
0.772022 0.179203 0.917467
0.968024 0.196848 0.924458
-0.116153 0.182723 0.970168
0.120280 0.117744 0.966406
0.379986 0.143594 0.945894
0.574719 0.197159 0.915309
0.769715 0.217884 0.917679
0.968245 0.231965 0.924750
-0.170875 0.397537 0.977034
-0.084933 0.380776 0.976440
0.339658 0.345352 0.964722
0.566789 0.363122 0.924077
0.767033 0.376208 0.919511
0.970029 0.383356 0.926544
-0.171802 0.604686 0.958938
-0.116993 0.597610 0.960832
0.313856 0.582154 0.968154
0.587709 0.598493 0.959492
0.781098 0.608552 0.925484
0.975085 0.612299 0.931896
0.201411 0.802056 0.936488
0.230752 0.799439 0.936764
0.370286 0.794877 0.938343
0.592032 0.803255 0.943114
0.822891 0.836217 0.950705
0.983841 0.839689 0.940640
0.350906 0.991881 0.939378
0.366270 0.991990 0.939474
0.457335 0.992577 0.940184
0.638943 0.994265 0.942292
0.840914 0.997026 0.946190
0.989569 0.999968 0.947086
