assets/luts/Leonardo.cube
LUT_3D_SIZE 6
0.048795 0.000000 0.086933
0.167661 0.000000 0.113794
0.335493 0.028449 0.142885
0.559771 0.066607 0.173537
0.791903 0.110177 0.206036
0.982311 0.158358 0.241760
0.088006 0.128974 0.131476
0.171822 0.130659 0.136580
0.337809 0.145379 0.155698
0.561198 0.165281 0.181732
0.792836 0.192033 0.211910
0.982857 0.227089 0.246347
0.132108 0.326942 0.179914
0.194645 0.327633 0.182049
0.347635 0.330395 0.190642
0.567693 0.347746 0.209247
0.796628 0.368301 0.233744
0.984779 0.396059 0.264307
0.182100 0.534690 0.231437
0.231321 0.535031 0.232749
0.379603 0.536705 0.238155
0.580504 0.540006 0.248415
0.804338 0.562095 0.268433
0.988541 0.591380 0.295091
0.241050 0.753007 0.286987
0.282913 0.753289 0.287914
0.423450 0.754376 0.291819
0.619940 0.756751 0.299480
0.815941 0.760244 0.311065
0.994243 0.794020 0.335254
0.314861 0.987997 0.349383
0.352252 0.988176 0.350118
0.484062 0.988995 0.353225
0.672616 0.990660 0.359311
0.857477 0.993266 0.368866
0.999966 0.997514 0.381760
0.063798 0.000000 0.216117
0.168092 0.001632 0.217389
0.335758 0.030185 0.228351
0.559892 0.067752 0.243433
0.792065 0.110993 0.263860
0.982339 0.159004 0.290905
0.089631 0.129574 0.220342
0.172214 0.131229 0.221582
0.337806 0.138883 0.227247
0.561071 0.154560 0.238946
0.792729 0.178558 0.256929
0.982759 0.211204 0.281687
0.132797 0.327202 0.243001
0.190413 0.327759 0.239625
0.347818 0.330579 0.244479
0.567648 0.344764 0.255609
0.796593 0.363154 0.272502
0.984727 0.388813 0.296103
0.182534 0.534818 0.277593
0.224791 0.535115 0.272224
0.376800 0.536740 0.276295
0.580643 0.540078 0.284243
0.804287 0.560281 0.299938
0.988454 0.587981 0.322143
0.241393 0.753072 0.322644
0.274838 0.753319 0.316389
0.418639 0.754423 0.319740
0.617989 0.756705 0.326400
0.815974 0.760315 0.336625
0.994164 0.792639 0.357902
0.315161 0.988128 0.378631
0.342718 0.988155 0.371459
0.477548 0.988995 0.374305
0.669222 0.990638 0.380037
0.856334 0.993333 0.388818
0.999966 0.997587 0.400822
0.080127 0.006383 0.363981
0.175377 0.013777 0.364510
0.336715 0.037119 0.366821
0.560542 0.072497 0.380743
0.792559 0.114496 0.397454
0.982685 0.161651 0.420335
0.097730 0.139569 0.365828
0.174166 0.133852 0.366127
0.338855 0.141382 0.368461
0.561777 0.156963 0.379826
0.793159 0.180758 0.394810
0.982939 0.213173 0.415805
0.135694 0.328174 0.373494
0.192135 0.328749 0.373996
0.348766 0.331542 0.376253
0.567876 0.337759 0.381300
0.796519 0.348325 0.389851
0.984528 0.364495 0.403066
0.184446 0.535343 0.398331
0.226295 0.535706 0.396486
0.370089 0.537242 0.392823
0.581214 0.540625 0.397527
0.804410 0.555262 0.406447
0.988410 0.576868 0.420133
0.242899 0.753446 0.431685
0.276189 0.753671 0.428361
0.405037 0.754627 0.419491
0.612851 0.756993 0.423983
0.816348 0.760689 0.431124
0.994227 0.788401 0.445575
0.316495 0.988379 0.477119
0.343933 0.988533 0.472555
0.456163 0.989004 0.457921
0.658300 0.990794 0.462240
0.852971 0.993571 0.469079
0.999966 0.997794 0.478536
0.097470 0.027480 0.532139
0.183553 0.032897 0.532523
0.350425 0.052170 0.533964
0.561858 0.081517 0.536949
0.793216 0.121278 0.555865
0.983071 0.166919 0.581123
0.109984 0.150479 0.533337
0.178404 0.139572 0.533459
0.349287 0.147256 0.534893
0.563168 0.161724 0.537893
0.793890 0.185133 0.555152
0.983337 0.217160 0.579055
0.144219 0.341629 0.538238
0.196931 0.339016 0.538380
0.351028 0.333724 0.539452
0.569292 0.339869 0.542546
0.797274 0.350500 0.554987
0.984947 0.366686 0.573555
0.188240 0.536517 0.548071
0.229361 0.536810 0.548301
0.372206 0.538309 0.549650
0.582558 0.541823 0.552640
0.804665 0.547715 0.557751
0.988283 0.557122 0.565896
0.245934 0.754303 0.578136
0.278936 0.754485 0.576872
0.407050 0.755474 0.573751
0.605006 0.757660 0.569698
0.817044 0.761472 0.574647
0.994234 0.781084 0.583786
0.319141 0.988892 0.619549
0.346441 0.988939 0.617045
0.458125 0.989550 0.609237
0.638809 0.991196 0.595847
0.847051 0.993997 0.600914
0.999966 0.998547 0.607949
0.116084 0.052532 0.719735
0.194079 0.056664 0.720060
0.365244 0.072486 0.721198
0.582623 0.098740 0.723214
0.794546 0.131458 0.726688
0.983624 0.175025 0.756736
0.125550 0.164206 0.720614
0.185521 0.149040 0.720620
0.361622 0.156711 0.721784
0.581692 0.171142 0.723814
0.795152 0.191888 0.727321
0.983908 0.223317 0.756156
0.155854 0.355979 0.724133
0.204332 0.351027 0.724218
0.354776 0.337422 0.724781
0.581398 0.343812 0.726961
0.798517 0.353790 0.730403
0.985509 0.370149 0.755087
0.198749 0.554911 0.731338
0.237559 0.553345 0.731528
0.377001 0.549192 0.732120
0.584899 0.543831 0.733809
0.805849 0.549743 0.737400
0.988895 0.559195 0.754733
0.250681 0.755552 0.742553
0.283262 0.755691 0.742738
0.410313 0.756671 0.743663
0.607225 0.758926 0.745699
0.818278 0.762764 0.749210
0.994336 0.768872 0.754793
0.323369 0.989825 0.784516
0.350358 0.989892 0.783485
0.461274 0.990572 0.780558
0.640978 0.992110 0.775628
0.836991 0.994703 0.767877
0.999966 0.999771 0.773203
0.136849 0.081660 0.930619
0.208824 0.085005 0.930866
0.385244 0.098341 0.931650
0.609501 0.121532 0.933470
0.822522 0.151575 0.936360
0.984617 0.185855 0.940693
0.144525 0.182895 0.931203
0.196271 0.163098 0.931182
0.378933 0.170682 0.932144
0.606686 0.185038 0.933907
0.821899 0.205761 0.936802
0.984887 0.231755 0.941140
0.171637 0.374983 0.934255
0.215397 0.367579 0.934181
0.360900 0.343197 0.934388
0.599129 0.349998 0.936313
0.820791 0.360532 0.939299
0.986467 0.374927 0.943787
0.213499 0.578916 0.940481
0.249637 0.575550 0.940526
0.384506 0.565149 0.940828
0.588620 0.547070 0.941804
0.820296 0.553401 0.945012
0.989730 0.562200 0.950060
0.266436 0.785546 0.951567
0.297234 0.784385 0.951682
0.419812 0.780578 0.952222
0.612384 0.774576 0.953686
0.820161 0.764814 0.956499
0.995220 0.770976 0.962918
0.329265 0.991234 0.971898
0.355876 0.991332 0.972144
0.465726 0.991954 0.973411
0.644114 0.993437 0.976761
0.838863 0.996256 0.983562
0.999966 0.999965 0.999966
