assets/luts/Leonardo.cube
LUT_3D_SIZE 16
0.048795 0.000000 0.086933
0.087447 0.000000 0.096066
0.125542 0.000000 0.104761
0.167661 0.000000 0.113794
0.215759 0.006990 0.123215
0.271484 0.017136 0.132946
0.335493 0.028449 0.142885
0.406266 0.040572 0.152987
0.481629 0.053309 0.163197
0.559771 0.066607 0.173537
0.638610 0.080464 0.184073
0.716664 0.094944 0.194833
0.791903 0.110177 0.206036
0.862000 0.126039 0.217743
0.926240 0.142535 0.229968
0.982311 0.158358 0.241760
0.062058 0.015915 0.102070
0.088683 0.016348 0.103803
0.126035 0.017001 0.108834
0.167972 0.020688 0.116333
0.216003 0.026629 0.124972
0.271683 0.034361 0.134275
0.335654 0.043522 0.143938
0.406449 0.053831 0.153857
0.481751 0.065063 0.163923
0.559883 0.077128 0.174173
0.638683 0.089935 0.184601
0.716810 0.103552 0.195323
0.791999 0.117940 0.206465
0.862025 0.133077 0.218144
0.926263 0.149033 0.230342
0.982381 0.164307 0.242097
0.074740 0.068254 0.116499
0.092418 0.068439 0.117183
0.128091 0.069295 0.119884
0.169257 0.071510 0.124738
0.216953 0.075770 0.131499
0.272507 0.081376 0.139454
0.336390 0.088029 0.148170
0.407047 0.095639 0.157380
0.482312 0.104147 0.166927
0.560324 0.113477 0.176752
0.639116 0.123640 0.186878
0.717186 0.134617 0.197365
0.792385 0.146699 0.208292
0.862213 0.159832 0.219802
0.926423 0.173975 0.231876
0.982591 0.187599 0.243505
0.088006 0.128974 0.131476
0.100512 0.129117 0.131862
0.132440 0.129620 0.133493
0.171822 0.130659 0.136580
0.218904 0.134686 0.141729
0.274142 0.139738 0.148221
0.337809 0.145379 0.155698
0.408306 0.151493 0.163888
0.483376 0.158083 0.172611
0.561198 0.165281 0.181732
0.639934 0.173223 0.191331
0.717772 0.182036 0.201352
0.792836 0.192033 0.211910
0.862740 0.203162 0.223102
0.926819 0.215491 0.234958
0.982857 0.227089 0.246347
0.102023 0.193135 0.147125
0.111412 0.193209 0.147380
0.139633 0.193555 0.148511
0.177605 0.194264 0.150719
0.222004 0.195370 0.154029
0.276758 0.200545 0.159419
0.340099 0.205990 0.165780
0.410325 0.211616 0.172934
0.485143 0.217457 0.180711
0.562777 0.223648 0.189059
0.641245 0.230406 0.197927
0.718788 0.237933 0.207365
0.793796 0.246604 0.217429
0.863390 0.256509 0.228205
0.927337 0.267567 0.239675
0.983307 0.277640 0.250752
0.116740 0.259375 0.163310
0.124167 0.259432 0.163517
0.149023 0.259676 0.164354
0.185330 0.260196 0.166021
0.229332 0.261028 0.168620
0.280461 0.262214 0.172102
0.343363 0.267936 0.177645
0.413161 0.273560 0.183902
0.487601 0.279138 0.190817
0.564895 0.284956 0.198358
0.643029 0.291174 0.206489
0.720413 0.298096 0.215261
0.795010 0.306100 0.224756
0.864371 0.315437 0.235029
0.928248 0.325775 0.246077
0.983922 0.334837 0.256758
0.132108 0.326942 0.179914
0.138216 0.326986 0.180068
0.160209 0.327243 0.180743
0.194645 0.327633 0.182049
0.237981 0.328288 0.184160
0.289261 0.329217 0.187020
0.347635 0.330395 0.190642
0.416852 0.336344 0.196256
0.490837 0.342010 0.202456
0.567693 0.347746 0.209247
0.645509 0.353765 0.216716
0.722325 0.360434 0.224821
0.796628 0.368301 0.233744
0.865767 0.377370 0.243501
0.929339 0.387619 0.254107
0.984779 0.396059 0.264307
0.148080 0.395516 0.196816
0.153284 0.395557 0.196940
0.172921 0.395691 0.197480
0.205442 0.395999 0.198595
0.247874 0.396594 0.200322
0.299011 0.397363 0.202746
0.357475 0.398328 0.205820
0.421523 0.399577 0.209565
0.494929 0.405557 0.215216
0.571233 0.411387 0.221445
0.648506 0.417440 0.228261
0.724943 0.424174 0.235789
0.798719 0.432024 0.244154
0.867387 0.441243 0.253439
0.930679 0.451579 0.263571
0.985875 0.459834 0.273306
0.164719 0.464693 0.213970
0.169255 0.464756 0.214079
0.186943 0.464859 0.214555
0.217630 0.465137 0.215478
0.259035 0.465596 0.216949
0.309787 0.466227 0.219018
0.368070 0.467088 0.221676
0.432111 0.468130 0.224936
0.499860 0.469403 0.228815
0.575543 0.475534 0.234547
0.652115 0.481768 0.240857
0.727950 0.488656 0.247882
0.801314 0.496713 0.255775
0.869328 0.506233 0.264610
0.932318 0.516893 0.274334
0.987048 0.525082 0.283617
0.182100 0.534690 0.231437
0.186150 0.534688 0.231542
0.202303 0.534808 0.231947
0.231321 0.535031 0.232749
0.271611 0.535453 0.234015
0.321711 0.536002 0.235808
0.379603 0.536705 0.238155
0.443340 0.537629 0.241026
0.510910 0.538669 0.244451
0.580504 0.540006 0.248415
0.656500 0.546489 0.254338
0.731721 0.553679 0.260941
0.804338 0.562095 0.268433
0.871702 0.572002 0.276877
0.934283 0.583124 0.286235
0.988541 0.591380 0.295091
0.200423 0.605610 0.249305
0.204108 0.605636 0.249390
0.219037 0.605691 0.249747
0.246594 0.605938 0.250453
0.285815 0.606266 0.251580
0.335080 0.606767 0.253154
0.392327 0.607378 0.255241
0.455668 0.608233 0.257809
0.522885 0.609146 0.260876
0.592134 0.610284 0.264448
0.661563 0.611595 0.268534
0.735936 0.619097 0.274799
0.807652 0.627883 0.281951
0.874501 0.638350 0.290079
0.936561 0.650079 0.299136
0.990145 0.658478 0.307643
0.219949 0.678162 0.267738
0.223324 0.678164 0.267812
0.237329 0.678252 0.268120
0.263671 0.678409 0.268745
0.301845 0.678716 0.269774
0.350233 0.679131 0.271191
0.406838 0.679650 0.273045
0.469528 0.680423 0.275356
0.536252 0.681264 0.278154
0.605007 0.682300 0.281405
0.673774 0.683389 0.285127
0.740585 0.684731 0.289305
0.811628 0.693933 0.296184
0.877585 0.704909 0.304075
0.939109 0.717350 0.312887
0.992152 0.726001 0.321044
0.241050 0.753007 0.286987
0.244249 0.753043 0.287058
0.257520 0.753091 0.287338
0.282913 0.753289 0.287914
0.320087 0.753546 0.288815
0.367581 0.753962 0.290119
0.423450 0.754376 0.291819
0.485595 0.755029 0.293921
0.551718 0.755811 0.296480
0.619940 0.756751 0.299480
0.688098 0.757694 0.302903
0.754035 0.758963 0.306746
0.815941 0.760244 0.311065
0.881027 0.771916 0.318737
0.942051 0.785046 0.327370
0.994243 0.794020 0.335254
0.264163 0.831023 0.307282
0.267207 0.831052 0.307329
0.279949 0.831117 0.307618
0.304529 0.831296 0.308126
0.340787 0.831514 0.308972
0.387436 0.831832 0.310164
0.442571 0.832243 0.311701
0.504059 0.832806 0.313653
0.569580 0.833535 0.316026
0.637141 0.834330 0.318769
0.704459 0.835257 0.321966
0.769714 0.836420 0.325577
0.830082 0.837662 0.329598
0.884994 0.839055 0.334027
0.945341 0.852841 0.342523
0.996213 0.862287 0.350158
0.289500 0.912266 0.328673
0.292418 0.912208 0.328724
0.304715 0.912353 0.328955
0.328551 0.912496 0.329430
0.363891 0.912691 0.330235
0.409694 0.912946 0.331337
0.463998 0.913411 0.332788
0.524752 0.913889 0.334561
0.589523 0.914468 0.336787
0.656370 0.915286 0.339375
0.722636 0.916243 0.342378
0.786538 0.917243 0.345733
0.845521 0.918385 0.349537
0.899115 0.919616 0.353700
0.948846 0.921028 0.358261
0.998471 0.930902 0.365716
0.314861 0.987997 0.349383
0.317656 0.988058 0.349480
0.329428 0.988163 0.349666
0.352252 0.988176 0.350118
0.386527 0.988444 0.350820
0.431020 0.988618 0.351889
0.484062 0.988995 0.353225
0.543543 0.989458 0.354888
0.607068 0.989937 0.356958
0.672616 0.990660 0.359311
0.737754 0.991572 0.362171
0.799991 0.992354 0.365313
0.857477 0.993266 0.368866
0.909859 0.994571 0.372784
0.959038 0.995821 0.377091
0.999966 0.997514 0.381760
0.053908 0.000000 0.130562
0.087575 0.000000 0.130969
0.125594 0.000000 0.131670
0.167690 0.000000 0.135090
0.215786 0.007158 0.140381
0.271499 0.017286 0.147040
0.335516 0.028580 0.154646
0.406291 0.040676 0.162964
0.481639 0.053404 0.171801
0.559810 0.066694 0.181034
0.638620 0.080535 0.190688
0.716753 0.095016 0.200774
0.791915 0.110228 0.211379
0.861994 0.126097 0.222645
0.926257 0.142602 0.234506
0.982326 0.158416 0.245922
0.062596 0.016067 0.131959
0.088801 0.016499 0.132363
0.126115 0.018228 0.133932
0.168005 0.021663 0.136991
0.216023 0.027011 0.141659
0.271697 0.034191 0.147730
0.335667 0.042949 0.154916
0.406453 0.052998 0.162954
0.481750 0.064079 0.171611
0.559873 0.076041 0.180732
0.638679 0.088788 0.190277
0.716796 0.102355 0.200295
0.791982 0.116687 0.210825
0.862010 0.131800 0.222004
0.926287 0.147658 0.233781
0.982355 0.162982 0.245204
0.074944 0.068318 0.136192
0.093267 0.068527 0.137377
0.128136 0.069363 0.138741
0.169293 0.071856 0.141530
0.216982 0.075957 0.145841
0.272531 0.081295 0.151501
0.336388 0.087705 0.158289
0.407066 0.095128 0.165936
0.482312 0.103475 0.174256
0.560316 0.112705 0.183090
0.639111 0.122763 0.192404
0.717174 0.133716 0.202206
0.792369 0.145721 0.212599
0.862198 0.158774 0.223613
0.926412 0.172848 0.235283
0.982564 0.186415 0.246589
0.088125 0.129033 0.145257
0.101094 0.129173 0.146091
0.132673 0.129670 0.147207
0.171845 0.130693 0.149399
0.218939 0.134778 0.153251
0.274148 0.139726 0.158355
0.337806 0.145186 0.164544
0.408332 0.151195 0.171586
0.483377 0.157661 0.179302
0.561191 0.164805 0.187665
0.639930 0.172635 0.196552
0.717761 0.181416 0.205972
0.792840 0.191270 0.216077
0.862725 0.202361 0.226807
0.926811 0.214587 0.238240
0.982833 0.226158 0.249354
0.102101 0.193158 0.157343
0.111618 0.193251 0.157698
0.139750 0.193574 0.158617
0.177675 0.194288 0.160405
0.222006 0.195395 0.163150
0.276807 0.200541 0.167740
0.340114 0.205912 0.173282
0.410317 0.211452 0.179664
0.485147 0.217195 0.186711
0.562774 0.223310 0.194432
0.641242 0.229994 0.202776
0.718778 0.237483 0.211712
0.793788 0.246075 0.221351
0.863396 0.255897 0.231734
0.927374 0.266886 0.242858
0.983285 0.276943 0.253661
0.116800 0.259392 0.171269
0.124087 0.259440 0.171309
0.148985 0.259692 0.172033
0.185302 0.260231 0.173517
0.229331 0.261033 0.175815
0.280465 0.262240 0.178932
0.343367 0.267894 0.183933
0.413183 0.273451 0.189686
0.487608 0.279008 0.196107
0.564895 0.284732 0.203179
0.643027 0.290894 0.210888
0.720405 0.297792 0.219279
0.795008 0.305738 0.228414
0.864397 0.314962 0.238362
0.928276 0.325303 0.249113
0.983896 0.334317 0.259535
0.132155 0.326987 0.186307
0.137974 0.326997 0.186163
0.160033 0.327261 0.186753
0.194519 0.327654 0.188007
0.237932 0.328325 0.189926
0.289240 0.329260 0.192586
0.347596 0.330404 0.195977
0.416858 0.336289 0.201217
0.490841 0.341935 0.207093
0.567698 0.347607 0.213570
0.645508 0.353575 0.220678
0.722359 0.360202 0.228493
0.796621 0.368010 0.237107
0.865756 0.377042 0.246607
0.929322 0.387191 0.256953
0.984811 0.395609 0.266966
0.148127 0.395505 0.202141
0.152946 0.395585 0.201873
0.172659 0.395687 0.202394
0.205252 0.396031 0.203428
0.247743 0.396597 0.205074
0.298908 0.397361 0.207364
0.357481 0.398303 0.210279
0.421530 0.399579 0.213872
0.494931 0.405513 0.219267
0.571243 0.411332 0.225216
0.648507 0.417355 0.231808
0.724939 0.424021 0.239111
0.798714 0.431824 0.247259
0.867398 0.440986 0.256311
0.930664 0.451299 0.266239
0.985858 0.459490 0.275801
0.164756 0.464710 0.218515
0.168877 0.464753 0.218186
0.186613 0.464874 0.218627
0.217374 0.465152 0.219525
0.258838 0.465612 0.220944
0.309659 0.466244 0.222906
0.368018 0.467107 0.225496
0.432053 0.468150 0.228657
0.499855 0.469425 0.232385
0.575554 0.475487 0.237923
0.652118 0.481699 0.244075
0.727952 0.488558 0.250915
0.801311 0.496612 0.258623
0.869321 0.506027 0.267283
0.932316 0.516684 0.276818
0.987080 0.524819 0.285959
0.182125 0.534701 0.235376
0.185699 0.534706 0.235007
0.201942 0.534809 0.235416
0.231010 0.535050 0.236180
0.271376 0.535472 0.237415
0.321521 0.535990 0.239163
0.379478 0.536702 0.241435
0.443250 0.537602 0.244244
0.510921 0.538652 0.247576
0.580530 0.539974 0.251457
0.656506 0.546480 0.257229
0.731729 0.553630 0.263711
0.804337 0.561981 0.271039
0.871697 0.571878 0.279334
0.934273 0.582972 0.288558
0.988529 0.591157 0.297288
0.200463 0.605619 0.252774
0.203641 0.605640 0.252395
0.218647 0.605695 0.252728
0.246251 0.605942 0.253431
0.285503 0.606271 0.254537
0.334851 0.606771 0.256086
0.392194 0.607383 0.258104
0.455547 0.608239 0.260630
0.522810 0.609174 0.263647
0.592073 0.610291 0.267159
0.661543 0.611602 0.271145
0.735887 0.619075 0.277304
0.807637 0.627867 0.284345
0.874500 0.638244 0.292356
0.936554 0.649954 0.301276
0.990133 0.658357 0.309679
0.219954 0.678138 0.270828
0.222866 0.678133 0.270435
0.236872 0.678235 0.270721
0.263268 0.678414 0.271349
0.301480 0.678721 0.272355
0.349988 0.679138 0.273752
0.406616 0.679656 0.275564
0.469373 0.680429 0.277874
0.536129 0.681271 0.280609
0.604936 0.682308 0.283799
0.673753 0.683398 0.287466
0.740610 0.684741 0.291604
0.811549 0.693945 0.298375
0.877587 0.704881 0.306186
0.939106 0.717316 0.314876
0.992143 0.726010 0.322958
0.241078 0.753019 0.289791
0.243729 0.753047 0.289378
0.257028 0.753095 0.289645
0.282463 0.753293 0.290210
0.319704 0.753551 0.291112
0.367265 0.753964 0.292421
0.423217 0.754381 0.294068
0.485366 0.755035 0.296167
0.551594 0.755817 0.298661
0.619823 0.756648 0.301643
0.688073 0.757702 0.305022
0.754090 0.758972 0.308834
0.815951 0.760254 0.313121
0.881033 0.771883 0.320673
0.942052 0.784966 0.329243
0.994241 0.793936 0.337037
0.264188 0.831037 0.309850
0.266650 0.831056 0.309433
0.279393 0.831120 0.309660
0.304019 0.831299 0.310183
0.340305 0.831518 0.311027
0.387072 0.831836 0.312204
0.442246 0.832248 0.313736
0.503796 0.832811 0.315631
0.569430 0.833540 0.318002
0.636991 0.834323 0.320728
0.704381 0.835264 0.323908
0.769565 0.836414 0.327487
0.830066 0.837673 0.331457
0.885011 0.839067 0.335844
0.945347 0.852860 0.344251
0.996214 0.862234 0.351829
0.289532 0.912222 0.331052
0.291804 0.912210 0.330573
0.304086 0.912355 0.330809
0.327966 0.912499 0.331297
0.363397 0.912694 0.332066
0.409267 0.912950 0.333154
0.463621 0.913415 0.334594
0.524462 0.913893 0.336397
0.589279 0.914474 0.338573
0.656144 0.915293 0.341143
0.722592 0.916218 0.344085
0.786349 0.917219 0.347470
0.845471 0.918397 0.351190
0.899100 0.919629 0.355350
0.948858 0.921009 0.359887
0.998476 0.930840 0.367272
0.314895 0.988018 0.351617
0.317019 0.988060 0.351117
0.328823 0.988164 0.351336
0.351730 0.988177 0.351801
0.385985 0.988446 0.352521
0.430546 0.988621 0.353546
0.483638 0.988998 0.354814
0.543188 0.989462 0.356516
0.606829 0.989941 0.358556
0.672407 0.990662 0.360961
0.737570 0.991579 0.363716
0.799871 0.992361 0.366858
0.857396 0.993277 0.370362
0.909844 0.994584 0.374273
0.959021 0.995837 0.378611
0.999966 0.997479 0.383210
0.058762 0.000000 0.172321
0.087189 0.000000 0.172474
0.125811 0.000000 0.173146
0.167826 0.000245 0.174884
0.215895 0.007915 0.178156
0.271598 0.017922 0.182422
0.335613 0.029119 0.187504
0.406372 0.041155 0.193239
0.481694 0.053801 0.199592
0.559841 0.067043 0.206561
0.638681 0.080858 0.214157
0.716794 0.095291 0.222441
0.791911 0.110483 0.231487
0.862006 0.126324 0.241367
0.926241 0.142798 0.252063
0.982311 0.158604 0.262386
0.064272 0.015538 0.172847
0.089283 0.017094 0.173052
0.126322 0.018800 0.173728
0.168144 0.022210 0.175631
0.216111 0.027517 0.178752
0.271778 0.034666 0.182820
0.335788 0.043388 0.187679
0.406505 0.053394 0.193252
0.481815 0.064431 0.199467
0.559893 0.076350 0.206360
0.638783 0.089078 0.213855
0.716790 0.102629 0.222065
0.792052 0.116928 0.231026
0.862067 0.132016 0.240837
0.926264 0.147862 0.251468
0.982375 0.163158 0.261755
0.075805 0.068602 0.175080
0.093706 0.068821 0.175252
0.128348 0.069654 0.175894
0.169392 0.071372 0.177178
0.217021 0.074216 0.179348
0.272541 0.078329 0.182444
0.336392 0.083746 0.186516
0.406993 0.090432 0.191512
0.482270 0.098319 0.197323
0.560266 0.107258 0.203908
0.639039 0.117157 0.211171
0.717152 0.127964 0.219184
0.792261 0.139795 0.227930
0.862155 0.152620 0.237473
0.926401 0.166450 0.247835
0.982524 0.180088 0.258077
0.088631 0.129213 0.179788
0.101441 0.129342 0.180111
0.132366 0.129829 0.180199
0.171952 0.130873 0.181448
0.218998 0.134173 0.183605
0.274182 0.138285 0.186669
0.337802 0.143051 0.190627
0.408294 0.148455 0.195467
0.483364 0.154497 0.201106
0.561136 0.161275 0.207461
0.639880 0.168893 0.214559
0.717754 0.177391 0.222341
0.792843 0.186958 0.230901
0.862649 0.197728 0.240316
0.926821 0.209659 0.250536
0.982831 0.221163 0.260616
0.102451 0.193281 0.187456
0.111900 0.193362 0.187683
0.138692 0.193696 0.186915
0.177257 0.194391 0.188097
0.222102 0.195502 0.189904
0.276826 0.200017 0.192933
0.340150 0.204813 0.196772
0.410314 0.209870 0.201424
0.485129 0.215206 0.206796
0.562716 0.221020 0.212884
0.641195 0.227426 0.219705
0.718770 0.234673 0.227214
0.793765 0.242975 0.235532
0.863370 0.252493 0.244696
0.927347 0.263147 0.254711
0.983246 0.273041 0.264591
0.117067 0.259472 0.197377
0.124329 0.259514 0.197399
0.147285 0.259754 0.195978
0.184372 0.260298 0.197042
0.228950 0.261089 0.198730
0.280546 0.262299 0.201070
0.343419 0.267475 0.204779
0.413173 0.272586 0.209205
0.487597 0.277809 0.214319
0.564879 0.283205 0.220125
0.643013 0.289138 0.226586
0.720323 0.295725 0.233779
0.794998 0.303476 0.241808
0.864331 0.312420 0.250692
0.928209 0.322459 0.260444
0.983873 0.331317 0.270047
0.132357 0.327044 0.208979
0.138163 0.327078 0.208882
0.157917 0.327268 0.207010
0.193131 0.327726 0.207962
0.237078 0.328326 0.209488
0.288836 0.329279 0.211645
0.347708 0.330486 0.214383
0.416910 0.335938 0.218629
0.490846 0.341263 0.223447
0.567688 0.346642 0.228940
0.645461 0.352374 0.235070
0.722303 0.358799 0.241927
0.796562 0.366243 0.249623
0.865678 0.375122 0.258211
0.929309 0.385039 0.267673
0.984770 0.393337 0.276955
0.148304 0.395572 0.221919
0.153111 0.395602 0.221728
0.170253 0.395742 0.219594
0.203484 0.396054 0.220466
0.246540 0.396599 0.221842
0.298164 0.397376 0.223767
0.357088 0.398340 0.226282
0.421601 0.399659 0.229377
0.494962 0.405188 0.233977
0.571265 0.410729 0.239151
0.648493 0.416569 0.244950
0.724908 0.423009 0.251483
0.798765 0.430626 0.258868
0.867371 0.439548 0.267155
0.930644 0.449635 0.276339
0.985848 0.457667 0.285293
0.164897 0.464776 0.235912
0.169010 0.464784 0.235653
0.184072 0.464894 0.233401
0.215405 0.465175 0.234191
0.257335 0.465636 0.235449
0.308563 0.466261 0.237158
0.367328 0.467122 0.239450
0.431774 0.468174 0.242261
0.499915 0.469457 0.245604
0.575541 0.475252 0.250540
0.652119 0.481242 0.256062
0.727971 0.487861 0.262272
0.801294 0.495729 0.269340
0.869356 0.504985 0.277360
0.932271 0.515388 0.286304
0.987035 0.523382 0.294891
0.182276 0.534738 0.250850
0.185849 0.534743 0.250540
0.199307 0.534825 0.248246
0.228858 0.535041 0.248955
0.269654 0.535473 0.250081
0.320189 0.536030 0.251666
0.378526 0.536718 0.253729
0.442722 0.537642 0.256284
0.510644 0.538697 0.259337
0.580595 0.540015 0.262900
0.656524 0.546282 0.268187
0.731728 0.553192 0.274145
0.804317 0.561404 0.280957
0.871702 0.571096 0.288722
0.934250 0.581994 0.297399
0.988500 0.590096 0.305734
0.200585 0.605656 0.266656
0.203753 0.605659 0.266330
0.215939 0.605705 0.264021
0.243941 0.605952 0.264650
0.283596 0.606272 0.265675
0.333322 0.606784 0.267109
0.391000 0.607399 0.269022
0.454722 0.608237 0.271333
0.522314 0.609196 0.274150
0.591891 0.610310 0.277422
0.661556 0.611626 0.281170
0.735930 0.618892 0.286913
0.807653 0.627498 0.293528
0.874493 0.637742 0.301078
0.936505 0.649258 0.309576
0.990171 0.657500 0.317568
0.220075 0.678156 0.283418
0.222965 0.678162 0.283039
0.234104 0.678244 0.280723
0.260823 0.678424 0.281314
0.299395 0.678732 0.282244
0.348223 0.679121 0.283562
0.405260 0.679672 0.285295
0.468340 0.680416 0.287438
0.535401 0.681277 0.290030
0.604553 0.682291 0.293057
0.673603 0.683398 0.296542
0.740660 0.684833 0.300467
0.811559 0.693793 0.306901
0.877582 0.704442 0.314323
0.939153 0.716743 0.322610
0.992098 0.725320 0.330361
0.241194 0.753069 0.301319
0.243823 0.753053 0.300916
0.254135 0.753094 0.298539
0.279816 0.753300 0.299103
0.317441 0.753558 0.299964
0.365380 0.753973 0.301183
0.421621 0.754393 0.302766
0.484155 0.755049 0.304753
0.550706 0.755834 0.307187
0.619187 0.756671 0.309975
0.687694 0.757730 0.313272
0.753936 0.758964 0.316918
0.815933 0.760236 0.320999
0.881051 0.771648 0.328292
0.942044 0.784649 0.336510
0.994209 0.793515 0.343992
0.264288 0.831039 0.320474
0.266747 0.831058 0.320057
0.276318 0.831121 0.317638
0.301188 0.831301 0.318167
0.337845 0.831521 0.318955
0.384928 0.831841 0.320052
0.440472 0.832255 0.321541
0.502370 0.832822 0.323432
0.568280 0.833555 0.325645
0.636208 0.834331 0.328316
0.703978 0.835290 0.331371
0.769146 0.836427 0.334815
0.829949 0.837712 0.338668
0.884996 0.839062 0.342951
0.945334 0.852650 0.351058
0.996207 0.861968 0.358340
0.289629 0.912239 0.340974
0.291901 0.912231 0.340514
0.300831 0.912349 0.338010
0.324948 0.912493 0.338475
0.360689 0.912690 0.339219
0.406909 0.912948 0.340297
0.461641 0.913417 0.341688
0.522815 0.913899 0.343405
0.587992 0.914484 0.345548
0.655162 0.915308 0.348022
0.721851 0.916241 0.350905
0.785985 0.917249 0.354191
0.845283 0.918376 0.357785
0.899053 0.919611 0.361857
0.948848 0.921000 0.366271
0.998488 0.930784 0.373416
0.314999 0.988109 0.360880
0.317117 0.988098 0.360433
0.325519 0.988152 0.357903
0.348579 0.988166 0.358313
0.383162 0.988433 0.359047
0.428090 0.988613 0.360006
0.481527 0.988993 0.361310
0.541459 0.989461 0.362991
0.605413 0.989945 0.364950
0.671329 0.990672 0.367271
0.736747 0.991512 0.370010
0.799385 0.992385 0.373047
0.857032 0.993306 0.376539
0.909614 0.994548 0.380296
0.958950 0.995896 0.384481
0.999966 0.997561 0.389078
0.063798 0.000000 0.216117
0.088390 0.000000 0.216217
0.126581 0.000000 0.216622
0.168092 0.001632 0.217389
0.216094 0.009422 0.220397
0.271760 0.019202 0.224126
0.335758 0.030185 0.228351
0.406468 0.042066 0.232954
0.481810 0.054608 0.237959
0.559892 0.067752 0.243433
0.638785 0.081477 0.249486
0.716799 0.095869 0.256230
0.792065 0.110993 0.263860
0.862080 0.126798 0.272429
0.926281 0.143247 0.281913
0.982339 0.159004 0.290905
0.067567 0.016993 0.216438
0.090267 0.018317 0.216550
0.127283 0.020018 0.216952
0.168400 0.023306 0.217712
0.216324 0.028554 0.220757
0.271967 0.035627 0.224383
0.335878 0.044257 0.228493
0.406619 0.054189 0.232998
0.481930 0.065148 0.237881
0.559992 0.077003 0.243296
0.638831 0.089676 0.249282
0.716879 0.103158 0.255973
0.792167 0.117415 0.263525
0.862085 0.132467 0.272028
0.926346 0.148273 0.281428
0.982403 0.163544 0.290395
0.077562 0.069688 0.217744
0.094637 0.070185 0.217836
0.128759 0.070244 0.218197
0.169648 0.071951 0.218975
0.217221 0.074801 0.221447
0.272697 0.078911 0.224460
0.336547 0.084316 0.227999
0.407188 0.090989 0.232044
0.482362 0.098833 0.236593
0.560340 0.107771 0.241719
0.639145 0.117633 0.247468
0.717196 0.128429 0.253911
0.792330 0.140188 0.261224
0.862215 0.153009 0.269443
0.926415 0.166832 0.278555
0.982639 0.180419 0.287426
0.089631 0.129574 0.220342
0.102127 0.129710 0.220455
0.132762 0.130197 0.220815
0.172214 0.131229 0.221582
0.219114 0.132920 0.222861
0.274221 0.135453 0.224711
0.337806 0.138883 0.227247
0.408300 0.143200 0.230480
0.483291 0.148431 0.234360
0.561071 0.154560 0.238946
0.639812 0.161594 0.244186
0.717698 0.169573 0.250170
0.792729 0.178558 0.256929
0.862536 0.188665 0.264555
0.926703 0.199870 0.273064
0.982759 0.211204 0.281687
0.103156 0.193533 0.226210
0.112466 0.193604 0.226315
0.139081 0.193917 0.226155
0.176426 0.194597 0.225803
0.222284 0.195736 0.227019
0.276910 0.198992 0.228969
0.340171 0.202700 0.231496
0.410320 0.206843 0.234712
0.485072 0.211477 0.238519
0.562675 0.216673 0.243006
0.641152 0.222546 0.248165
0.718629 0.229261 0.254041
0.793661 0.236989 0.260703
0.863325 0.245897 0.268257
0.927289 0.255899 0.276659
0.983226 0.265490 0.285156
0.117598 0.259654 0.233865
0.124792 0.259707 0.233918
0.147640 0.259941 0.233182
0.182472 0.260405 0.231811
0.228157 0.261235 0.233023
0.280700 0.262482 0.234715
0.343487 0.266648 0.237261
0.413201 0.270976 0.240427
0.487586 0.275493 0.244189
0.564828 0.280368 0.248575
0.642966 0.285738 0.253603
0.720357 0.291977 0.259360
0.794879 0.299121 0.265897
0.864281 0.307534 0.273305
0.928137 0.316972 0.281589
0.983845 0.325540 0.289938
0.132797 0.327202 0.243001
0.138565 0.327271 0.242953
0.158224 0.327421 0.241809
0.190413 0.327759 0.239625
0.235471 0.328442 0.240776
0.288137 0.329378 0.242390
0.347818 0.330579 0.244479
0.416958 0.335265 0.247624
0.490867 0.339980 0.251321
0.567648 0.344764 0.255609
0.645414 0.350079 0.260497
0.722349 0.356096 0.266104
0.796593 0.363154 0.272502
0.865627 0.371475 0.279764
0.929231 0.380822 0.287945
0.984727 0.388813 0.296103
0.148667 0.395649 0.253402
0.153461 0.395699 0.253264
0.170551 0.395842 0.251820
0.200175 0.396115 0.249071
0.244244 0.396693 0.250162
0.296717 0.397443 0.251690
0.356436 0.398431 0.253696
0.421678 0.399731 0.256168
