assets/luts/Medieval.cube
LUT_3D_SIZE 16
0.148179 0.122036 0.055382
0.165507 0.126441 0.060659
0.180865 0.130455 0.065154
0.200325 0.135422 0.070529
0.226308 0.141668 0.077204
0.260607 0.149351 0.085259
0.305095 0.158603 0.094689
0.361323 0.169700 0.105702
0.428169 0.182767 0.118312
0.502814 0.197696 0.132390
0.582149 0.214047 0.147609
0.662074 0.231094 0.163365
0.738903 0.247957 0.178931
0.810255 0.264047 0.193805
0.878435 0.279711 0.208326
0.948211 0.296823 0.224232
0.156407 0.137960 0.062174
0.167814 0.137388 0.063557
0.181905 0.135627 0.066876
0.200953 0.138878 0.071754
0.226763 0.144480 0.078210
0.260968 0.151914 0.086101
0.305421 0.161102 0.095434
0.361621 0.172270 0.106384
0.428448 0.185479 0.118953
0.503100 0.200491 0.133002
0.582467 0.216918 0.148201
0.662332 0.233920 0.163925
0.738976 0.250715 0.179440
0.810483 0.266683 0.194274
0.878606 0.282228 0.208762
0.948415 0.299240 0.224644
0.163489 0.152411 0.068639
0.168755 0.152506 0.068956
0.185411 0.151550 0.070976
0.203549 0.151167 0.075648
0.228734 0.155158 0.081785
0.262616 0.161974 0.089372
0.306897 0.171172 0.098454
0.363060 0.182730 0.109210
0.429764 0.196491 0.121622
0.504314 0.211978 0.135516
0.583607 0.228666 0.150610
0.663496 0.245707 0.166190
0.740133 0.262265 0.181591
0.811357 0.277770 0.196260
0.879411 0.292762 0.210627
0.948972 0.309370 0.226357
0.172174 0.170812 0.076680
0.175528 0.170886 0.076875
0.188631 0.171181 0.077715
0.207802 0.170018 0.080188
0.232694 0.172832 0.086774
0.266127 0.179446 0.094557
0.310096 0.189207 0.103643
0.365955 0.201853 0.114308
0.432570 0.216876 0.126601
0.506979 0.233460 0.140375
0.586073 0.250864 0.155277
0.665711 0.268107 0.170672
0.742173 0.284380 0.185831
0.813245 0.299198 0.200248
0.881155 0.313325 0.214354
0.950047 0.329292 0.229828
0.183117 0.195586 0.086728
0.185767 0.195647 0.086888
0.196431 0.195903 0.087505
0.215357 0.196394 0.088722
0.237862 0.195465 0.091597
0.271598 0.202760 0.100150
0.315419 0.213840 0.109888
0.371111 0.228475 0.120940
0.437412 0.245616 0.133434
0.511502 0.264083 0.147278
0.590196 0.282869 0.162134
0.669456 0.300791 0.177365
0.745693 0.317059 0.192294
0.816357 0.331120 0.206385
0.883980 0.344222 0.220147
0.952005 0.359444 0.235311
0.196499 0.228896 0.098664
0.198882 0.228948 0.098781
0.208591 0.229185 0.099301
0.226259 0.229664 0.100348
0.250460 0.230441 0.101975
0.277985 0.230717 0.105079
0.322763 0.243989 0.115471
0.378710 0.261430 0.127504
0.444794 0.281540 0.140794
0.518527 0.302702 0.155234
0.596707 0.323609 0.170440
0.675425 0.342759 0.185817
0.751053 0.359169 0.200678
0.821126 0.372636 0.214522
0.888419 0.384716 0.227984
0.954850 0.399229 0.242738
0.212581 0.273543 0.112277
0.214871 0.273612 0.112387
0.224374 0.273866 0.112834
0.241865 0.274347 0.113770
0.266249 0.275158 0.115204
0.295814 0.276304 0.117205
0.330566 0.279358 0.120264
0.388011 0.300329 0.132113
0.454691 0.323976 0.146491
0.528225 0.348365 0.162135
0.606033 0.371757 0.178471
0.683978 0.392371 0.194626
0.758741 0.409337 0.209917
0.828145 0.422373 0.223903
0.894574 0.433402 0.237292
0.958897 0.447138 0.251724
0.231634 0.333252 0.127381
0.233985 0.333325 0.127482
0.243696 0.333589 0.127887
0.261754 0.334099 0.128754
0.287206 0.334996 0.130060
0.318365 0.336246 0.131927
0.353586 0.337906 0.134336
0.397091 0.345174 0.137280
0.465607 0.372908 0.149116
0.540082 0.400568 0.165495
0.617801 0.426447 0.183499
0.695275 0.448693 0.201401
0.769144 0.466122 0.218113
0.837580 0.478718 0.233019
0.903062 0.488782 0.246885
0.964571 0.501804 0.261296
0.253789 0.409298 0.143813
0.256244 0.409368 0.143908
0.266351 0.409656 0.144280
0.285278 0.410300 0.145062
0.312123 0.411192 0.146308
0.345162 0.412519 0.148063
0.382778 0.414253 0.150364
0.423603 0.416444 0.153193
0.475325 0.427632 0.156528
0.551967 0.458998 0.166358
0.630899 0.487203 0.183595
0.708654 0.510698 0.203398
0.782127 0.528384 0.222582
0.849606 0.540337 0.239593
0.913916 0.549261 0.255010
0.971785 0.561385 0.269844
0.278616 0.498606 0.161330
0.281137 0.498655 0.161424
0.291582 0.498956 0.161785
0.311179 0.499510 0.162548
0.339245 0.500492 0.163737
0.373965 0.501760 0.165399
0.413700 0.503570 0.167570
0.457114 0.505726 0.170320
0.503308 0.508422 0.173642
0.562279 0.522357 0.177371
0.643083 0.553315 0.184985
0.722277 0.577655 0.200769
0.796161 0.595159 0.221375
0.863309 0.606013 0.241301
0.927015 0.613741 0.259477
0.980128 0.624576 0.275252
0.305284 0.595136 0.179726
0.307848 0.595228 0.179804
0.318389 0.595522 0.180157
0.338413 0.596056 0.180862
0.367094 0.596877 0.181996
0.402901 0.598167 0.183587
0.444183 0.599791 0.185690
0.489605 0.601995 0.188348
0.538117 0.604516 0.191557
0.589272 0.607542 0.195297
0.654238 0.622766 0.199532
0.734208 0.648284 0.205886
0.809850 0.665372 0.217735
0.877693 0.674922 0.237807
0.941258 0.681063 0.258789
0.989136 0.690140 0.275680
0.332476 0.690834 0.198418
0.335027 0.690829 0.198506
0.345392 0.691154 0.198820
0.365212 0.691667 0.199519
0.393939 0.692374 0.200612
0.430205 0.693591 0.202114
0.472250 0.695137 0.204143
0.518838 0.697028 0.206673
0.568927 0.699382 0.209767
0.621838 0.702129 0.213430
0.677167 0.705097 0.217680
0.746032 0.719904 0.222407
0.821802 0.736914 0.227266
0.891042 0.745258 0.235186
0.954852 0.749468 0.254345
0.996310 0.756420 0.270829
0.358922 0.778615 0.216907
0.361370 0.778580 0.216999
0.371394 0.778860 0.217300
0.390656 0.779307 0.217935
0.418760 0.779927 0.219007
0.454580 0.780978 0.220463
0.496586 0.782307 0.222396
0.543479 0.784037 0.224840
0.594115 0.786016 0.227779
0.647852 0.788387 0.231275
0.704086 0.791193 0.235447
0.762554 0.794493 0.240093
0.834205 0.808085 0.245261
0.903058 0.815524 0.248127
0.966481 0.818068 0.253582
0.999966 0.822291 0.265497
0.383675 0.856086 0.234710
0.385939 0.856215 0.234782
0.395443 0.856318 0.235070
0.413764 0.856700 0.235661
0.440838 0.857376 0.236664
0.475613 0.858231 0.238050
0.516787 0.859373 0.239880
0.563098 0.860976 0.242192
0.613387 0.862616 0.245025
0.666960 0.864739 0.248395
0.723252 0.867241 0.252309
0.781736 0.870028 0.256830
0.842571 0.873255 0.261930
0.915875 0.885783 0.267489
0.975911 0.886901 0.269130
1.005261 0.889067 0.274307
0.407302 0.925660 0.252353
0.409422 0.925760 0.252428
0.418315 0.925774 0.252710
0.435583 0.926156 0.253314
0.461321 0.926603 0.254240
0.494720 0.927236 0.255555
0.534608 0.928158 0.257316
0.579771 0.929311 0.259533
0.629124 0.930531 0.262220
0.681961 0.931975 0.265465
0.737420 0.933841 0.269169
0.795420 0.935765 0.273520
0.855592 0.937851 0.278349
0.918041 0.940306 0.283824
0.984446 0.950768 0.289801
1.013850 0.951560 0.294626
0.434112 1.004708 0.273525
0.436152 1.004736 0.273579
0.444550 1.004856 0.273861
0.461001 1.005097 0.274418
0.485679 1.005486 0.275346
0.517934 1.006037 0.276622
0.556723 1.006766 0.278295
0.601031 1.007686 0.280469
0.649624 1.008806 0.283064
0.701858 1.010137 0.286234
0.756890 1.011694 0.289873
0.814308 1.013476 0.294007
0.874169 1.015494 0.298737
0.936234 1.017748 0.304074
0.990302 1.020264 0.309989
1.023175 1.023048 0.316553
0.150347 0.125107 0.070637
0.165044 0.127548 0.069589
0.180722 0.131308 0.069174
0.200281 0.136411 0.073659
0.226315 0.142880 0.080262
0.260659 0.150720 0.088422
0.305131 0.159906 0.097856
0.361363 0.170507 0.108446
0.428166 0.183132 0.120690
0.502868 0.197655 0.134475
0.582160 0.213728 0.149451
0.662136 0.230537 0.164982
0.738863 0.247272 0.180365
0.810238 0.263295 0.195054
0.878422 0.278949 0.209465
0.948244 0.296009 0.225249
0.157527 0.138057 0.070759
0.167618 0.138366 0.072298
0.182024 0.139333 0.074190
0.201037 0.141859 0.077237
0.226761 0.146277 0.082031
0.260942 0.152700 0.088741
0.305359 0.161122 0.097310
0.361528 0.171696 0.107751
0.428319 0.184415 0.119942
0.503013 0.199101 0.133767
0.582261 0.215288 0.148782
0.662155 0.232180 0.164380
0.738999 0.248958 0.179860
0.810345 0.264978 0.194645
0.878496 0.280590 0.209116
0.948280 0.297634 0.224949
0.164970 0.152432 0.073348
0.170983 0.152558 0.074790
0.185334 0.152142 0.076439
0.203500 0.152655 0.080056
0.228676 0.156298 0.085061
0.262550 0.162517 0.091756
0.306767 0.171115 0.100190
0.362918 0.182174 0.110494
0.429627 0.195518 0.122597
0.504200 0.210688 0.136261
0.583500 0.227155 0.151204
0.663282 0.244056 0.166662
0.739985 0.260571 0.181998
0.811236 0.276112 0.196644
0.879292 0.291198 0.210975
0.948872 0.307848 0.226683
0.173434 0.170845 0.080254
0.176912 0.170930 0.080693
0.189281 0.171237 0.081370
0.207760 0.170331 0.083632
0.232606 0.173353 0.089511
0.266022 0.179725 0.096655
0.309946 0.189094 0.105226
0.365877 0.201366 0.115542
0.432434 0.216025 0.127537
0.506821 0.232322 0.141112
0.585913 0.249510 0.155865
0.665615 0.266643 0.171160
0.741964 0.282838 0.186222
0.813046 0.297634 0.200619
0.881002 0.311816 0.214692
0.949961 0.327856 0.230169
0.183971 0.195602 0.089512
0.186278 0.195647 0.089396
0.196751 0.195912 0.089974
0.215467 0.196412 0.091120
0.237840 0.195627 0.093873
0.271524 0.202850 0.101999
0.315300 0.213733 0.111359
0.370954 0.228082 0.122083
0.437245 0.244913 0.134341
0.511320 0.263141 0.148005
0.590083 0.281734 0.162735
0.669306 0.299537 0.177863
0.745512 0.315674 0.192724
0.816298 0.329777 0.206782
0.883898 0.342894 0.220513
0.951926 0.358153 0.235627
0.197068 0.228917 0.101012
0.198791 0.228953 0.100565
0.208476 0.229194 0.101082
0.226158 0.229679 0.102090
0.250373 0.230455 0.103647
0.277965 0.230783 0.106699
0.322696 0.243920 0.116847
0.378629 0.261143 0.128627
0.444637 0.280984 0.141736
0.518386 0.301974 0.155982
0.596569 0.322646 0.171083
0.675249 0.341691 0.186332
0.750901 0.358049 0.201132
0.821060 0.371506 0.214928
0.888229 0.383565 0.228356
0.954668 0.397948 0.243072
0.212894 0.273547 0.114373
0.214311 0.273592 0.113736
0.223849 0.273861 0.114185
0.241451 0.274350 0.115079
0.265983 0.275161 0.116513
0.295682 0.276310 0.118495
0.330557 0.279370 0.121537
0.387998 0.300163 0.133252
0.454545 0.323615 0.147448
0.528099 0.347798 0.162954
0.605863 0.370974 0.179166
0.683821 0.391502 0.195209
0.758607 0.408408 0.210441
0.827987 0.421367 0.224364
0.894478 0.432379 0.237666
0.958849 0.446135 0.252065
0.231715 0.333283 0.129283
0.233072 0.333308 0.128569
0.242860 0.333583 0.128972
0.261075 0.334095 0.129805
0.286697 0.334989 0.131155
0.318041 0.336262 0.132977
0.353422 0.337908 0.135356
0.397095 0.345211 0.138301
0.465586 0.372704 0.150114
0.539988 0.400221 0.166389
0.617698 0.425895 0.184291
0.695215 0.448028 0.202086
0.769155 0.465395 0.218706
0.837523 0.477928 0.233522
0.902837 0.487911 0.247347
0.964440 0.500918 0.261700
0.253659 0.409336 0.145611
0.255044 0.409362 0.144809
0.265253 0.409634 0.145210
0.284340 0.410271 0.145983
0.311400 0.411204 0.147229
0.344683 0.412520 0.148961
0.382460 0.414254 0.151266
0.423486 0.416463 0.154099
0.475344 0.427629 0.157411
0.551933 0.458825 0.167207
0.630885 0.486835 0.184430
0.708506 0.510178 0.204165
0.781973 0.527773 0.223217
0.849430 0.539694 0.240156
0.913821 0.548610 0.255542
0.971698 0.560649 0.270343
0.278305 0.498622 0.163058
0.279747 0.498646 0.162251
0.290275 0.498913 0.162618
0.310095 0.499513 0.163354
0.338345 0.500451 0.164551
0.373286 0.501744 0.166204
0.413238 0.503551 0.168402
0.456783 0.505718 0.171116
0.503166 0.508461 0.174432
0.562268 0.522336 0.178159
0.643023 0.553094 0.185727
0.722207 0.577296 0.201535
0.796140 0.594710 0.222104
0.863284 0.605546 0.241978
0.926875 0.613246 0.260092
0.980074 0.623989 0.275806
0.304863 0.595136 0.181377
0.306339 0.595138 0.180574
0.316977 0.595548 0.180908
0.337131 0.596057 0.181610
0.366041 0.596876 0.182754
0.402105 0.598175 0.184337
0.443530 0.599737 0.186453
0.489215 0.601984 0.189089
0.537856 0.604512 0.192277
0.589133 0.607546 0.196051
0.654261 0.622765 0.200277
0.734276 0.648060 0.206585
0.809796 0.664999 0.218514
0.877650 0.674545 0.238559
0.941120 0.680632 0.259472
0.989074 0.689721 0.276311
0.331947 0.690832 0.200021
0.333423 0.690867 0.199199
0.343922 0.691114 0.199532
0.363936 0.691613 0.200235
0.392831 0.692358 0.201332
0.429296 0.693600 0.202821
0.471548 0.695138 0.204845
0.518321 0.697028 0.207367
0.568558 0.699368 0.210501
0.621581 0.702111 0.214116
0.677103 0.705104 0.218415
0.746048 0.719886 0.223091
0.821801 0.736791 0.227931
0.891045 0.745050 0.235919
0.954849 0.749147 0.255097
0.996293 0.756120 0.271477
0.358396 0.778524 0.218428
0.359856 0.778531 0.217707
0.369949 0.778812 0.217987
0.389293 0.779295 0.218663
0.417623 0.779883 0.219659
0.453648 0.780987 0.221169
0.495817 0.782271 0.223046
0.542869 0.784007 0.225498
0.593675 0.786025 0.228445
0.647546 0.788373 0.231986
0.703983 0.791190 0.236093
0.762520 0.794488 0.240780
0.834232 0.808084 0.245905
0.903043 0.815428 0.248806
0.966475 0.817892 0.254316
0.999966 0.822088 0.266218
0.383137 0.856143 0.236133
0.384561 0.856195 0.235474
0.394082 0.856334 0.235733
0.412509 0.856700 0.236352
0.439733 0.857347 0.237325
0.474646 0.858182 0.238693
0.515991 0.859380 0.240564
0.562514 0.860993 0.242856
0.612950 0.862652 0.245715
0.666610 0.864716 0.249061
0.722932 0.867229 0.253010
0.781583 0.870028 0.257524
0.842523 0.873269 0.262584
0.915869 0.885787 0.268141
0.975892 0.886782 0.269827
1.005252 0.888930 0.274962
0.406781 0.925677 0.253721
0.408129 0.925700 0.253111
0.417065 0.925823 0.253397
0.434418 0.926136 0.253962
0.460282 0.926609 0.254909
0.493818 0.927248 0.256210
0.533826 0.928161 0.257963
0.579123 0.929305 0.260193
0.628590 0.930497 0.262875
0.681562 0.932087 0.266138
0.737197 0.933841 0.269832
0.795166 0.935758 0.274185
0.855453 0.937854 0.279065
0.917924 0.940321 0.284501
0.984439 0.950774 0.290467
1.013848 0.951502 0.295266
0.433635 1.004717 0.274834
0.434908 1.004727 0.274221
0.443366 1.004847 0.274486
0.459888 1.005089 0.275091
0.484637 1.005478 0.276030
0.517013 1.006030 0.277266
0.555958 1.006758 0.278952
0.600360 1.007680 0.281087
0.649062 1.008800 0.283757
0.701489 1.010132 0.286850
0.756549 1.011690 0.290453
0.814077 1.013474 0.294673
0.873975 1.015494 0.299423
0.936133 1.017749 0.304695
0.990187 1.020267 0.310546
1.023179 1.023053 0.317204
0.154104 0.127213 0.084480
0.162347 0.128364 0.084537
0.180839 0.132326 0.082147
0.200167 0.137132 0.082590
0.226323 0.143404 0.087704
0.260718 0.151129 0.095452
0.305258 0.160303 0.105165
0.361512 0.171142 0.116638
0.428326 0.183613 0.129491
0.503005 0.197611 0.143376
0.582240 0.212795 0.157818
0.662111 0.228538 0.172262
0.738936 0.244203 0.186263
0.810248 0.259970 0.200363
0.878452 0.275516 0.214205
0.948208 0.292503 0.229615
0.158043 0.135274 0.084870
0.166899 0.139129 0.085327
0.181642 0.140558 0.084952
0.200856 0.143273 0.086196
0.226744 0.147859 0.090405
0.261012 0.154359 0.097131
0.305480 0.162743 0.105991
0.361656 0.172998 0.116753
0.428446 0.185115 0.129033
0.503060 0.198837 0.142465
0.582395 0.213853 0.156590
0.662255 0.229670 0.171073
0.739008 0.245934 0.185810
0.810378 0.261681 0.199964
0.878513 0.277200 0.213897
0.948296 0.294159 0.229349
0.165512 0.152598 0.085735
0.172206 0.152725 0.086518
0.184925 0.153264 0.088205
0.202969 0.154415 0.090146
0.228132 0.157108 0.093259
0.261972 0.161757 0.098137
0.306147 0.168664 0.105049
0.362230 0.178034 0.114131
0.428917 0.189823 0.125303
0.503505 0.203804 0.138303
0.582827 0.219452 0.152748
0.662602 0.235923 0.167912
0.739370 0.252408 0.183050
0.810710 0.268183 0.197571
0.878851 0.283637 0.211862
0.948598 0.300476 0.227497
0.174508 0.170949 0.089465
0.178875 0.171023 0.090778
0.189257 0.171279 0.090866
0.207586 0.171094 0.092952
0.232079 0.173812 0.097169
0.265373 0.179089 0.102678
0.309242 0.187074 0.109875
0.365124 0.197893 0.119078
0.431645 0.211168 0.130229
0.506056 0.226361 0.143156
0.585205 0.242720 0.157454
0.664910 0.259377 0.172415
0.741407 0.275423 0.187300
0.812524 0.290354 0.201562
0.880447 0.304750 0.215565
0.949617 0.320912 0.230967
0.185743 0.195695 0.098425
0.188695 0.195741 0.099185
0.195658 0.195905 0.097314
0.214662 0.196425 0.098281
0.237777 0.196090 0.100929
0.271081 0.202521 0.107777
0.314665 0.212294 0.115913
0.370215 0.225412 0.125667
0.436480 0.241053 0.137111
0.510529 0.258223 0.150130
0.589335 0.276017 0.164407
0.668672 0.293242 0.179200
0.744929 0.309150 0.193844
0.815626 0.323219 0.207761
0.883331 0.336506 0.221430
0.951471 0.351779 0.236482
0.198957 0.228993 0.109920
0.200629 0.229036 0.109575
0.206007 0.229146 0.106670
0.224383 0.229646 0.107621
0.249397 0.230461 0.109059
0.277975 0.231027 0.112089
0.322373 0.243161 0.121387
0.377986 0.259294 0.132335
0.443893 0.278046 0.144679
0.517552 0.298053 0.158328
0.595785 0.317980 0.172951
0.674501 0.336450 0.187861
0.750198 0.352523 0.202390
0.820399 0.365872 0.216039
0.887685 0.377890 0.229365
0.954284 0.392369 0.243968
0.213963 0.273641 0.122608
0.215427 0.273679 0.122089
0.220111 0.273786 0.118591
0.238551 0.274301 0.119462
0.264038 0.275108 0.120832
0.294731 0.276304 0.122755
0.330617 0.279472 0.125815
0.387736 0.299230 0.137017
0.454032 0.321619 0.150708
0.527425 0.344842 0.165685
0.605094 0.367325 0.181383
0.682927 0.387248 0.197004
0.757883 0.403817 0.211942
0.827349 0.416645 0.225635
0.893895 0.427598 0.238836
0.958385 0.441254 0.253122
0.231928 0.333331 0.137062
0.233298 0.333395 0.136431
0.237971 0.333463 0.132609
0.257076 0.334029 0.133445
0.283767 0.334939 0.134709
0.316156 0.336251 0.136531
0.352593 0.337905 0.138916
0.397139 0.345218 0.141823
0.465442 0.371633 0.153401
0.539587 0.398216 0.169394
0.617181 0.423177 0.186904
0.694559 0.444686 0.204318
0.768335 0.461654 0.220560
0.836817 0.474009 0.235119
0.902286 0.483905 0.248742
0.963993 0.496830 0.262963
0.252995 0.409420 0.153010
0.254409 0.409453 0.152311
0.259339 0.409514 0.148327
0.279368 0.410134 0.149084
0.307538 0.411097 0.150347
0.341952 0.412433 0.152064
0.380745 0.414193 0.154325
0.422700 0.416448 0.157152
0.475410 0.427627 0.160476
0.551733 0.457751 0.170160
0.630511 0.485030 0.187300
0.708022 0.507779 0.206779
0.781421 0.524972 0.225521
0.848878 0.536576 0.242144
0.913219 0.545374 0.257266
0.971203 0.557307 0.271844
0.276932 0.498754 0.170188
0.278399 0.498785 0.169445
0.283618 0.498812 0.165391
0.304352 0.499378 0.166136
0.333732 0.500380 0.167306
0.369769 0.501679 0.168967
0.410720 0.503503 0.171154
0.455294 0.505714 0.173885
0.502477 0.508424 0.177179
0.562302 0.522316 0.180960
0.642993 0.552281 0.188378
0.721928 0.575738 0.204255
0.795712 0.592668 0.224680
0.862772 0.603232 0.244299
0.926416 0.610693 0.262125
0.979639 0.621201 0.277685
0.302970 0.595278 0.188268
0.304418 0.595276 0.187499
0.309840 0.595313 0.183446
0.330897 0.595950 0.184153
0.360878 0.596741 0.185293
0.398000 0.598094 0.186901
0.440464 0.599684 0.189010
0.487012 0.601912 0.191657
0.536571 0.604468 0.194843
0.588563 0.607545 0.198649
0.654316 0.622734 0.202849
0.734078 0.647287 0.209014
0.809652 0.663812 0.221050
0.877304 0.672883 0.241085
0.940733 0.678650 0.261828
0.988743 0.687529 0.278491
0.329763 0.690853 0.206638
0.331210 0.690888 0.205892
0.336718 0.690904 0.201950
0.357483 0.691442 0.202623
0.387408 0.692334 0.203687
0.424845 0.693499 0.205221
0.468052 0.695082 0.207259
0.515668 0.696905 0.209803
0.566665 0.699201 0.212898
0.620427 0.702104 0.216606
0.676600 0.705107 0.220855
0.746104 0.719828 0.225572
0.821706 0.736325 0.230317
0.890870 0.743925 0.238418
0.954633 0.747729 0.257553
0.996150 0.754460 0.273936
0.356064 0.778645 0.224781
0.357511 0.778667 0.224066
0.362962 0.778722 0.220294
0.382989 0.779256 0.220936
0.412115 0.779863 0.221977
0.449071 0.780848 0.223435
0.492123 0.782241 0.225382
0.539930 0.783978 0.227833
0.591432 0.785949 0.230753
0.645949 0.788383 0.234323
0.702928 0.791201 0.238418
0.762169 0.794498 0.243141
0.834206 0.808097 0.248336
0.903020 0.814955 0.251124
0.966396 0.817096 0.256683
0.999966 0.821028 0.268621
0.380749 0.856216 0.242183
0.382184 0.856212 0.241521
0.387459 0.856244 0.237977
0.406430 0.856632 0.238605
0.434343 0.857206 0.239554
0.470084 0.858133 0.240933
0.512200 0.859354 0.242794
0.559322 0.860828 0.245159
0.610401 0.862566 0.247973
0.664738 0.864691 0.251366
0.721628 0.867219 0.255271
0.780766 0.870031 0.259819
0.842171 0.873263 0.264936
0.915870 0.885765 0.270495
0.975847 0.886386 0.272063
1.005200 0.888346 0.277105
0.404460 0.925745 0.259482
0.405851 0.925743 0.258884
0.410879 0.925777 0.255570
0.428687 0.926038 0.256158
0.455146 0.926534 0.257101
0.489359 0.927258 0.258439
0.530031 0.928056 0.260184
0.575960 0.929210 0.262395
0.626071 0.930500 0.265137
0.679507 0.932049 0.268355
0.735645 0.933824 0.272109
0.794127 0.935722 0.276454
0.854808 0.937953 0.281283
0.917788 0.940304 0.286777
0.984456 0.950766 0.292759
1.013829 0.951301 0.297487
0.431443 1.004759 0.280463
0.432701 1.004768 0.279813
0.437563 1.004794 0.276669
0.454460 1.005038 0.277249
0.479702 1.005429 0.278161
0.512669 1.005981 0.279435
0.552171 1.006713 0.281134
0.597148 1.007638 0.283302
0.646434 1.008762 0.285918
0.699231 1.010100 0.289056
0.754760 1.011663 0.292686
0.812805 1.013454 0.296867
0.872995 1.015482 0.301620
0.935568 1.017745 0.306904
0.989917 1.020273 0.312869
1.023196 1.023069 0.319406
0.157354 0.130083 0.102603
0.162885 0.130761 0.102667
0.182217 0.133113 0.102982
0.202246 0.137477 0.098880
0.227441 0.143882 0.101571
0.261515 0.151576 0.108757
0.305902 0.160736 0.118928
0.362064 0.171533 0.131535
0.428799 0.183988 0.145869
0.503404 0.197987 0.161146
0.582656 0.213176 0.176696
0.662411 0.228906 0.191750
0.739126 0.244436 0.205676
0.810403 0.259221 0.218195
0.878610 0.273666 0.230057
0.948330 0.289363 0.243473
0.160654 0.136119 0.102882
0.168598 0.139521 0.102980
0.184199 0.140573 0.103291
0.202497 0.143460 0.100629
0.227733 0.148233 0.103548
0.261734 0.154760 0.110165
0.306064 0.163141 0.119642
0.362180 0.173413 0.131672
0.428917 0.185495 0.145485
0.503504 0.199242 0.160350
0.582765 0.214250 0.175581
0.662607 0.229847 0.190409
0.739219 0.245275 0.204234
0.810483 0.259978 0.216692
0.878662 0.274354 0.228560
0.948421 0.290038 0.241968
0.167217 0.151769 0.104050
0.173402 0.153105 0.104142
0.185558 0.153746 0.104196
0.203368 0.155595 0.104019
0.228541 0.158689 0.107125
0.262388 0.163486 0.112521
0.306580 0.170316 0.120263
0.362610 0.179294 0.130404
0.429255 0.190408 0.142431
0.503782 0.203388 0.155771
0.583036 0.217809 0.169817
0.662910 0.232986 0.183882
0.739526 0.248097 0.197299
0.810751 0.262566 0.209650
0.878833 0.276758 0.221583
0.948586 0.293286 0.236277
0.175158 0.171154 0.105061
0.179415 0.171240 0.105456
0.190377 0.171526 0.106595
0.206915 0.172390 0.108374
0.231061 0.174089 0.110563
0.264278 0.177392 0.114113
0.308082 0.182879 0.119481
0.363905 0.190803 0.126944
0.430382 0.201338 0.136633
0.504796 0.214187 0.148346
0.583972 0.228904 0.161716
0.663749 0.244626 0.175999
0.740248 0.260485 0.190448
0.811556 0.275793 0.204487
0.879636 0.290832 0.218344
0.949058 0.307294 0.233548
0.186255 0.195867 0.111817
0.189149 0.195915 0.112315
0.197728 0.196077 0.112938
0.213014 0.196488 0.111826
0.237503 0.196918 0.114490
0.270115 0.201793 0.119378
0.313421 0.209457 0.125588
0.368827 0.220109 0.133614
0.434982 0.233314 0.143605
0.509054 0.248377 0.155450
0.587923 0.264501 0.168766
0.667427 0.280718 0.182903
0.743646 0.296147 0.197064
0.814560 0.310322 0.210723
0.882451 0.323907 0.224213
0.950861 0.339360 0.239090
0.199544 0.229159 0.122987
0.201624 0.229198 0.123171
0.208255 0.229332 0.122546
0.220782 0.229639 0.119089
0.247476 0.230486 0.120388
0.277923 0.231509 0.123457
0.321604 0.241723 0.131313
0.376774 0.255702 0.140671
0.442456 0.272324 0.151601
0.516006 0.290327 0.164041
0.594297 0.308672 0.177672
0.673047 0.325995 0.191814
0.748815 0.341500 0.205838
0.819270 0.354697 0.219156
0.886584 0.366893 0.232226
0.953621 0.381411 0.246700
0.214827 0.273830 0.136677
0.216419 0.273861 0.136437
0.221574 0.273959 0.134221
0.232774 0.274218 0.129175
0.260244 0.275080 0.130471
0.292907 0.276341 0.132249
0.330628 0.279624 0.135350
0.387127 0.297305 0.145677
0.452978 0.317725 0.158222
0.526039 0.339143 0.172047
0.603613 0.360021 0.186735
0.681541 0.378905 0.201553
0.756514 0.394747 0.215847
0.826070 0.407276 0.229131
0.892677 0.418202 0.241981
0.957655 0.431816 0.256048
0.231904 0.333557 0.151525
0.233214 0.333592 0.150905
0.238024 0.333670 0.147797
0.249045 0.333899 0.141775
0.277941 0.334831 0.143014
0.312499 0.336199 0.144788
0.350957 0.337911 0.147077
0.397242 0.345230 0.149968
