assets/luts/Medieval.cube
LUT_3D_SIZE 6
0.148179 0.122036 0.055382
0.200325 0.135422 0.070529
0.305095 0.158603 0.094689
0.502814 0.197696 0.132390
0.738903 0.247957 0.178931
0.948211 0.296823 0.224232
0.172174 0.170812 0.076680
0.207802 0.170018 0.080188
0.310096 0.189207 0.103643
0.506979 0.233460 0.140375
0.742173 0.284380 0.185831
0.950047 0.329292 0.229828
0.212581 0.273543 0.112277
0.241865 0.274347 0.113770
0.330566 0.279358 0.120264
0.528225 0.348365 0.162135
0.758741 0.409337 0.209917
0.958897 0.447138 0.251724
0.278616 0.498606 0.161330
0.311179 0.499510 0.162548
0.413700 0.503570 0.167570
0.562279 0.522357 0.177371
0.796161 0.595159 0.221375
0.980128 0.624576 0.275252
0.358922 0.778615 0.216907
0.390656 0.779307 0.217935
0.496586 0.782307 0.222396
0.647852 0.788387 0.231275
0.834205 0.808085 0.245261
0.999966 0.822291 0.265497
0.434112 1.004708 0.273525
0.461001 1.005097 0.274418
0.556723 1.006766 0.278295
0.701858 1.010137 0.286234
0.874169 1.015494 0.298737
1.023175 1.023048 0.316553
0.157354 0.130083 0.102603
0.202246 0.137477 0.098880
0.305902 0.160736 0.118928
0.503404 0.197987 0.161146
0.739126 0.244436 0.205676
0.948330 0.289363 0.243473
0.175158 0.171154 0.105061
0.206915 0.172390 0.108374
0.308082 0.182879 0.119481
0.504796 0.214187 0.148346
0.740248 0.260485 0.190448
0.949058 0.307294 0.233548
0.214827 0.273830 0.136677
0.232774 0.274218 0.129175
0.330628 0.279624 0.135350
0.526039 0.339143 0.172047
0.756514 0.394747 0.215847
0.957655 0.431816 0.256048
0.273910 0.498914 0.184027
0.292684 0.499193 0.172775
0.405933 0.503422 0.177773
0.562424 0.522274 0.187586
0.795009 0.588644 0.230820
0.978904 0.616012 0.282230
0.351185 0.778805 0.237521
0.370277 0.779029 0.226588
0.484824 0.782139 0.230989
0.643009 0.788402 0.240024
0.834216 0.807964 0.254131
0.999934 0.818993 0.274485
0.426991 1.004843 0.291746
0.443923 1.004955 0.282599
0.545038 1.006643 0.286510
0.695192 1.010053 0.294402
0.871435 1.015471 0.307032
1.023231 1.023110 0.324865
0.170908 0.141984 0.196997
0.213792 0.146182 0.197748
0.315457 0.158550 0.200496
0.511187 0.194843 0.259954
0.743421 0.243665 0.313814
0.950404 0.289960 0.347571
0.186394 0.181437 0.199778
0.210556 0.174631 0.199175
0.317367 0.181590 0.203760
0.511286 0.211045 0.252944
0.743710 0.255209 0.300815
0.950427 0.298967 0.332902
0.217311 0.274962 0.211794
0.235517 0.275506 0.212434
0.328898 0.281050 0.216336
0.519329 0.305524 0.234723
0.751218 0.342981 0.265670
0.954901 0.382287 0.300493
0.272850 0.500320 0.283493
0.285459 0.500590 0.273422
0.379588 0.503669 0.247954
0.563457 0.521048 0.257298
0.790910 0.567479 0.296107
0.974875 0.591032 0.335439
0.337524 0.779885 0.339065
0.348298 0.780030 0.322602
0.446732 0.782167 0.296079
0.628726 0.788698 0.304923
0.835076 0.807475 0.318866
0.999185 0.809938 0.339610
0.402691 1.005415 0.372854
0.414676 1.005536 0.358439
0.512315 1.006830 0.348789
0.677462 1.010302 0.356329
0.864679 1.015805 0.368390
1.023698 1.023577 0.385353
0.188395 0.156255 0.376899
0.237472 0.159284 0.377759
0.360246 0.170098 0.381201
0.524048 0.187283 0.407891
0.759189 0.228783 0.469934
0.959399 0.282573 0.496187
0.200699 0.200622 0.379816
0.219582 0.181014 0.378690
0.354291 0.188700 0.382321
0.525469 0.203053 0.408655
0.759271 0.241873 0.464240
0.959061 0.292783 0.488448
0.232454 0.321313 0.392134
0.246447 0.312261 0.391530
0.339711 0.282932 0.391746
0.536314 0.294063 0.412197
0.763013 0.326718 0.444302
0.959921 0.365608 0.463220
0.277074 0.503017 0.425716
0.289664 0.503509 0.425576
0.374214 0.506765 0.424128
0.564921 0.518469 0.429418
0.784988 0.548730 0.453736
0.970806 0.578472 0.478828
0.341288 0.781949 0.502975
0.352026 0.782157 0.496768
0.428545 0.784402 0.472815
0.619785 0.791020 0.467655
0.837349 0.806441 0.479071
0.996959 0.807483 0.500982
0.405825 1.006558 0.536640
0.415547 1.006693 0.528318
0.485884 1.008018 0.500076
0.674172 1.012059 0.510837
0.866066 1.017375 0.520345
1.025001 1.024880 0.533686
0.207165 0.169866 0.596196
0.262337 0.172135 0.596907
0.401415 0.181010 0.599413
0.564471 0.196414 0.604783
0.771976 0.218199 0.639175
0.976044 0.261218 0.658679
0.214520 0.217491 0.598412
0.233566 0.189870 0.597435
0.389637 0.197017 0.600159
0.560752 0.210533 0.605446
0.773088 0.230926 0.639445
0.976124 0.272519 0.655649
0.243379 0.358049 0.607866
0.255597 0.341615 0.607091
0.352201 0.288516 0.606922
0.555289 0.299173 0.612455
0.781379 0.316760 0.641235
0.977330 0.352731 0.646056
0.287856 0.551395 0.626282
0.298745 0.545070 0.625991
0.379538 0.525425 0.626600
0.573794 0.521051 0.632495
0.802928 0.536923 0.648105
0.978417 0.564653 0.647770
0.347260 0.785290 0.666597
0.358041 0.785549 0.666335
0.434074 0.787952 0.665338
0.614148 0.794537 0.664117
0.840914 0.806081 0.669345
0.995560 0.823181 0.690755
0.410833 1.008385 0.698406
0.420547 1.008543 0.695411
0.490470 1.009894 0.685465
0.660777 1.013880 0.679088
0.883178 1.020102 0.699364
1.027020 1.026899 0.707817
0.224781 0.181610 0.770422
0.279329 0.183369 0.770827
0.421465 0.190470 0.772445
0.590663 0.203558 0.775820
0.771317 0.222637 0.781108
0.987449 0.248052 0.811885
0.226595 0.226486 0.771835
0.248300 0.198953 0.771217
0.407112 0.205087 0.772920
0.584151 0.216909 0.776429
0.769462 0.234879 0.781698
0.987928 0.259553 0.812036
0.251168 0.372072 0.777971
0.262944 0.352386 0.777424
0.364385 0.294916 0.777713
0.569052 0.304500 0.781111
0.769935 0.319996 0.786702
0.991423 0.342713 0.813874
0.291741 0.569200 0.790434
0.302157 0.559321 0.790004
0.382717 0.528060 0.790733
0.583848 0.526575 0.797250
0.793259 0.539409 0.804518
0.997471 0.558704 0.825615
0.347317 0.785743 0.817729
0.357255 0.782455 0.817454
0.432262 0.775009 0.819327
0.614376 0.779891 0.830471
0.846514 0.808484 0.886955
1.004237 0.820573 0.911255
0.418065 1.010955 0.917226
0.427764 1.011138 0.917442
0.497151 1.012529 0.918940
0.665984 1.016413 0.922966
0.883215 1.022396 0.929310
1.029307 1.029186 0.936383
