assets/luts/Milky.cube
LUT_3D_SIZE 16
0.213117 0.213117 0.213117
0.249193 0.213117 0.213117
0.284126 0.213117 0.213117
0.320859 0.213117 0.213117
0.360705 0.213117 0.213117
0.404061 0.213117 0.213117
0.450505 0.213117 0.213117
0.499538 0.213117 0.213117
0.550690 0.213117 0.213117
0.604040 0.213117 0.213117
0.659042 0.213117 0.213117
0.714837 0.213117 0.213117
0.770641 0.213117 0.213117
0.825473 0.213117 0.213117
0.879685 0.213117 0.213117
0.905781 0.213117 0.213117
0.213117 0.249193 0.213117
0.249193 0.249193 0.213117
0.284126 0.229012 0.213117
0.320859 0.223375 0.213117
0.360705 0.221000 0.213117
0.404061 0.219760 0.213117
0.450505 0.219061 0.213117
0.499538 0.218618 0.213117
0.550690 0.218321 0.213117
0.604040 0.218127 0.213117
0.659042 0.217993 0.213117
0.714837 0.217893 0.213117
0.770641 0.217797 0.213117
0.825473 0.217710 0.213117
0.879685 0.217621 0.213117
0.905781 0.217226 0.213117
0.213117 0.284126 0.213117
0.229012 0.284126 0.213117
0.284126 0.284126 0.213117
0.320859 0.261296 0.213117
0.360705 0.250961 0.213117
0.404061 0.245480 0.213117
0.450505 0.242245 0.213117
0.499538 0.240195 0.213117
0.550690 0.238833 0.213117
0.604040 0.237935 0.213117
0.659042 0.237319 0.213117
0.714837 0.236847 0.213117
0.770641 0.236436 0.213117
0.825473 0.236009 0.213117
0.879685 0.235584 0.213117
0.905781 0.233724 0.213117
0.213117 0.320859 0.213117
0.223375 0.320859 0.213117
0.261296 0.320859 0.213117
0.320859 0.320859 0.213117
0.360705 0.299988 0.213117
0.404061 0.288541 0.213117
0.450505 0.281662 0.213117
0.499538 0.277237 0.213117
0.550690 0.274281 0.213117
0.604040 0.272325 0.213117
0.659042 0.270958 0.213117
0.714837 0.269938 0.213117
0.770641 0.269022 0.213117
0.825473 0.268077 0.213117
0.879685 0.267148 0.213117
0.905781 0.262960 0.213117
0.213117 0.360705 0.213117
0.221000 0.360705 0.213117
0.250961 0.360705 0.213117
0.299988 0.360705 0.213117
0.360705 0.360705 0.213117
0.404061 0.342954 0.213117
0.450505 0.332103 0.213117
0.499538 0.325099 0.213117
0.550690 0.320370 0.213117
0.604040 0.317215 0.213117
0.659042 0.315030 0.213117
0.714837 0.313373 0.213117
0.770641 0.311882 0.213117
0.825473 0.310353 0.213117
0.879685 0.308827 0.213117
0.905781 0.302004 0.213117
0.213117 0.404061 0.213117
0.219760 0.404061 0.213117
0.245480 0.404061 0.213117
0.288541 0.404061 0.213117
0.342954 0.404061 0.213117
0.404061 0.404061 0.213117
0.450505 0.389305 0.213117
0.499538 0.379687 0.213117
0.550690 0.373151 0.213117
0.604040 0.368804 0.213117
0.659042 0.365789 0.213117
0.714837 0.363475 0.213117
0.770641 0.361416 0.213117
0.825473 0.359297 0.213117
0.879685 0.357164 0.213117
0.905781 0.347618 0.213117
0.213117 0.450505 0.213117
0.219061 0.450505 0.213117
0.242245 0.450505 0.213117
0.281662 0.450505 0.213117
0.332103 0.450505 0.213117
0.389305 0.450505 0.213117
0.450505 0.450505 0.213117
0.499538 0.438332 0.213117
0.550690 0.430048 0.213117
0.604040 0.424520 0.213117
0.659042 0.420666 0.213117
0.714837 0.417710 0.213117
0.770641 0.415084 0.213117
0.825473 0.412386 0.213117
0.879685 0.409685 0.213117
0.905781 0.397436 0.213117
0.213117 0.499538 0.213117
0.218618 0.499538 0.213117
0.240195 0.499538 0.213117
0.277237 0.499538 0.213117
0.325099 0.499538 0.213117
0.379687 0.499538 0.213117
0.438332 0.499538 0.213117
0.499538 0.499538 0.213117
0.550690 0.489559 0.213117
0.604040 0.482861 0.213117
0.659042 0.478212 0.213117
0.714837 0.474641 0.213117
0.770641 0.471484 0.213117
0.825473 0.468180 0.213117
0.879685 0.464911 0.213117
0.905781 0.450035 0.213117
0.213117 0.550690 0.213117
0.218321 0.550690 0.213117
0.238833 0.550690 0.213117
0.274281 0.550690 0.213117
0.320370 0.550690 0.213117
0.373151 0.550690 0.213117
0.430048 0.550690 0.213117
0.489559 0.550690 0.213117
0.550690 0.550690 0.213117
0.604040 0.542868 0.213117
0.659042 0.537416 0.213117
0.714837 0.533247 0.213117
0.770641 0.529537 0.213117
0.825473 0.525655 0.213117
0.879685 0.521847 0.213117
0.905781 0.504383 0.213117
0.213117 0.604040 0.213117
0.218127 0.604040 0.213117
0.237935 0.604040 0.213117
0.272325 0.604040 0.213117
0.317215 0.604040 0.213117
0.368804 0.604040 0.213117
0.424520 0.604040 0.213117
0.482861 0.604040 0.213117
0.542868 0.604040 0.213117
0.604040 0.604040 0.213117
0.659042 0.597787 0.213117
0.714837 0.593023 0.213117
0.770641 0.588771 0.213117
0.825473 0.584375 0.213117
0.879685 0.579964 0.213117
0.905781 0.560030 0.213117
0.213117 0.659042 0.213117
0.217993 0.659042 0.213117
0.237319 0.659042 0.213117
0.270958 0.659042 0.213117
0.315030 0.659042 0.213117
0.365789 0.659042 0.213117
0.420666 0.659042 0.213117
0.478212 0.659042 0.213117
0.537416 0.659042 0.213117
0.597787 0.659042 0.213117
0.659042 0.659042 0.213117
0.714837 0.653664 0.213117
0.770641 0.648874 0.213117
0.825473 0.643895 0.213117
0.879685 0.638983 0.213117
0.905781 0.616534 0.213117
0.213117 0.714837 0.213117
0.217893 0.714837 0.213117
0.236847 0.714837 0.213117
0.269938 0.714837 0.213117
0.313373 0.714837 0.213117
0.363475 0.714837 0.213117
0.417710 0.714837 0.213117
0.474641 0.714837 0.213117
0.533247 0.714837 0.213117
0.593023 0.714837 0.213117
0.653664 0.714837 0.213117
0.714837 0.714837 0.213117
0.770641 0.709573 0.213117
0.825473 0.704059 0.213117
0.879685 0.698587 0.213117
0.905781 0.673607 0.213117
0.213117 0.770641 0.213117
0.217797 0.770641 0.213117
0.236436 0.770641 0.213117
0.269022 0.770641 0.213117
0.311882 0.770641 0.213117
0.361416 0.770641 0.213117
0.415084 0.770641 0.213117
0.471484 0.770641 0.213117
0.529537 0.770641 0.213117
0.588771 0.770641 0.213117
0.648874 0.770641 0.213117
0.709573 0.770641 0.213117
0.770641 0.770641 0.213117
0.825473 0.764591 0.213117
0.879685 0.758587 0.213117
0.905781 0.731260 0.213117
0.213117 0.825473 0.213117
0.217710 0.825473 0.213117
0.236009 0.825473 0.213117
0.268077 0.825473 0.213117
0.310353 0.825473 0.213117
0.359297 0.825473 0.213117
0.412386 0.825473 0.213117
0.468180 0.825473 0.213117
0.525655 0.825473 0.213117
0.584375 0.825473 0.213117
0.643895 0.825473 0.213117
0.704059 0.825473 0.213117
0.764591 0.825473 0.213117
0.825473 0.825473 0.213117
0.879685 0.818905 0.213117
0.905781 0.789110 0.213117
0.213117 0.879685 0.213117
0.217621 0.879685 0.213117
0.235584 0.879685 0.213117
0.267148 0.879685 0.213117
0.308827 0.879685 0.213117
0.357164 0.879685 0.213117
0.409685 0.879685 0.213117
0.464911 0.879685 0.213117
0.521847 0.879685 0.213117
0.579964 0.879685 0.213117
0.638983 0.879685 0.213117
0.698587 0.879685 0.213117
0.758587 0.879685 0.213117
0.818905 0.879685 0.213117
0.879685 0.879685 0.213117
0.905781 0.847389 0.213117
0.213117 0.905781 0.213117
0.217226 0.905781 0.213117
0.233724 0.905781 0.213117
0.262960 0.905781 0.213117
0.302004 0.905781 0.213117
0.347618 0.905781 0.213117
0.397436 0.905781 0.213117
0.450035 0.905781 0.213117
0.504383 0.905781 0.213117
0.560030 0.905781 0.213117
0.616534 0.905781 0.213117
0.673607 0.905781 0.213117
0.731260 0.905781 0.213117
0.789110 0.905781 0.213117
0.847389 0.905781 0.213117
0.905781 0.905781 0.213117
0.213117 0.213117 0.249193
0.249193 0.213117 0.249193
0.284126 0.213117 0.229012
0.320859 0.213117 0.223375
0.360705 0.213117 0.221000
0.404061 0.213117 0.219760
0.450505 0.213117 0.219061
0.499538 0.213117 0.218618
0.550690 0.213117 0.218321
0.604040 0.213117 0.218127
0.659042 0.213117 0.217993
0.714837 0.213117 0.217893
0.770641 0.213117 0.217797
0.825473 0.213117 0.217710
0.879685 0.213117 0.217621
0.905781 0.213117 0.217226
0.213117 0.249193 0.249193
0.249193 0.249193 0.249193
0.284126 0.249193 0.249193
0.320859 0.249193 0.249193
0.360705 0.249193 0.249193
0.404061 0.249193 0.249193
0.450505 0.249193 0.249193
0.499538 0.249193 0.249193
0.550690 0.249193 0.249193
0.604040 0.249193 0.249193
0.659042 0.249193 0.249193
0.714837 0.249193 0.249193
0.770641 0.249193 0.249193
0.825473 0.249193 0.249193
0.879685 0.249193 0.249193
0.905781 0.249193 0.249193
0.213117 0.284126 0.229012
0.249193 0.284126 0.249193
0.284126 0.284126 0.249193
0.320859 0.275760 0.249193
0.360705 0.271431 0.249193
0.404061 0.268965 0.249193
0.450505 0.267440 0.249193
0.499538 0.266442 0.249193
0.550690 0.265776 0.249193
0.604040 0.265332 0.249193
0.659042 0.265025 0.249193
0.714837 0.264795 0.249193
0.770641 0.264571 0.249193
0.825473 0.264329 0.249193
0.879685 0.264074 0.249193
0.905781 0.262815 0.249193
0.213117 0.320859 0.223375
0.249193 0.320859 0.249193
0.275760 0.320859 0.249193
0.320859 0.320859 0.249193
0.360705 0.310098 0.249193
0.404061 0.303840 0.249193
0.450505 0.299943 0.249193
0.499538 0.297355 0.249193
0.550690 0.295602 0.249193
0.604040 0.294443 0.249193
0.659042 0.293660 0.249193
0.714837 0.293043 0.249193
0.770641 0.292467 0.249193
0.825473 0.291833 0.249193
0.879685 0.291165 0.249193
0.905781 0.287802 0.249193
0.213117 0.360705 0.221000
0.249193 0.360705 0.249193
0.271431 0.360705 0.249193
0.310098 0.360705 0.249193
0.360705 0.360705 0.249193
0.404061 0.350167 0.249193
0.450505 0.343510 0.249193
0.499538 0.339076 0.249193
0.550690 0.336049 0.249193
0.604040 0.334021 0.249193
0.659042 0.332671 0.249193
0.714837 0.331582 0.249193
0.770641 0.330574 0.249193
0.825473 0.329455 0.249193
0.879685 0.328294 0.249193
0.905781 0.322385 0.249193
0.213117 0.404061 0.219760
0.249193 0.404061 0.249193
0.268965 0.404061 0.249193
0.303840 0.404061 0.249193
0.350167 0.404061 0.249193
0.404061 0.404061 0.249193
0.450505 0.394578 0.249193
0.499538 0.388220 0.249193
0.550690 0.383866 0.249193
0.604040 0.380984 0.249193
0.659042 0.379016 0.249193
0.714837 0.377450 0.249193
0.770641 0.375991 0.249193
0.825473 0.374348 0.249193
0.879685 0.372657 0.249193
0.905781 0.364042 0.249193
0.213117 0.450505 0.219061
0.249193 0.450505 0.249193
0.267440 0.450505 0.249193
0.299943 0.450505 0.249193
0.343510 0.450505 0.249193
0.394578 0.450505 0.249193
0.450505 0.450505 0.249193
0.499538 0.442271 0.249193
0.550690 0.436590 0.249193
0.604040 0.432835 0.249193
0.659042 0.430231 0.249193
0.714837 0.428193 0.249193
0.770641 0.426300 0.249193
0.825473 0.424140 0.249193
0.879685 0.421944 0.249193
0.905781 0.410637 0.249193
0.213117 0.499538 0.218618
0.249193 0.499538 0.249193
0.266442 0.499538 0.249193
0.297355 0.499538 0.249193
0.339076 0.499538 0.249193
0.388220 0.499538 0.249193
0.442271 0.499538 0.249193
0.499538 0.499538 0.249193
0.550690 0.492579 0.249193
0.604040 0.487956 0.249193
0.659042 0.484763 0.249193
0.714837 0.482266 0.249193
0.770641 0.479903 0.249193
0.825473 0.477273 0.249193
0.879685 0.474536 0.249193
0.905781 0.460577 0.249193
0.213117 0.550690 0.218321
0.249193 0.550690 0.249193
0.265776 0.550690 0.249193
0.295602 0.550690 0.249193
0.336049 0.550690 0.249193
0.383866 0.550690 0.249193
0.436590 0.550690 0.249193
0.492579 0.550690 0.249193
0.550690 0.550690 0.249193
0.604040 0.545217 0.249193
0.659042 0.541449 0.249193
0.714837 0.538486 0.249193
0.770641 0.535722 0.249193
0.825473 0.532584 0.249193
0.879685 0.529343 0.249193
0.905781 0.512767 0.249193
0.213117 0.604040 0.218127
0.249193 0.604040 0.249193
0.265332 0.604040 0.249193
0.294443 0.604040 0.249193
0.334021 0.604040 0.249193
0.380984 0.604040 0.249193
0.432835 0.604040 0.249193
0.487956 0.604040 0.249193
0.545217 0.604040 0.249193
0.604040 0.604040 0.249193
0.659042 0.599692 0.249193
0.714837 0.596253 0.249193
0.770641 0.593069 0.249193
0.825473 0.589437 0.249193
0.879685 0.585736 0.249193
0.905781 0.566590 0.249193
0.213117 0.659042 0.217993
0.249193 0.659042 0.249193
0.265025 0.659042 0.249193
0.293660 0.659042 0.249193
0.332671 0.659042 0.249193
0.379016 0.659042 0.249193
0.430231 0.659042 0.249193
0.484763 0.659042 0.249193
0.541449 0.659042 0.249193
0.599692 0.659042 0.249193
0.659042 0.659042 0.249193
0.714837 0.655149 0.249193
0.770641 0.651530 0.249193
0.825473 0.647477 0.249193
0.879685 0.643251 0.249193
0.905781 0.621587 0.249193
0.213117 0.714837 0.217893
0.249193 0.714837 0.249193
0.264795 0.714837 0.249193
0.293043 0.714837 0.249193
0.331582 0.714837 0.249193
0.377450 0.714837 0.249193
0.428193 0.714837 0.249193
0.482266 0.714837 0.249193
0.538486 0.714837 0.249193
0.596253 0.714837 0.249193
0.655149 0.714837 0.249193
0.714837 0.714837 0.249193
0.770641 0.710760 0.249193
0.825473 0.706254 0.249193
0.879685 0.701582 0.249193
0.905781 0.677458 0.249193
0.213117 0.770641 0.217797
0.249193 0.770641 0.249193
0.264571 0.770641 0.249193
0.292467 0.770641 0.249193
0.330574 0.770641 0.249193
0.375991 0.770641 0.249193
0.426300 0.770641 0.249193
0.479903 0.770641 0.249193
0.535722 0.770641 0.249193
0.593069 0.770641 0.249193
0.651530 0.770641 0.249193
0.710760 0.770641 0.249193
0.770641 0.770641 0.249193
0.825473 0.765657 0.249193
0.879685 0.760433 0.249193
0.905781 0.733903 0.249193
0.213117 0.825473 0.217710
0.249193 0.825473 0.249193
0.264329 0.825473 0.249193
0.291833 0.825473 0.249193
0.329455 0.825473 0.249193
0.374348 0.825473 0.249193
0.424140 0.825473 0.249193
0.477273 0.825473 0.249193
0.532584 0.825473 0.249193
0.589437 0.825473 0.249193
0.647477 0.825473 0.249193
0.706254 0.825473 0.249193
0.765657 0.825473 0.249193
0.825473 0.825473 0.249193
0.879685 0.819794 0.249193
0.905781 0.790803 0.249193
0.213117 0.879685 0.217621
0.249193 0.879685 0.249193
0.264074 0.879685 0.249193
0.291165 0.879685 0.249193
0.328294 0.879685 0.249193
0.372657 0.879685 0.249193
0.421944 0.879685 0.249193
0.474536 0.879685 0.249193
0.529343 0.879685 0.249193
0.585736 0.879685 0.249193
0.643251 0.879685 0.249193
0.701582 0.879685 0.249193
0.760433 0.879685 0.249193
0.819794 0.879685 0.249193
0.879685 0.879685 0.249193
0.905781 0.848216 0.249193
0.213117 0.905781 0.217226
0.249193 0.905781 0.249193
0.262815 0.905781 0.249193
0.287802 0.905781 0.249193
0.322385 0.905781 0.249193
0.364042 0.905781 0.249193
0.410637 0.905781 0.249193
0.460577 0.905781 0.249193
0.512767 0.905781 0.249193
0.566590 0.905781 0.249193
0.621587 0.905781 0.249193
0.677458 0.905781 0.249193
0.733903 0.905781 0.249193
0.790803 0.905781 0.249193
0.848216 0.905781 0.249193
0.905781 0.905781 0.249193
0.213117 0.213117 0.284126
0.229012 0.213117 0.284126
0.284126 0.213117 0.284126
0.320859 0.213117 0.261296
0.360705 0.213117 0.250961
0.404061 0.213117 0.245480
0.450505 0.213117 0.242245
0.499538 0.213117 0.240195
0.550690 0.213117 0.238833
0.604040 0.213117 0.237935
0.659042 0.213117 0.237319
0.714837 0.213117 0.236847
0.770641 0.213117 0.236436
0.825473 0.213117 0.236009
0.879685 0.213117 0.235584
0.905781 0.213117 0.233724
0.213117 0.229012 0.284126
0.249193 0.249193 0.284126
0.284126 0.249193 0.284126
0.320859 0.249193 0.275760
0.360705 0.249193 0.271431
0.404061 0.249193 0.268965
0.450505 0.249193 0.267440
0.499538 0.249193 0.266442
0.550690 0.249193 0.265776
0.604040 0.249193 0.265332
0.659042 0.249193 0.265025
0.714837 0.249193 0.264795
0.770641 0.249193 0.264571
0.825473 0.249193 0.264329
0.879685 0.249193 0.264074
0.905781 0.249193 0.262815
0.213117 0.284126 0.284126
0.249193 0.284126 0.284126
0.284126 0.284126 0.284126
0.320859 0.284126 0.284126
0.360705 0.284126 0.284126
0.404061 0.284126 0.284126
0.450505 0.284126 0.284126
0.499538 0.284126 0.284126
0.550690 0.284126 0.284126
0.604040 0.284126 0.284126
0.659042 0.284126 0.284126
0.714838 0.284126 0.284126
0.770641 0.284126 0.284126
0.825473 0.284126 0.284126
0.879685 0.284126 0.284126
0.905781 0.284126 0.284126
0.213117 0.320859 0.261296
0.249193 0.320859 0.275760
0.284126 0.320859 0.284126
0.320859 0.320859 0.284126
0.360705 0.316695 0.284126
0.404061 0.314188 0.284126
0.450505 0.312521 0.284126
0.499538 0.311414 0.284126
0.550690 0.310650 0.284126
0.604040 0.310159 0.284126
0.659042 0.309805 0.284126
0.714838 0.309538 0.284126
0.770641 0.309264 0.284126
0.825473 0.308922 0.284126
0.879685 0.308575 0.284126
0.905781 0.306516 0.284126
0.213117 0.360705 0.250961
0.249193 0.360705 0.271431
0.284126 0.360705 0.284126
0.316695 0.360705 0.284126
0.360705 0.360705 0.284126
0.404061 0.355201 0.284126
0.450505 0.351589 0.284126
0.499538 0.349139 0.284126
0.550690 0.347432 0.284126
0.604040 0.346316 0.284126
0.659042 0.345563 0.284126
0.714838 0.344965 0.284126
0.770641 0.344353 0.284126
0.825473 0.343618 0.284126
0.879685 0.342793 0.284126
0.905781 0.338202 0.284126
0.213117 0.404061 0.245480
0.249193 0.404061 0.268965
0.284126 0.404061 0.284126
0.314188 0.404061 0.284126
0.355201 0.404061 0.284126
0.404061 0.404061 0.284126
0.450505 0.398408 0.284126
0.499538 0.394552 0.284126
0.550690 0.391824 0.284126
0.604040 0.390075 0.284126
0.659042 0.388880 0.284126
0.714838 0.387921 0.284126
0.770641 0.386953 0.284126
0.825473 0.385731 0.284126
0.879685 0.384460 0.284126
0.905781 0.377120 0.284126
0.213117 0.450505 0.242245
0.249193 0.450505 0.267440
0.284126 0.450505 0.284126
0.312521 0.450505 0.284126
0.351589 0.450505 0.284126
0.398408 0.450505 0.284126
0.450505 0.450505 0.284126
0.499538 0.445224 0.284126
0.550690 0.441515 0.284126
0.604040 0.439133 0.284126
0.659042 0.437492 0.284126
0.714838 0.436182 0.284126
0.770641 0.434834 0.284126
0.825473 0.433193 0.284126
0.879685 0.431416 0.284126
0.905781 0.421266 0.284126
0.213117 0.499538 0.240195
0.249193 0.499538 0.266442
0.284126 0.499538 0.284126
0.311414 0.499538 0.284126
0.349139 0.499538 0.284126
0.394552 0.499538 0.284126
0.445224 0.499538 0.284126
0.499538 0.499538 0.284126
0.550690 0.494869 0.284126
0.604040 0.491844 0.284126
0.659042 0.489782 0.284126
0.714838 0.488116 0.284126
0.770641 0.486430 0.284126
0.825473 0.484343 0.284126
0.879685 0.482082 0.284126
0.905781 0.469159 0.284126
0.213117 0.550690 0.238833
0.249193 0.550690 0.265776
0.284126 0.550690 0.284126
0.310650 0.550690 0.284126
0.347432 0.550690 0.284126
0.391824 0.550690 0.284126
0.441515 0.550690 0.284126
0.494869 0.550690 0.284126
0.550690 0.550690 0.284126
0.604040 0.547057 0.284126
0.659042 0.544574 0.284126
0.714838 0.542537 0.284126
0.770641 0.540510 0.284126
0.825473 0.537982 0.284126
0.879685 0.535251 0.284126
0.905781 0.519652 0.284126
0.213117 0.604040 0.237935
0.249193 0.604040 0.265332
0.284126 0.604040 0.284126
0.310159 0.604040 0.284126
0.346316 0.604040 0.284126
0.390075 0.604040 0.284126
0.439133 0.604040 0.284126
0.491844 0.604040 0.284126
0.547057 0.604040 0.284126
0.604040 0.604040 0.284126
0.659042 0.601127 0.284126
0.714838 0.598790 0.284126
0.770641 0.596396 0.284126
0.825473 0.593456 0.284126
0.879685 0.590280 0.284126
0.905781 0.572045 0.284126
0.213117 0.659042 0.237319
0.249193 0.659042 0.265025
0.284126 0.659042 0.284126
0.309805 0.659042 0.284126
0.345563 0.659042 0.284126
0.388880 0.659042 0.284126
0.437492 0.659042 0.284126
0.489782 0.659042 0.284126
0.544574 0.659042 0.284126
0.601127 0.659042 0.284126
0.659042 0.659042 0.284126
0.714838 0.656374 0.284126
0.770641 0.653655 0.284126
0.825473 0.650261 0.284126
0.879685 0.646651 0.284126
0.905781 0.625822 0.284126
0.213117 0.714837 0.236847
0.249193 0.714837 0.264795
0.284126 0.714838 0.284126
0.309538 0.714838 0.284126
0.344965 0.714838 0.284126
0.387921 0.714838 0.284126
0.436182 0.714838 0.284126
0.488116 0.714838 0.284126
0.542537 0.714838 0.284126
0.598790 0.714838 0.284126
0.656374 0.714838 0.284126
0.714838 0.714838 0.284126
0.770641 0.711827 0.284126
0.825473 0.708011 0.284126
0.879685 0.703969 0.284126
0.905781 0.680581 0.284126
0.213117 0.770641 0.236436
0.249193 0.770641 0.264571
0.284126 0.770641 0.284126
0.309264 0.770641 0.284126
0.344353 0.770641 0.284126
0.386953 0.770641 0.284126
0.434834 0.770641 0.284126
0.486430 0.770641 0.284126
0.540510 0.770641 0.284126
0.596396 0.770641 0.284126
0.653655 0.770641 0.284126
0.711827 0.770641 0.284126
0.770641 0.770641 0.284126
0.825473 0.766472 0.284126
0.879685 0.761984 0.284126
0.905781 0.736170 0.284126
0.213117 0.825473 0.236009
0.249193 0.825473 0.264329
0.284126 0.825473 0.284126
0.308922 0.825473 0.284126
0.343618 0.825473 0.284126
0.385731 0.825473 0.284126
0.433193 0.825473 0.284126
0.484343 0.825473 0.284126
0.537982 0.825473 0.284126
0.593456 0.825473 0.284126
0.650261 0.825473 0.284126
0.708011 0.825473 0.284126
0.766472 0.825473 0.284126
0.825473 0.825473 0.284126
0.879685 0.820522 0.284126
0.905781 0.792211 0.284126
0.213117 0.879685 0.235584
0.249193 0.879685 0.264074
0.284126 0.879685 0.284126
0.308575 0.879685 0.284126
0.342793 0.879685 0.284126
0.384460 0.879685 0.284126
0.431416 0.879685 0.284126
0.482082 0.879685 0.284126
0.535251 0.879685 0.284126
0.590280 0.879685 0.284126
0.646651 0.879685 0.284126
0.703969 0.879685 0.284126
0.761984 0.879685 0.284126
0.820522 0.879685 0.284126
0.879685 0.879685 0.284126
0.905781 0.848859 0.284126
0.213117 0.905781 0.233724
0.249193 0.905781 0.262815
0.284126 0.905781 0.284126
0.306516 0.905781 0.284126
0.338202 0.905781 0.284126
0.377120 0.905781 0.284126
0.421266 0.905781 0.284126
0.469159 0.905781 0.284126
0.519652 0.905781 0.284126
0.572045 0.905781 0.284126
0.625822 0.905781 0.284126
0.680581 0.905781 0.284126
0.736170 0.905781 0.284126
0.792211 0.905781 0.284126
0.848859 0.905781 0.284126
0.905781 0.905781 0.284126
0.213117 0.213117 0.320859
0.223375 0.213117 0.320859
0.261296 0.213117 0.320859
0.320859 0.213117 0.320859
0.360705 0.213117 0.299988
0.404061 0.213117 0.288541
0.450505 0.213117 0.281662
0.499538 0.213117 0.277237
0.550690 0.213117 0.274281
0.604040 0.213117 0.272325
0.659042 0.213117 0.270958
0.714837 0.213117 0.269938
0.770641 0.213117 0.269022
0.825473 0.213117 0.268077
0.879685 0.213117 0.267148
0.905781 0.213117 0.262960
0.213117 0.223375 0.320859
0.249193 0.249193 0.320859
0.275760 0.249193 0.320859
0.320859 0.249193 0.320859
0.360705 0.249193 0.310098
0.404061 0.249193 0.303840
0.450505 0.249193 0.299943
0.499538 0.249193 0.297355
0.550690 0.249193 0.295602
0.604040 0.249193 0.294443
0.659042 0.249193 0.293660
0.714837 0.249193 0.293043
0.770641 0.249193 0.292467
0.825473 0.249193 0.291833
0.879685 0.249193 0.291165
0.905781 0.249193 0.287802
0.213117 0.261296 0.320859
0.249193 0.275760 0.320859
0.284126 0.284126 0.320859
0.320859 0.284126 0.320859
0.360705 0.284126 0.316695
0.404061 0.284126 0.314188
0.450505 0.284126 0.312521
0.499538 0.284126 0.311414
0.550690 0.284126 0.310650
0.604040 0.284126 0.310159
0.659042 0.284126 0.309805
0.714838 0.284126 0.309538
0.770641 0.284126 0.309264
0.825473 0.284126 0.308922
0.879685 0.284126 0.308575
0.905781 0.284126 0.306516
0.213117 0.320859 0.320859
0.249193 0.320859 0.320859
0.284126 0.320859 0.320859
0.320859 0.320859 0.320859
0.360705 0.320859 0.320859
0.404061 0.320859 0.320859
0.450505 0.320859 0.320859
0.499538 0.320859 0.320859
0.550690 0.320859 0.320859
0.604040 0.320859 0.320859
0.659042 0.320859 0.320859
0.714837 0.320859 0.320859
0.770641 0.320859 0.320859
0.825473 0.320859 0.320859
0.879685 0.320859 0.320859
0.905781 0.320859 0.320859
0.213117 0.360705 0.299988
0.249193 0.360705 0.310098
0.284126 0.360705 0.316695
0.320859 0.360705 0.320859
0.360705 0.360705 0.320859
0.404061 0.358529 0.320859
0.450505 0.357029 0.320859
0.499538 0.356034 0.320859
0.550690 0.355299 0.320859
0.604040 0.354828 0.320859
0.659042 0.354539 0.320859
0.714837 0.354278 0.320859
0.770641 0.354012 0.320859
0.825473 0.353629 0.320859
0.879685 0.353204 0.320859
0.905781 0.350531 0.320859
0.213117 0.404061 0.288541
0.249193 0.404061 0.303840
0.284126 0.404061 0.314188
0.320859 0.404061 0.320859
0.358529 0.404061 0.320859
0.404061 0.404061 0.320859
0.450505 0.401036 0.320859
0.499538 0.398900 0.320859
0.550690 0.397445 0.320859
0.604040 0.396485 0.320859
0.659042 0.395880 0.320859
0.714837 0.395336 0.320859
0.770641 0.394783 0.320859
0.825473 0.393945 0.320859
0.879685 0.393023 0.320859
0.905781 0.387398 0.320859
0.213117 0.450505 0.281662
0.249193 0.450505 0.299943
0.284126 0.450505 0.312521
0.320859 0.450505 0.320859
0.357029 0.450505 0.320859
0.401036 0.450505 0.320859
0.450505 0.450505 0.320859
0.499538 0.447291 0.320859
0.550690 0.445022 0.320859
0.604040 0.443605 0.320859
0.659042 0.442688 0.320859
0.714837 0.441890 0.320859
0.770641 0.440989 0.320859
0.825473 0.439762 0.320859
0.879685 0.438382 0.320859
0.905781 0.429749 0.320859
0.213117 0.499538 0.277237
0.249193 0.499538 0.297355
0.284126 0.499538 0.311414
0.320859 0.499538 0.320859
0.356034 0.499538 0.320859
0.398900 0.499538 0.320859
0.447291 0.499538 0.320859
0.499538 0.499538 0.320859
