assets/luts/Milky.cube
LUT_3D_SIZE 6
0.213117 0.213117 0.213117
0.320859 0.213117 0.213117
0.450505 0.213117 0.213117
0.604040 0.213117 0.213117
0.770641 0.213117 0.213117
0.905781 0.213117 0.213117
0.213117 0.320859 0.213117
0.320859 0.320859 0.213117
0.450505 0.281662 0.213117
0.604040 0.272325 0.213117
0.770641 0.269022 0.213117
0.905781 0.262960 0.213117
0.213117 0.450505 0.213117
0.281662 0.450505 0.213117
0.450505 0.450505 0.213117
0.604040 0.424520 0.213117
0.770641 0.415084 0.213117
0.905781 0.397436 0.213117
0.213117 0.604040 0.213117
0.272325 0.604040 0.213117
0.424520 0.604040 0.213117
0.604040 0.604040 0.213117
0.770641 0.588771 0.213117
0.905781 0.560030 0.213117
0.213117 0.770641 0.213117
0.269022 0.770641 0.213117
0.415084 0.770641 0.213117
0.588771 0.770641 0.213117
0.770641 0.770641 0.213117
0.905781 0.731260 0.213117
0.213117 0.905781 0.213117
0.262960 0.905781 0.213117
0.397436 0.905781 0.213117
0.560030 0.905781 0.213117
0.731260 0.905781 0.213117
0.905781 0.905781 0.213117
0.213117 0.213117 0.320859
0.320859 0.213117 0.320859
0.450505 0.213117 0.281662
0.604040 0.213117 0.272325
0.770641 0.213117 0.269022
0.905781 0.213117 0.262960
0.213117 0.320859 0.320859
0.320859 0.320859 0.320859
0.450505 0.320859 0.320859
0.604040 0.320859 0.320859
0.770641 0.320859 0.320859
0.905781 0.320859 0.320859
0.213117 0.450505 0.281662
0.320859 0.450505 0.320859
0.450505 0.450505 0.320859
0.604040 0.443605 0.320859
0.770641 0.440989 0.320859
0.905781 0.429749 0.320859
0.213117 0.604040 0.272325
0.320859 0.604040 0.320859
0.443605 0.604040 0.320859
0.604040 0.604040 0.320859
0.770641 0.598846 0.320859
0.905781 0.576463 0.320859
0.213117 0.770641 0.269022
0.320859 0.770641 0.320859
0.440989 0.770641 0.320859
0.598846 0.770641 0.320859
0.770641 0.770641 0.320859
0.905781 0.737966 0.320859
0.213117 0.905781 0.262960
0.320859 0.905781 0.320859
0.429749 0.905781 0.320859
0.576463 0.905781 0.320859
0.737966 0.905781 0.320859
0.905781 0.905781 0.320859
0.213117 0.213117 0.450505
0.281662 0.213117 0.450505
0.450505 0.213117 0.450505
0.604040 0.213117 0.424520
0.770641 0.213117 0.415084
0.905781 0.213117 0.397436
0.213117 0.281662 0.450505
0.320859 0.320859 0.450505
0.450505 0.320859 0.450505
0.604040 0.320859 0.443605
0.770641 0.320859 0.440989
0.905781 0.320859 0.429749
0.213117 0.450505 0.450505
0.320859 0.450505 0.450505
0.450505 0.450505 0.450505
0.604040 0.450505 0.450505
0.770641 0.450505 0.450505
0.905781 0.450505 0.450505
0.213117 0.604040 0.424520
0.320859 0.604040 0.443605
0.450505 0.604040 0.450505
0.604040 0.604040 0.450505
0.770641 0.602709 0.450505
0.905781 0.587610 0.450505
0.213117 0.770641 0.415084
0.320859 0.770641 0.440989
0.450505 0.770641 0.450505
0.602709 0.770641 0.450505
0.770641 0.770641 0.450505
0.905781 0.742653 0.450505
0.213117 0.905781 0.397436
0.320859 0.905781 0.429749
0.450505 0.905781 0.450505
0.587610 0.905781 0.450505
0.742653 0.905781 0.450505
0.905781 0.905781 0.450505
0.213117 0.213117 0.604040
0.272325 0.213117 0.604040
0.424520 0.213117 0.604040
0.604040 0.213117 0.604040
0.770641 0.213117 0.588771
0.905781 0.213117 0.560030
0.213117 0.272325 0.604040
0.320859 0.320859 0.604040
0.443605 0.320859 0.604040
0.604040 0.320859 0.604040
0.770641 0.320859 0.598846
0.905781 0.320859 0.576463
0.213117 0.424520 0.604040
0.320859 0.443605 0.604040
0.450505 0.450505 0.604040
0.604040 0.450505 0.604040
0.770641 0.450505 0.602709
0.905781 0.450505 0.587610
0.213117 0.604040 0.604040
0.320859 0.604040 0.604040
0.450505 0.604040 0.604040
0.604040 0.604040 0.604040
0.770641 0.604040 0.604040
0.905781 0.604040 0.604040
0.213117 0.770641 0.588771
0.320859 0.770641 0.598846
0.450505 0.770641 0.602709
0.604040 0.770641 0.604040
0.770641 0.770641 0.604040
0.905781 0.749667 0.604040
0.213117 0.905781 0.560030
0.320859 0.905781 0.576463
0.450505 0.905781 0.587610
0.604040 0.905781 0.604040
0.749667 0.905781 0.604040
0.905781 0.905781 0.604040
0.213117 0.213117 0.770641
0.269022 0.213117 0.770641
0.415084 0.213117 0.770641
0.588771 0.213117 0.770641
0.770641 0.213117 0.770641
0.905781 0.213117 0.731260
0.213117 0.269022 0.770641
0.320859 0.320859 0.770641
0.440989 0.320859 0.770641
0.598846 0.320859 0.770641
0.770641 0.320859 0.770641
0.905781 0.320859 0.737966
0.213117 0.415084 0.770641
0.320859 0.440989 0.770641
0.450505 0.450505 0.770641
0.602709 0.450505 0.770641
0.770641 0.450505 0.770641
0.905781 0.450505 0.742653
0.213117 0.588771 0.770641
0.320859 0.598846 0.770641
0.450505 0.602709 0.770641
0.604040 0.604040 0.770641
0.770641 0.604040 0.770641
0.905781 0.604040 0.749667
0.213117 0.770641 0.770641
0.320859 0.770641 0.770641
0.450505 0.770641 0.770641
0.604040 0.770641 0.770641
0.770641 0.770641 0.770641
0.905781 0.770641 0.770641
0.213117 0.905781 0.731260
0.320859 0.905781 0.737966
0.450505 0.905781 0.742653
0.604040 0.905781 0.749667
0.770641 0.905781 0.770641
0.905781 0.905781 0.770641
0.213117 0.213117 0.905781
0.262960 0.213117 0.905781
0.397436 0.213117 0.905781
0.560030 0.213117 0.905781
0.731260 0.213117 0.905781
0.905781 0.213117 0.905781
0.213117 0.262960 0.905781
0.320859 0.320859 0.905781
0.429749 0.320859 0.905781
0.576463 0.320859 0.905781
0.737966 0.320859 0.905781
0.905781 0.320859 0.905781
0.213117 0.397436 0.905781
0.320859 0.429749 0.905781
0.450505 0.450505 0.905781
0.587610 0.450505 0.905781
0.742653 0.450505 0.905781
0.905781 0.450505 0.905781
0.213117 0.560030 0.905781
0.320859 0.576463 0.905781
0.450505 0.587610 0.905781
0.604040 0.604040 0.905781
0.749667 0.604040 0.905781
0.905781 0.604040 0.905781
0.213117 0.731260 0.905781
0.320859 0.737966 0.905781
0.450505 0.742653 0.905781
0.604040 0.749667 0.905781
0.770641 0.770641 0.905781
0.905781 0.770641 0.905781
0.213117 0.905781 0.905781
0.320859 0.905781 0.905781
0.450505 0.905781 0.905781
0.604040 0.905781 0.905781
0.770641 0.905781 0.905781
0.905781 0.905781 0.905781
