assets/luts/Nostalgic.cube
LUT_3D_SIZE 16
0.069729 0.069729 0.056581
0.121414 0.080444 0.065280
0.154712 0.087286 0.070828
0.192174 0.094866 0.076976
0.233671 0.103030 0.083608
0.278420 0.111578 0.090551
0.325766 0.120261 0.097586
0.375128 0.128963 0.104650
0.426138 0.137683 0.111727
0.481394 0.146839 0.119159
0.541446 0.156545 0.127032
0.606399 0.166828 0.135374
0.677020 0.177773 0.144271
0.754260 0.189625 0.153876
0.841722 0.202941 0.164682
0.965353 0.221707 0.179919
0.087513 0.122578 0.071013
0.123059 0.123059 0.072659
0.155229 0.107728 0.074078
0.192451 0.108352 0.078892
0.233879 0.113366 0.084930
0.278554 0.120109 0.091526
0.325880 0.127649 0.098357
0.375241 0.135536 0.105282
0.426243 0.143639 0.112251
0.481483 0.152369 0.119610
0.541521 0.161752 0.127430
0.606437 0.171815 0.135724
0.677123 0.182599 0.144581
0.754251 0.194341 0.154178
0.841799 0.207599 0.164931
0.965394 0.226576 0.180177
0.098844 0.156643 0.080207
0.113625 0.156794 0.080755
0.157450 0.157450 0.082920
0.193682 0.147654 0.085297
0.234729 0.146539 0.089798
0.279222 0.149217 0.095356
0.326421 0.153847 0.101469
0.375623 0.159503 0.107864
0.426630 0.165839 0.114429
0.481827 0.173297 0.121505
0.541822 0.181749 0.129102
0.606726 0.191143 0.137219
0.677339 0.201511 0.145956
0.754533 0.212933 0.155421
0.841980 0.226138 0.166133
0.965626 0.245910 0.181338
0.111424 0.194972 0.090418
0.120646 0.195064 0.090723
0.151886 0.195418 0.091964
0.196162 0.196162 0.094315
0.236430 0.191031 0.097438
0.280544 0.190694 0.101847
0.327511 0.192911 0.107007
0.376580 0.196558 0.112612
0.427374 0.201133 0.118552
0.482512 0.207318 0.125123
0.542418 0.214892 0.132327
0.607306 0.223667 0.140148
0.677875 0.233661 0.148634
0.754987 0.244959 0.157911
0.842479 0.258367 0.168464
0.966023 0.279736 0.183628
0.125057 0.237519 0.101479
0.131888 0.237582 0.101672
0.156649 0.237826 0.102516
0.194536 0.238321 0.104171
0.239119 0.239119 0.106658
0.282612 0.237174 0.110157
0.329191 0.238027 0.114436
0.378029 0.240414 0.119239
0.428628 0.243844 0.124452
0.483606 0.249249 0.130431
0.543398 0.256366 0.137152
0.608176 0.264933 0.144564
0.678685 0.274945 0.152717
0.755738 0.286475 0.161737
0.843142 0.300497 0.172085
0.966787 0.324250 0.187191
0.139306 0.283437 0.113044
0.144823 0.283487 0.113195
0.165619 0.283679 0.113825
0.199213 0.284076 0.115070
0.240363 0.284667 0.116988
0.285536 0.285536 0.119581
0.331584 0.285800 0.123184
0.380038 0.287560 0.127279
0.430380 0.290382 0.131818
0.485174 0.295512 0.137207
0.544813 0.302588 0.143410
0.609516 0.311363 0.150396
0.679775 0.321764 0.158175
0.756831 0.333964 0.166871
0.844247 0.349066 0.176996
0.967793 0.375734 0.192071
0.153859 0.332090 0.124853
0.158549 0.332118 0.124975
0.176668 0.332284 0.125461
0.207108 0.332603 0.126454
0.245627 0.333117 0.127996
0.288829 0.333808 0.130113
0.334729 0.334729 0.132805
0.382711 0.336369 0.136338
0.432687 0.338947 0.140288
0.487212 0.344129 0.145149
0.546606 0.351495 0.150877
0.611154 0.360816 0.157440
0.681372 0.371887 0.164847
0.758278 0.385035 0.173255
0.845568 0.401508 0.183143
0.969164 0.431520 0.198219
0.168514 0.382830 0.136749
0.172618 0.382847 0.136843
0.188793 0.382982 0.137249
0.216743 0.383216 0.138052
0.253049 0.383652 0.139340
0.294614 0.384258 0.141111
0.339349 0.385039 0.143351
0.386000 0.386000 0.146127
0.435572 0.388695 0.149605
0.489767 0.394133 0.154024
0.548913 0.402080 0.159352
0.613263 0.412072 0.165524
0.683387 0.424171 0.172653
0.760027 0.438480 0.180748
0.847281 0.456496 0.190424
0.970749 0.490147 0.205562
0.183256 0.435293 0.148705
0.186903 0.435294 0.148768
0.201597 0.435430 0.149116
0.227497 0.435654 0.149801
0.261919 0.436014 0.150870
0.302024 0.436521 0.152388
0.345661 0.437185 0.154333
0.391643 0.438059 0.156730
0.439095 0.439095 0.159546
0.492869 0.445011 0.163618
0.551779 0.453653 0.168601
0.615818 0.464542 0.174482
0.685754 0.477735 0.181310
0.762244 0.493347 0.189186
0.849369 0.513131 0.198705
0.972721 0.550623 0.213995
0.198832 0.492078 0.161348
0.202186 0.492124 0.161405
0.215727 0.492205 0.161691
0.240116 0.492410 0.162285
0.273135 0.492739 0.163238
0.312157 0.493184 0.164545
0.355078 0.493797 0.166231
0.400677 0.494529 0.168360
0.447998 0.495445 0.170872
0.496541 0.496541 0.173781
0.555036 0.505997 0.178523
0.618863 0.517876 0.184169
0.688445 0.532220 0.190774
0.764875 0.549272 0.198479
0.851776 0.570938 0.207892
0.975182 0.612401 0.223408
0.215426 0.553787 0.174806
0.218571 0.553784 0.174888
0.231294 0.553899 0.175137
0.254515 0.554082 0.175660
0.286445 0.554359 0.176484
0.324680 0.554757 0.177656
0.367243 0.555273 0.179160
0.412760 0.555981 0.181098
0.460154 0.556816 0.183348
0.509016 0.557778 0.185963
0.558924 0.558924 0.188976
0.622364 0.571882 0.194449
0.691683 0.587435 0.200910
0.767915 0.606051 0.208493
0.854704 0.629722 0.217872
0.977933 0.675234 0.233725
0.233154 0.620581 0.189206
0.236107 0.620579 0.189265
0.248216 0.620643 0.189490
0.270556 0.620796 0.189957
0.301673 0.621064 0.190711
0.339385 0.621437 0.191774
0.381699 0.621892 0.193151
0.427305 0.622532 0.194882
0.475074 0.623290 0.196942
0.524486 0.624204 0.199365
0.575039 0.625236 0.202133
0.626462 0.626462 0.205247
0.695568 0.643413 0.211619
0.771387 0.663456 0.219170
0.857990 0.689170 0.228559
0.981181 0.738705 0.244840
0.252259 0.693097 0.204688
0.255087 0.693134 0.204750
0.266697 0.693124 0.204955
0.288332 0.693352 0.205393
0.318828 0.693570 0.206078
0.356205 0.693913 0.207055
0.398517 0.694278 0.208322
0.444378 0.694881 0.209914
0.492716 0.695619 0.211840
0.542744 0.696376 0.214085
0.594219 0.697485 0.216683
0.646587 0.698484 0.219602
0.699750 0.699750 0.222840
0.775365 0.721463 0.230390
0.861699 0.749005 0.239851
0.984805 0.802875 0.256625
0.273099 0.772292 0.221595
0.275815 0.772273 0.221653
0.287069 0.772299 0.221855
0.308189 0.772504 0.222264
0.338255 0.772683 0.222891
0.375477 0.773001 0.223803
0.417934 0.773458 0.224999
0.464262 0.773975 0.226497
0.513290 0.774630 0.228293
0.564255 0.775383 0.230405
0.616789 0.776289 0.232840
0.670284 0.777311 0.235598
0.724728 0.778432 0.238684
0.779790 0.779790 0.242102
0.865887 0.809423 0.251701
0.988798 0.867535 0.269069
0.296830 0.862032 0.240866
0.299495 0.862065 0.240906
0.310461 0.862148 0.241089
0.331278 0.862224 0.241465
0.361178 0.862457 0.242072
0.398508 0.862770 0.242950
0.441489 0.863151 0.244063
0.488591 0.863637 0.245496
0.538663 0.864283 0.247217
0.590908 0.865036 0.249240
0.644816 0.865827 0.251576
0.700087 0.866780 0.254245
0.756070 0.867875 0.257203
0.812874 0.869081 0.260481
0.870426 0.870426 0.264097
0.993244 0.932675 0.282139
0.330796 0.988624 0.268436
0.333514 0.988619 0.268499
0.344709 0.988693 0.268661
0.366097 0.988791 0.269037
0.396991 0.988979 0.269637
0.435821 0.989244 0.270518
0.480806 0.989637 0.271632
0.530422 0.990143 0.273051
0.583269 0.990666 0.274798
0.638673 0.991435 0.276772
0.696055 0.992321 0.279135
0.754637 0.993128 0.281788
0.814357 0.994333 0.284777
0.875009 0.995505 0.288066
0.936370 0.996747 0.291700
0.998334 0.998334 0.295646
0.076563 0.076563 0.098251
0.121578 0.081844 0.098660
0.154749 0.087754 0.085473
0.192195 0.095107 0.086527
0.233705 0.103201 0.090969
0.278424 0.111700 0.096671
0.325776 0.120362 0.102940
0.375162 0.129049 0.109452
0.426141 0.137747 0.116108
0.481409 0.146904 0.123253
0.541441 0.156608 0.130918
0.606406 0.166866 0.139116
0.677112 0.177803 0.147906
0.754226 0.189659 0.157443
0.841733 0.202951 0.168237
0.965368 0.221746 0.183636
0.088232 0.122741 0.099601
0.123219 0.123219 0.099991
0.155632 0.124283 0.100852
0.192738 0.126290 0.102478
0.234082 0.129459 0.105048
0.278712 0.133750 0.108530
0.326009 0.139000 0.112792
0.375309 0.144978 0.117648
0.426306 0.151524 0.122955
0.481559 0.158863 0.128916
0.541580 0.167034 0.135546
0.606490 0.176006 0.142825
0.677184 0.185865 0.150829
0.754263 0.196768 0.159674
0.841796 0.209214 0.169781
0.965443 0.227114 0.184301
0.099079 0.156702 0.091935
0.126696 0.156972 0.102807
0.157529 0.157529 0.103602
0.193894 0.154967 0.105050
0.234887 0.155551 0.107488
0.279355 0.158023 0.110810
0.326543 0.161849 0.114889
0.375770 0.166555 0.119551
0.426683 0.171983 0.124686
0.481882 0.178519 0.130487
0.541867 0.186096 0.136987
0.606788 0.194672 0.144164
0.677381 0.204276 0.152082
0.754589 0.215018 0.160845
0.842005 0.227554 0.170907
0.965629 0.246361 0.185384
0.111551 0.194996 0.097731
0.132779 0.195173 0.107747
0.157891 0.195525 0.108423
0.196199 0.196199 0.109758
0.236556 0.194449 0.111995
0.280639 0.195217 0.115080
0.327625 0.197640 0.118870
0.376680 0.201113 0.123209
0.427463 0.205342 0.128021
0.482581 0.211075 0.133550
0.542474 0.218121 0.139820
0.607352 0.226363 0.146808
0.677917 0.235823 0.154540
0.755041 0.246618 0.163179
0.842515 0.259492 0.173120
0.966071 0.280101 0.187592
0.125143 0.237541 0.106898
0.141470 0.237662 0.114801
0.163011 0.237908 0.115376
0.197426 0.238388 0.116529
0.239157 0.239157 0.118313
0.282708 0.238928 0.121137
0.329292 0.240484 0.124587
0.378068 0.243103 0.128541
0.428686 0.246535 0.132963
0.483677 0.251779 0.138150
0.543437 0.258625 0.144093
0.608283 0.266878 0.150800
0.678697 0.276530 0.158334
0.755792 0.287716 0.166755
0.843196 0.301378 0.176550
0.966768 0.324506 0.191042
0.139369 0.283455 0.117425
0.152183 0.283550 0.123493
0.171181 0.283739 0.123978
0.202603 0.284125 0.124969
0.241880 0.284722 0.126509
0.285564 0.285564 0.128616
0.331647 0.286788 0.131746
0.380060 0.289002 0.135326
0.430446 0.292039 0.139329
0.485225 0.297166 0.144110
0.544870 0.304135 0.149744
0.609550 0.312729 0.156162
0.679932 0.322939 0.163421
0.756834 0.334865 0.171626
0.844300 0.349700 0.181249
0.967803 0.375922 0.195758
0.153913 0.332098 0.128585
0.164238 0.332180 0.133271
0.181298 0.332326 0.133689
0.210337 0.332682 0.134532
0.247538 0.333146 0.135847
0.289723 0.333844 0.137681
0.334762 0.334762 0.140021
0.382720 0.336961 0.143251
0.432747 0.339844 0.146848
0.487244 0.345120 0.151293
0.546664 0.352519 0.156609
0.611191 0.361738 0.162720
0.681396 0.372735 0.169701
0.758256 0.385722 0.177675
0.845599 0.402017 0.187155
0.969165 0.431665 0.201716
0.168562 0.382844 0.140011
0.177057 0.382888 0.143693
0.192582 0.383028 0.144059
0.219590 0.383298 0.144777
0.254988 0.383697 0.145925
0.295788 0.384277 0.147510
0.339869 0.385073 0.149570
0.386048 0.386048 0.152078
0.435614 0.389069 0.155348
0.489814 0.394744 0.159472
0.548967 0.402759 0.164479
0.613286 0.412743 0.170324
0.683436 0.424777 0.177054
0.760074 0.438954 0.184846
0.847288 0.456858 0.194167
0.970793 0.490251 0.208850
0.183272 0.435296 0.151613
0.190485 0.435343 0.154569
0.204691 0.435468 0.154888
0.229960 0.435677 0.155526
0.263727 0.436034 0.156523
0.303218 0.436554 0.157902
0.346417 0.437222 0.159711
0.391994 0.438070 0.161947
0.439117 0.439117 0.164583
0.492896 0.445260 0.168442
0.551772 0.454024 0.173206
0.615852 0.464978 0.178827
0.685767 0.478115 0.185379
0.762283 0.493689 0.192988
0.849373 0.513391 0.202206
0.972770 0.550707 0.217093
0.198865 0.492094 0.164028
0.205016 0.492146 0.166364
0.218292 0.492252 0.166653
0.242211 0.492453 0.167202
0.274727 0.492779 0.168111
0.313327 0.493212 0.169328
0.355911 0.493821 0.170945
0.401175 0.494546 0.172936
0.448228 0.495467 0.175323
0.496554 0.496554 0.178079
0.555039 0.506190 0.182665
0.618891 0.518124 0.188120
0.688463 0.532471 0.194504
0.764909 0.549526 0.201969
0.851818 0.571129 0.211151
0.975160 0.612414 0.226310
0.215456 0.553813 0.177321
0.220793 0.553851 0.179160
0.233325 0.553903 0.179424
0.256243 0.554095 0.179935
0.287807 0.554377 0.180719
0.325738 0.554764 0.181820
0.367996 0.555275 0.183283
0.413270 0.556012 0.185106
0.460492 0.556848 0.187274
0.509188 0.557821 0.189816
0.558945 0.558945 0.192699
0.622385 0.571986 0.198033
0.691682 0.587636 0.204326
0.767949 0.606236 0.211731
0.854707 0.629850 0.220901
0.977971 0.675307 0.236425
0.233178 0.620565 0.191571
0.237862 0.620595 0.193018
0.249813 0.620656 0.193235
0.271943 0.620820 0.193692
0.302796 0.621087 0.194422
0.340274 0.621451 0.195439
0.382404 0.621976 0.196777
0.427806 0.622544 0.198455
0.475416 0.623308 0.200450
0.524665 0.624221 0.202794
0.575136 0.625301 0.205488
0.626473 0.626473 0.208505
0.695576 0.643477 0.214758
0.771415 0.663615 0.222151
0.857998 0.689235 0.231363
0.981165 0.738716 0.247360
0.252277 0.693109 0.206958
0.256396 0.693126 0.208066
0.267933 0.693143 0.208264
0.289420 0.693370 0.208674
0.319719 0.693584 0.209350
0.356911 0.693931 0.210296
0.399066 0.694314 0.211538
0.444825 0.694917 0.213096
0.493044 0.695651 0.214968
0.542983 0.696384 0.217174
0.594366 0.697461 0.219705
0.646653 0.698535 0.222541
0.699744 0.699744 0.225723
0.775387 0.721480 0.233131
0.861727 0.749068 0.242462
0.984785 0.802914 0.259002
0.273124 0.772302 0.223776
0.276757 0.772283 0.224592
0.287926 0.772325 0.224780
0.308978 0.772531 0.225169
0.338927 0.772698 0.225799
0.376055 0.773019 0.226689
0.418412 0.773483 0.227860
0.464633 0.773999 0.229321
0.513561 0.774653 0.231094
0.564487 0.775365 0.233173
0.616927 0.776309 0.235564
0.670430 0.777290 0.238275
0.724767 0.778448 0.241321
0.779804 0.779804 0.244662
0.865872 0.809437 0.254176
0.988773 0.867568 0.271307
0.296853 0.862043 0.242990
0.300108 0.862061 0.243522
0.311037 0.862157 0.243695
0.331779 0.862251 0.244056
0.361616 0.862434 0.244668
0.398880 0.862772 0.245509
0.441791 0.863178 0.246620
0.488815 0.863631 0.248024
0.538840 0.864282 0.249718
0.591059 0.865019 0.251706
0.644947 0.865850 0.254026
0.700128 0.866801 0.256629
0.756148 0.867868 0.259580
0.812924 0.869096 0.262812
0.870441 0.870441 0.266374
0.993265 0.932665 0.284204
0.330821 0.988586 0.270622
0.333649 0.988600 0.270727
0.344827 0.988726 0.270903
0.366180 0.988794 0.271275
0.397075 0.989005 0.271884
0.435885 0.989272 0.272731
0.480873 0.989665 0.273828
0.530446 0.990170 0.275240
0.583343 0.990692 0.276923
0.638710 0.991458 0.278954
0.696092 0.992292 0.281252
0.754593 0.993152 0.283877
0.814394 0.994356 0.286842
0.875008 0.995527 0.290080
0.936358 0.996768 0.293689
0.998353 0.998353 0.297615
0.080925 0.080925 0.125093
0.102367 0.083197 0.125222
0.154984 0.089560 0.125772
0.192324 0.096158 0.116498
0.233770 0.103915 0.115706
0.278490 0.112230 0.118240
0.325811 0.120773 0.122366
0.375175 0.129390 0.127278
0.426187 0.138031 0.132673
0.481453 0.147147 0.138930
0.541488 0.156810 0.145973
0.606423 0.167053 0.153725
0.677121 0.177990 0.162216
0.754209 0.189817 0.171601
0.841780 0.203111 0.182370
0.965367 0.221882 0.198452
0.087120 0.104905 0.125518
0.123577 0.123577 0.125996
0.155830 0.124639 0.126451
0.192861 0.126627 0.124185
0.234157 0.129770 0.124600
0.278773 0.134045 0.126639
0.326073 0.139268 0.129808
0.375329 0.145218 0.133734
0.426333 0.151741 0.138244
0.481603 0.159062 0.143656
0.541635 0.167212 0.149898
0.606496 0.176180 0.156925
0.677165 0.186029 0.164769
0.754301 0.196911 0.173553
0.841798 0.209365 0.183763
0.965509 0.227244 0.199025
0.100041 0.156905 0.127323
0.127027 0.157152 0.127524
0.157698 0.157698 0.127970
0.194025 0.158772 0.128836
0.234996 0.160512 0.130251
0.279402 0.163018 0.132284
0.326564 0.166295 0.134945
0.375788 0.170233 0.138141
0.426679 0.174805 0.141854
0.481880 0.180207 0.146234
0.541856 0.186502 0.151342
0.606756 0.193709 0.157202
0.677348 0.201942 0.163880
0.754537 0.211309 0.171474
0.841986 0.222313 0.180406
0.965606 0.238525 0.193553
0.112084 0.195127 0.122714
0.133059 0.195290 0.127808
0.161227 0.195633 0.130833
0.196320 0.196320 0.131663
0.236634 0.196483 0.133088
0.280707 0.197894 0.135098
0.327659 0.200279 0.137680
0.376691 0.203395 0.140776
0.427482 0.207170 0.144346
0.482580 0.212135 0.148636
0.542466 0.218260 0.153648
0.607345 0.225487 0.159416
0.677885 0.233880 0.166002
0.754992 0.243537 0.173535
0.842448 0.255174 0.182421
0.966030 0.273658 0.195616
0.125500 0.237622 0.126646
0.141709 0.237743 0.131987
0.166775 0.237980 0.135329
0.199181 0.238466 0.136108
0.239235 0.239235 0.137340
0.282746 0.239951 0.139340
0.329333 0.241785 0.141822
0.378100 0.244358 0.144774
0.428703 0.247572 0.148186
0.483692 0.252360 0.152325
0.543435 0.258570 0.157188
0.608290 0.266106 0.162836
0.678696 0.274935 0.169318
0.755744 0.285278 0.176747
0.843173 0.297916 0.185575
0.966754 0.319361 0.198834
0.139633 0.283526 0.134020
0.152390 0.283607 0.138640
0.174263 0.283797 0.141410
0.204499 0.284169 0.142130
0.242744 0.284774 0.143274
0.285618 0.285618 0.144880
0.331680 0.287292 0.147292
0.380091 0.289603 0.150083
0.430468 0.292541 0.153307
0.485245 0.297399 0.157251
0.544873 0.303967 0.161971
0.609542 0.312028 0.167474
0.679805 0.321613 0.173816
0.756836 0.332914 0.181142
0.844277 0.346964 0.189892
0.967729 0.371835 0.203270
0.154124 0.332162 0.143041
0.164417 0.332249 0.146872
0.183390 0.332355 0.148820
0.211779 0.332706 0.149484
0.248417 0.333220 0.150533
0.290103 0.333912 0.152018
0.334805 0.334805 0.153933
0.382743 0.337150 0.156579
0.432755 0.340056 0.159571
0.487271 0.345204 0.163345
0.546673 0.352284 0.167896
0.611186 0.361171 0.173249
0.681374 0.371696 0.179462
0.758288 0.384156 0.186685
0.845545 0.399809 0.195365
0.969048 0.428422 0.208905
0.168722 0.382893 0.152925
0.177214 0.382953 0.156069
0.193754 0.383034 0.157242
0.220479 0.383306 0.157838
0.255581 0.383751 0.158805
0.296119 0.384342 0.160155
0.340042 0.385111 0.161905
0.386116 0.386116 0.164049
0.435651 0.389156 0.166858
0.489851 0.394731 0.170458
0.548983 0.402559 0.174890
0.613285 0.412232 0.180083
0.683420 0.423923 0.186179
0.760040 0.437724 0.193293
0.847264 0.455111 0.201934
0.970741 0.487697 0.215695
0.183411 0.435322 0.163332
0.190617 0.435379 0.165926
0.205131 0.435485 0.166476
0.230298 0.435704 0.167007
0.263950 0.436062 0.167882
0.303379 0.436598 0.169102
0.346522 0.437252 0.170683
0.392028 0.438111 0.172663
0.439149 0.439149 0.175001
0.492920 0.445240 0.178451
0.551798 0.453855 0.182725
0.615856 0.464593 0.187834
0.685788 0.477493 0.193842
0.762260 0.492718 0.200875
0.849374 0.512021 0.209500
0.972737 0.548648 0.223566
0.198953 0.492124 0.174858
0.205136 0.492188 0.176965
0.217925 0.492266 0.176845
0.241894 0.492463 0.177334
0.274483 0.492800 0.178128
0.313124 0.493222 0.179236
0.355755 0.493843 0.180707
0.401074 0.494587 0.182503
0.448195 0.495483 0.184677
0.496599 0.496599 0.187201
0.555075 0.506101 0.191385
0.618885 0.517890 0.196418
0.688461 0.532036 0.202343
0.764896 0.548814 0.209346
0.851788 0.570099 0.218006
0.975166 0.610839 0.232424
0.215561 0.553861 0.187499
0.220918 0.553868 0.189190
0.232179 0.553954 0.188414
0.255261 0.554129 0.188870
0.287032 0.554401 0.189606
0.325118 0.554800 0.190629
0.367548 0.555313 0.191990
0.412928 0.556012 0.193647
0.460298 0.556852 0.195668
0.509091 0.557783 0.198038
0.558955 0.558955 0.200736
0.622394 0.571890 0.205706
0.691693 0.587339 0.211618
0.767941 0.605713 0.218622
0.854707 0.629080 0.227324
0.977911 0.674003 0.242216
0.233276 0.620587 0.201250
0.237949 0.620609 0.202580
0.247963 0.620654 0.201219
0.270326 0.620822 0.201647
0.301487 0.621094 0.202304
0.339228 0.621467 0.203271
0.381586 0.621984 0.204522
0.427187 0.622538 0.206095
0.475015 0.623328 0.207990
0.524426 0.624230 0.210213
0.575039 0.625325 0.212770
0.626499 0.626499 0.215631
0.695583 0.643375 0.221548
0.771418 0.663261 0.228583
0.857978 0.688645 0.237415
0.981133 0.737837 0.252828
0.252367 0.693115 0.216259
0.256487 0.693084 0.217272
0.265396 0.693133 0.215357
0.287199 0.693296 0.215760
0.317860 0.693603 0.216398
0.355415 0.693951 0.217303
0.397874 0.694336 0.218481
0.443914 0.694942 0.219948
0.492374 0.695656 0.221750
0.542501 0.696390 0.223843
0.594089 0.697496 0.226264
0.646546 0.698549 0.229004
0.699860 0.699860 0.232056
0.775363 0.721323 0.239164
0.861723 0.748684 0.248159
0.984780 0.802251 0.264172
0.273210 0.772278 0.232795
0.276839 0.772316 0.233524
0.284810 0.772331 0.231121
0.306188 0.772537 0.231502
0.336560 0.772706 0.232106
0.374070 0.773011 0.232960
0.416843 0.773493 0.234065
0.463363 0.773964 0.235493
0.512578 0.774666 0.237188
0.563752 0.775381 0.239199
0.616444 0.776328 0.241533
0.670132 0.777313 0.244146
0.724641 0.778475 0.247094
0.779824 0.779824 0.250337
0.865883 0.809292 0.259512
0.988798 0.867159 0.276189
0.296917 0.862059 0.251804
0.300153 0.862083 0.252293
0.307296 0.862154 0.249355
0.328432 0.862249 0.249713
0.358715 0.862433 0.250301
0.396454 0.862772 0.251113
0.439801 0.863155 0.252193
0.487216 0.863635 0.253554
0.537592 0.864289 0.255224
0.590042 0.865030 0.257142
0.644217 0.865865 0.259387
0.699610 0.866820 0.261939
0.755836 0.867891 0.264810
0.812799 0.869077 0.267981
0.870456 0.870456 0.271446
0.993275 0.932556 0.288832
0.330905 0.988611 0.279592
0.333711 0.988590 0.279700
0.339872 0.988693 0.275803
0.361684 0.988791 0.276169
0.393122 0.988981 0.276746
0.432565 0.989248 0.277573
0.478113 0.989643 0.278678
0.528161 0.990152 0.280043
0.581459 0.990678 0.281704
0.637246 0.991452 0.283671
0.694911 0.992290 0.285917
0.753762 0.993157 0.288535
0.813823 0.994373 0.291440
0.874674 0.995548 0.294657
0.936238 0.996799 0.298164
0.998265 0.998265 0.301977
0.085746 0.085746 0.155281
0.100259 0.087078 0.155357
0.141702 0.091599 0.155661
0.192574 0.098111 0.156266
0.233960 0.105302 0.150734
0.278624 0.113277 0.150237
0.325946 0.121598 0.152209
0.375282 0.130059 0.155470
0.426263 0.138590 0.159507
0.481524 0.147630 0.164827
0.541552 0.157247 0.171255
0.606465 0.167434 0.178569
0.677158 0.178317 0.186846
0.754244 0.190124 0.196166
0.841798 0.203398 0.207151
0.965455 0.222186 0.224526
0.089753 0.102345 0.155526
0.124287 0.124287 0.155836
0.152147 0.125296 0.156129
0.193096 0.127287 0.156706
0.234325 0.130395 0.154702
0.278914 0.134633 0.155144
0.326175 0.139804 0.157091
0.375465 0.145720 0.159997
0.426433 0.152185 0.163611
0.481659 0.159472 0.168396
0.541697 0.167583 0.174287
0.606596 0.176517 0.181109
0.677183 0.186355 0.188907
0.754334 0.197219 0.197770
0.841873 0.209645 0.208291
0.965471 0.227516 0.225008
0.100381 0.145421 0.156532
0.127610 0.153707 0.156789
0.158073 0.158073 0.157097
0.194263 0.159125 0.157642
0.235164 0.160876 0.157626
0.279534 0.163400 0.158706
0.326665 0.166646 0.160637
0.375904 0.170581 0.163196
0.426778 0.175135 0.166314
0.481960 0.180504 0.170396
0.541937 0.186795 0.175436
0.606872 0.193995 0.181346
0.677395 0.202205 0.188191
0.754573 0.211569 0.196084
0.842011 0.222575 0.205540
0.965616 0.238792 0.220508
0.113139 0.195369 0.158539
0.133635 0.195520 0.158663
0.161561 0.195875 0.158948
0.196545 0.196545 0.159500
0.236753 0.197647 0.160384
0.280748 0.199272 0.161696
0.327675 0.201442 0.163455
0.376676 0.204087 0.165604
0.427480 0.207272 0.168199
0.482587 0.211169 0.171372
0.542469 0.215823 0.175148
0.607309 0.221358 0.179621
0.677862 0.227828 0.184878
0.754909 0.235454 0.191064
0.842419 0.244664 0.198538
0.965898 0.258656 0.209895
0.126213 0.237801 0.157100
0.142195 0.237912 0.159580
0.167090 0.238143 0.161245
0.200234 0.238606 0.162491
0.239387 0.239387 0.163366
0.282818 0.240494 0.164688
0.329358 0.242299 0.166420
0.378145 0.244634 0.168568
0.428711 0.247461 0.171080
0.483677 0.251478 0.174180
0.543416 0.256609 0.177926
0.608171 0.262832 0.182390
0.678671 0.270213 0.187630
0.755631 0.278928 0.193785
0.843105 0.289704 0.201296
0.966563 0.307682 0.212794
0.140169 0.283640 0.160914
0.152798 0.283748 0.163801
0.174556 0.283936 0.165579
0.205449 0.284262 0.166726
0.243211 0.284890 0.167554
0.285737 0.285737 0.168754
0.331738 0.287455 0.170494
0.380139 0.289638 0.172560
0.430474 0.292326 0.174989
0.485246 0.296636 0.178044
0.544841 0.302395 0.181744
0.609517 0.309491 0.186195
0.679776 0.317956 0.191413
0.756732 0.327997 0.197562
0.844154 0.340497 0.205084
0.967598 0.362714 0.216797
0.154528 0.332268 0.167404
0.164766 0.332330 0.170098
0.183665 0.332510 0.171503
0.212155 0.332792 0.172154
0.248640 0.333288 0.172955
0.290229 0.333967 0.174108
0.334899 0.334899 0.175579
0.382838 0.337146 0.177613
0.432795 0.339843 0.179949
0.487270 0.344585 0.182951
0.546657 0.351115 0.186618
0.611163 0.359181 0.191038
0.681375 0.368848 0.196239
0.758228 0.380310 0.202393
0.845466 0.394779 0.209951
0.968934 0.421226 0.221916
0.169076 0.383000 0.175287
0.177518 0.383026 0.177672
0.194009 0.383139 0.178568
0.220111 0.383405 0.178607
0.255315 0.383798 0.179372
0.295964 0.384395 0.180463
0.339984 0.385179 0.181880
0.386159 0.386159 0.183628
