assets/luts/Nostalgic.cube
LUT_3D_SIZE 6
0.069729 0.069729 0.056581
0.192174 0.094866 0.076976
0.325766 0.120261 0.097586
0.481394 0.146839 0.119159
0.677020 0.177773 0.144271
0.965353 0.221707 0.179919
0.111424 0.194972 0.090418
0.196162 0.196162 0.094315
0.327511 0.192911 0.107007
0.482512 0.207318 0.125123
0.677875 0.233661 0.148634
0.966023 0.279736 0.183628
0.153859 0.332090 0.124853
0.207108 0.332603 0.126454
0.334729 0.334729 0.132805
0.487212 0.344129 0.145149
0.681372 0.371887 0.164847
0.969164 0.431520 0.198219
0.198832 0.492078 0.161348
0.240116 0.492410 0.162285
0.355078 0.493797 0.166231
0.496541 0.496541 0.173781
0.688445 0.532220 0.190774
0.975182 0.612401 0.223408
0.252259 0.693097 0.204688
0.288332 0.693352 0.205393
0.398517 0.694278 0.208322
0.542744 0.696376 0.214085
0.699750 0.699750 0.222840
0.984805 0.802875 0.256625
0.330796 0.988624 0.268436
0.366097 0.988791 0.269037
0.480806 0.989637 0.271632
0.638673 0.991435 0.276772
0.814357 0.994333 0.284777
0.998334 0.998334 0.295646
0.085746 0.085746 0.155281
0.192574 0.098111 0.156266
0.325946 0.121598 0.152209
0.481524 0.147630 0.164827
0.677158 0.178317 0.186846
0.965455 0.222186 0.224526
0.113139 0.195369 0.158539
0.196545 0.196545 0.159500
0.327675 0.201442 0.163455
0.482587 0.211169 0.171372
0.677862 0.227828 0.184878
0.965898 0.258656 0.209895
0.154528 0.332268 0.167404
0.212155 0.332792 0.172154
0.334899 0.334899 0.175579
0.487270 0.344585 0.182951
0.681375 0.368848 0.196239
0.968934 0.421226 0.221916
0.199204 0.492204 0.194357
0.239858 0.492506 0.194638
0.354932 0.493885 0.197521
0.496646 0.496646 0.203180
0.688443 0.530862 0.216469
0.975038 0.607362 0.243774
0.252551 0.693105 0.233573
0.281814 0.693362 0.228697
0.395076 0.694320 0.231208
0.541399 0.696515 0.236167
0.699874 0.699874 0.243830
0.984716 0.800795 0.273921
0.331042 0.988669 0.296716
0.351728 0.988771 0.285410
0.472057 0.989587 0.287836
0.634084 0.991425 0.292667
0.812471 0.994389 0.300176
0.998350 0.998350 0.310413
0.101897 0.101897 0.262897
0.181467 0.108452 0.263308
0.326694 0.126856 0.265103
0.482006 0.150870 0.271457
0.677532 0.180701 0.294442
0.965737 0.224177 0.342969
0.119774 0.186683 0.264317
0.198225 0.198225 0.264711
0.328421 0.203015 0.266503
0.483048 0.212702 0.274037
0.678231 0.229331 0.293706
0.966150 0.260211 0.335938
0.157364 0.333031 0.270244
0.213609 0.333507 0.270646
0.335648 0.335648 0.272366
0.487562 0.340105 0.275999
0.681202 0.348569 0.282860
0.968123 0.366237 0.297203
0.200937 0.492680 0.286695
0.241081 0.492968 0.286887
0.350443 0.494293 0.284373
0.497116 0.497116 0.287820
0.688472 0.523586 0.295704
0.974446 0.582823 0.312940
0.253791 0.693442 0.322075
0.282890 0.693682 0.319515
0.376869 0.694562 0.305819
0.534519 0.696663 0.309320
0.700145 0.700145 0.314855
0.984480 0.791336 0.336253
0.332115 0.988901 0.388856
0.352772 0.989012 0.381981
0.428227 0.989543 0.347521
0.612001 0.991450 0.351449
0.803612 0.994385 0.357668
0.998454 0.998454 0.366292
0.118737 0.118737 0.388211
0.188707 0.122829 0.388458
0.330625 0.136790 0.389606
0.482945 0.156977 0.391887
0.678235 0.185272 0.420227
0.966334 0.228124 0.484951
0.131074 0.193223 0.389092
0.201745 0.201745 0.389303
0.334529 0.206537 0.390437
0.484018 0.215707 0.392770
0.678889 0.232286 0.420225
0.966792 0.263331 0.481690
0.164078 0.338760 0.392924
0.217149 0.340048 0.393146
0.337164 0.337164 0.394120
0.488534 0.341630 0.396443
0.681980 0.350238 0.417657
0.968781 0.368277 0.464831
0.204259 0.493618 0.400553
0.243522 0.493915 0.400786
0.351895 0.495223 0.401879
0.498035 0.498035 0.404140
0.688369 0.503407 0.408494
0.972807 0.514957 0.417868
0.256286 0.694172 0.438090
0.285007 0.694340 0.437119
0.378365 0.695268 0.432218
0.515791 0.697112 0.418527
0.700821 0.700821 0.422683
0.983739 0.767233 0.436077
0.334335 0.989542 0.515843
0.354772 0.989668 0.512221
0.429879 0.990210 0.494975
0.552534 0.991318 0.448362
0.781106 0.994455 0.453474
0.998937 0.998937 0.460596
0.138188 0.138188 0.545719
0.206299 0.141149 0.545865
0.353213 0.152239 0.546692
0.514540 0.170120 0.548452
0.679310 0.192145 0.551263
0.967327 0.234210 0.634094
0.147528 0.210098 0.546340
0.208178 0.208178 0.546455
0.353573 0.213218 0.547308
0.514709 0.222845 0.549052
0.680010 0.236867 0.551814
0.967805 0.268207 0.633024
0.176697 0.361363 0.549264
0.224378 0.359317 0.549340
0.340085 0.340085 0.549740
0.511531 0.345070 0.551547
0.683206 0.352798 0.554377
0.969876 0.371464 0.627288
0.216002 0.526152 0.555052
0.252100 0.525095 0.555254
0.356390 0.518570 0.555724
0.499862 0.499862 0.556646
0.689657 0.505198 0.559626
0.973975 0.517252 0.612174
0.260188 0.695433 0.564289
0.288350 0.695587 0.564465
0.380694 0.696372 0.565080
0.517487 0.698306 0.566667
0.701989 0.701989 0.569607
0.981920 0.709842 0.576095
0.337849 0.990487 0.657151
0.358026 0.990578 0.655707
0.432533 0.991228 0.648931
0.554677 0.992341 0.631693
0.728336 0.994481 0.591033
0.999613 0.999613 0.597189
0.165450 0.165450 0.778019
0.239921 0.167921 0.778142
0.405458 0.177639 0.778889
0.589289 0.194511 0.780370
0.777967 0.216662 0.782741
0.968828 0.242389 0.786115
0.173441 0.243327 0.778546
0.221196 0.221196 0.778470
0.397431 0.227053 0.779272
0.585508 0.238194 0.780725
0.776618 0.254388 0.783112
0.969299 0.274909 0.786543
0.201043 0.413508 0.781036
0.239943 0.403552 0.780946
0.346429 0.346429 0.780638
0.564186 0.352764 0.782148
0.769432 0.362563 0.784665
0.971258 0.375961 0.788113
0.241666 0.601497 0.786017
0.271964 0.596577 0.785966
0.367115 0.572170 0.785805
0.503854 0.503854 0.785259
0.750340 0.510836 0.787859
0.975558 0.520548 0.791646
0.289635 0.794998 0.793883
0.313794 0.793047 0.793887
0.397488 0.783876 0.794008
0.526915 0.760445 0.794056
0.704675 0.704675 0.793860
0.983759 0.712612 0.798284
0.342716 0.991982 0.804982
0.362598 0.992082 0.805068
0.436243 0.992665 0.805512
0.557710 0.993862 0.806493
0.730951 0.996242 0.808404
0.999965 0.999965 0.811473
