assets/luts/R&B.cube
LUT_3D_SIZE 6
0.178333 0.014921 0.010395
0.266562 0.066101 0.050519
0.332239 0.160402 0.139686
0.384514 0.266443 0.248157
0.449588 0.367718 0.360844
0.525622 0.451303 0.457504
0.294305 0.125975 0.099090
0.307599 0.140986 0.114405
0.348481 0.208318 0.182594
0.395939 0.298646 0.278981
0.461106 0.389992 0.383862
0.535966 0.467074 0.473085
0.374760 0.304049 0.269657
0.379130 0.310877 0.277674
0.396947 0.338395 0.309961
0.443861 0.403409 0.387139
0.509456 0.470239 0.467052
0.579275 0.527374 0.529391
0.475255 0.492495 0.473911
0.479821 0.496552 0.478615
0.499540 0.513221 0.498009
0.539695 0.544902 0.532127
0.603796 0.591280 0.574258
0.663884 0.626269 0.598963
0.623113 0.663236 0.608138
0.627500 0.665922 0.609258
0.646426 0.677100 0.613297
0.684530 0.698943 0.618095
0.745180 0.731777 0.617765
0.796121 0.749439 0.593490
0.781104 0.802380 0.605449
0.784983 0.804313 0.604778
0.801649 0.812165 0.601746
0.835196 0.827884 0.594337
0.889954 0.853697 0.556466
0.961881 0.886831 0.499723
0.229484 0.041681 0.043654
0.272996 0.076034 0.069278
0.334082 0.165286 0.150548
0.385667 0.269514 0.255645
0.450778 0.369822 0.366412
0.526649 0.452731 0.461267
0.297827 0.131294 0.111290
0.310220 0.145723 0.125294
0.347341 0.204591 0.183860
0.394107 0.293414 0.277230
0.459217 0.386337 0.382516
0.535005 0.465530 0.473391
0.375831 0.306409 0.276114
0.379303 0.311734 0.281712
0.397755 0.340086 0.314778
0.442950 0.401518 0.387664
0.508036 0.467976 0.466697
0.578545 0.526358 0.529732
0.476334 0.493901 0.477714
0.479572 0.496643 0.480425
0.499641 0.513533 0.499902
0.540523 0.545842 0.534288
0.603224 0.590612 0.574693
0.663531 0.625740 0.599226
0.624024 0.664228 0.608887
0.627306 0.665955 0.609574
0.646252 0.677177 0.613546
0.684675 0.699189 0.618163
0.745802 0.732446 0.617459
0.796117 0.749432 0.593162
0.781964 0.803027 0.604798
0.785040 0.804468 0.604380
0.801777 0.812299 0.601331
0.835485 0.828155 0.593799
0.890410 0.854070 0.555693
0.962452 0.887251 0.498734
0.278648 0.095261 0.122164
0.299158 0.118172 0.138009
0.341439 0.184697 0.191874
0.390662 0.282162 0.286125
0.455813 0.378494 0.389346
0.531213 0.458882 0.476745
0.317453 0.165356 0.169957
0.322117 0.168445 0.173354
0.353597 0.220782 0.220933
0.399076 0.305148 0.306464
0.464241 0.394605 0.404619
0.539469 0.471474 0.488179
0.380501 0.316350 0.302633
0.384050 0.321853 0.308750
0.402307 0.349206 0.339706
0.444096 0.402620 0.401775
0.509531 0.469439 0.477872
0.583992 0.532634 0.541882
0.481130 0.499740 0.493462
0.484407 0.502527 0.496219
0.502739 0.517651 0.512036
0.544915 0.550631 0.545102
0.605815 0.592836 0.580604
0.668357 0.630302 0.603858
0.628519 0.667960 0.611839
0.631737 0.669726 0.612302
0.649137 0.679846 0.615060
0.687956 0.702102 0.618260
0.749820 0.735465 0.615776
0.800650 0.752747 0.589498
0.785689 0.805613 0.601830
0.788821 0.807041 0.601356
0.806118 0.815120 0.598061
0.839638 0.830854 0.589635
0.894406 0.856606 0.550123
0.965355 0.889685 0.493413
0.317849 0.159746 0.219823
0.328313 0.175108 0.230482
0.358473 0.228235 0.271637
0.400622 0.305985 0.341785
0.465925 0.395301 0.431814
0.540245 0.470863 0.505132
0.340421 0.211852 0.254212
0.341813 0.210269 0.253786
0.367751 0.256080 0.292641
0.409159 0.327342 0.360310
0.474397 0.410681 0.445480
0.548479 0.483091 0.515098
0.396258 0.350002 0.369531
0.397876 0.350957 0.371041
0.412514 0.368672 0.390804
0.454507 0.418943 0.444726
0.519499 0.482365 0.509072
0.592637 0.542465 0.560884
0.490693 0.511281 0.521819
0.494199 0.514182 0.524624
0.512763 0.529170 0.538813
0.554779 0.561174 0.566067
0.618134 0.605456 0.595528
0.689246 0.650937 0.613666
0.637349 0.675505 0.615128
0.640608 0.677396 0.615420
0.658193 0.687430 0.616749
0.698244 0.710065 0.616651
0.758925 0.742501 0.610694
0.816624 0.765082 0.577673
0.793510 0.810954 0.595672
0.796533 0.812424 0.595174
0.813739 0.820397 0.591712
0.852994 0.839166 0.577226
0.905912 0.863655 0.535206
0.971726 0.895057 0.481170
0.347604 0.222749 0.320964
0.353895 0.233568 0.328753
0.376515 0.274395 0.360332
0.416417 0.340213 0.416636
0.481918 0.420367 0.488497
0.554492 0.489263 0.542366
0.362426 0.261405 0.346737
0.363348 0.260097 0.346360
0.384495 0.296973 0.376682
0.424366 0.358236 0.430797
0.490492 0.434736 0.499623
0.562754 0.500876 0.550235
0.411686 0.379155 0.438928
0.412863 0.379123 0.439361
0.428031 0.396011 0.455787
0.468946 0.440931 0.497420
0.535270 0.502014 0.548952
0.606316 0.557518 0.584205
0.506247 0.529279 0.558031
0.508361 0.530305 0.558950
0.525093 0.542473 0.567978
0.569806 0.576780 0.589389
0.632724 0.619299 0.607770
0.702653 0.661827 0.614083
0.651249 0.687271 0.615014
0.654703 0.689179 0.614932
0.672226 0.699153 0.614338
0.712031 0.721076 0.610765
0.772572 0.752953 0.598809
0.846176 0.787921 0.554109
0.805730 0.819375 0.585330
0.808846 0.820740 0.584740
0.825871 0.828660 0.581356
0.864602 0.847228 0.562499
0.924864 0.875239 0.510355
0.980626 0.903144 0.462545
0.370386 0.276020 0.409772
0.374913 0.283855 0.415325
0.393076 0.314715 0.437820
0.429231 0.367750 0.478200
0.489231 0.436213 0.529689
0.574402 0.513595 0.579135
0.381436 0.304684 0.428145
0.383152 0.305923 0.429355
0.400869 0.334361 0.450815
0.437224 0.384178 0.489304
0.497418 0.449576 0.538051
0.582698 0.524602 0.584139
0.424591 0.400450 0.494312
0.426393 0.401591 0.495419
0.445742 0.424348 0.512931
0.482677 0.461817 0.540984
0.542115 0.514212 0.575000
0.625561 0.577840 0.603272
0.511534 0.533329 0.578534
0.513721 0.534500 0.579246
0.533000 0.549657 0.587221
0.586556 0.593653 0.604263
0.641968 0.630028 0.611294
0.722482 0.677127 0.602651
0.644884 0.679236 0.611382
0.647454 0.680511 0.611326
0.665556 0.691016 0.609983
0.712001 0.719272 0.603942
0.788314 0.764866 0.581749
0.862147 0.798906 0.534571
0.822962 0.831108 0.570191
0.826113 0.832561 0.569498
0.842928 0.840288 0.564950
0.881223 0.858519 0.540262
0.938424 0.884949 0.488390
0.989241 0.911639 0.442025
