assets/luts/R&B.cube
LUT_3D_SIZE 16
0.178333 0.014921 0.010395
0.207284 0.025300 0.018132
0.238092 0.042062 0.031122
0.266562 0.066101 0.050519
0.291542 0.095471 0.077148
0.313161 0.127067 0.107228
0.332239 0.160402 0.139686
0.349762 0.195161 0.174320
0.366836 0.230836 0.210783
0.384514 0.266443 0.248157
0.403828 0.301438 0.285964
0.425612 0.335353 0.323728
0.449588 0.367718 0.360844
0.474948 0.398106 0.396285
0.500884 0.426402 0.429092
0.525622 0.451303 0.457504
0.218460 0.035283 0.024810
0.224726 0.038133 0.027116
0.246666 0.051862 0.038106
0.271243 0.074157 0.056626
0.294314 0.101534 0.082236
0.315014 0.131856 0.111334
0.333555 0.164342 0.143115
0.350780 0.198461 0.177287
0.367700 0.233697 0.213365
0.385327 0.268908 0.250480
0.404666 0.303602 0.288043
0.426463 0.337231 0.325616
0.450427 0.369418 0.362601
0.475757 0.399598 0.397738
0.501675 0.427723 0.430435
0.526388 0.452439 0.458654
0.259197 0.074671 0.054078
0.261528 0.076483 0.055741
0.270165 0.083723 0.062573
0.286855 0.101455 0.079594
0.304731 0.124046 0.101525
0.322214 0.150570 0.127586
0.338898 0.180123 0.157084
0.355026 0.212018 0.189511
0.371448 0.245421 0.224229
0.388832 0.279111 0.260179
0.408177 0.312542 0.296759
0.430000 0.345111 0.333551
0.453952 0.376378 0.369727
0.479181 0.405812 0.404150
0.504987 0.433202 0.435989
0.529570 0.457357 0.463516
0.294305 0.125975 0.099090
0.295463 0.127112 0.100255
0.299844 0.131883 0.105104
0.307599 0.140986 0.114405
0.320570 0.159890 0.133223
0.334334 0.182459 0.156055
0.348481 0.208318 0.182594
0.363112 0.236910 0.212431
0.378771 0.267398 0.244949
0.395939 0.298646 0.278981
0.415274 0.329788 0.313934
0.437203 0.360469 0.349184
0.461106 0.389992 0.383862
0.486155 0.417959 0.416710
0.511680 0.444076 0.447043
0.535966 0.467074 0.473085
0.323875 0.182242 0.150706
0.324445 0.183066 0.151559
0.327035 0.186531 0.155245
0.331771 0.193313 0.162427
0.338579 0.203642 0.173370
0.349525 0.223381 0.193916
0.361585 0.246077 0.217940
0.374920 0.271324 0.245214
0.390007 0.298710 0.275314
0.407046 0.326877 0.307065
0.426655 0.355307 0.339818
0.448616 0.383330 0.372927
0.472436 0.410584 0.405289
0.497201 0.436463 0.435784
0.522433 0.460721 0.463807
0.546148 0.482109 0.487630
0.349771 0.242004 0.207707
0.350140 0.242637 0.208390
0.351826 0.245320 0.211317
0.355125 0.250578 0.217198
0.360123 0.258809 0.226308
0.366722 0.269928 0.238708
0.377650 0.290204 0.260926
0.390434 0.312783 0.286184
0.405447 0.337260 0.314149
0.422862 0.362428 0.343603
0.442857 0.387807 0.373890
0.464856 0.413033 0.404204
0.488457 0.437605 0.433506
0.512817 0.461039 0.460874
0.537482 0.483009 0.485756
0.560488 0.502296 0.506725
0.374760 0.304049 0.269657
0.375069 0.304551 0.270241
0.376385 0.306643 0.272711
0.379130 0.310877 0.277674
0.383362 0.317566 0.285436
0.389239 0.326712 0.296235
0.396947 0.338395 0.309961
0.409994 0.358861 0.333825
0.425734 0.380901 0.359990
0.443861 0.403409 0.387139
0.464105 0.425926 0.414549
0.486154 0.448367 0.441355
0.509456 0.470239 0.467052
0.533276 0.490982 0.490642
0.557178 0.510496 0.511874
0.579275 0.527374 0.529391
0.402202 0.367281 0.336391
0.402481 0.367703 0.336872
0.403755 0.369472 0.339030
0.406326 0.372914 0.343363
0.410536 0.378428 0.350137
0.416518 0.386055 0.359649
0.424478 0.395860 0.371800
0.434729 0.407811 0.386660
0.451568 0.427993 0.411012
0.470303 0.448245 0.435344
0.490814 0.468307 0.459230
0.512703 0.488090 0.482220
0.535599 0.507300 0.503660
0.558724 0.525504 0.523023
0.581793 0.542503 0.540155
0.602717 0.556889 0.553857
0.435343 0.430674 0.406394
0.435641 0.431009 0.406812
0.436995 0.432480 0.408652
0.439789 0.435372 0.412353
0.444214 0.440011 0.418184
0.450581 0.446468 0.426244
0.459009 0.454842 0.436617
0.469690 0.465098 0.449221
0.482828 0.477258 0.463825
0.502199 0.495653 0.484907
0.522873 0.513675 0.504978
0.544647 0.531097 0.523542
0.567051 0.547976 0.540567
0.589291 0.563541 0.555377
0.611291 0.578115 0.568134
0.630860 0.590072 0.577977
0.475255 0.492495 0.473911
0.475530 0.492843 0.474231
0.476944 0.494085 0.475672
0.479821 0.496552 0.478615
0.484376 0.500494 0.483320
0.490901 0.506002 0.489706
0.499540 0.513221 0.498009
0.510449 0.522126 0.507957
0.523809 0.532670 0.519421
0.539695 0.544902 0.532127
0.560466 0.561171 0.547967
0.581962 0.576663 0.561933
0.603796 0.591280 0.574258
0.625220 0.604684 0.584497
0.645851 0.616751 0.592836
0.663884 0.626269 0.598963
0.520764 0.552227 0.532926
0.521093 0.552424 0.533190
0.522518 0.553482 0.534272
0.525328 0.555729 0.536437
0.529956 0.559061 0.539869
0.536493 0.563852 0.544600
0.545122 0.570017 0.550592
0.556056 0.577899 0.557860
0.569328 0.587042 0.566003
0.585187 0.597884 0.574930
0.603585 0.610261 0.584175
0.624677 0.623895 0.593490
0.645652 0.636585 0.601035
0.666047 0.647941 0.606787
0.685854 0.658060 0.608584
0.703528 0.664890 0.610176
0.570536 0.609360 0.578857
0.570845 0.609467 0.578975
0.572271 0.610441 0.579782
0.575074 0.612270 0.581137
0.579597 0.615216 0.583390
0.586024 0.619340 0.586303
0.594551 0.624847 0.590119
0.605311 0.631614 0.594525
0.618364 0.639795 0.599390
0.633762 0.649401 0.604499
0.651886 0.660299 0.609437
0.672421 0.672518 0.613685
0.692694 0.683612 0.616225
0.712007 0.693072 0.617577
0.730755 0.701453 0.612412
0.747482 0.706270 0.606402
0.623113 0.663236 0.608138
0.623437 0.663559 0.608200
0.624722 0.664298 0.608618
0.627500 0.665922 0.609258
0.631963 0.668512 0.610255
0.638236 0.672151 0.611789
0.646426 0.677100 0.613297
0.656694 0.683002 0.615118
0.669554 0.690236 0.616809
0.684530 0.698943 0.618095
0.702027 0.708564 0.618895
0.722155 0.719613 0.618853
0.745180 0.731777 0.617765
0.763394 0.739900 0.612672
0.781295 0.746414 0.601441
0.796121 0.749439 0.593490
0.676578 0.713813 0.619216
0.676941 0.714000 0.619240
0.678147 0.714686 0.619200
0.680658 0.716193 0.619291
0.685075 0.718391 0.619310
0.691115 0.721749 0.619294
0.699121 0.726115 0.619228
0.709045 0.731425 0.619003
0.721392 0.737900 0.618290
0.736070 0.745544 0.617205
0.753096 0.754263 0.615409
0.772712 0.764172 0.613084
0.794873 0.775486 0.606333
0.820692 0.788355 0.589859
0.837416 0.793015 0.577668
0.849713 0.793933 0.570225
0.730351 0.760834 0.615762
0.730629 0.761025 0.615743
0.731894 0.761589 0.615612
0.734352 0.762887 0.615400
0.738590 0.765015 0.614852
0.744399 0.767940 0.614144
0.752037 0.771730 0.613189
0.761741 0.776541 0.611886
0.773620 0.782346 0.610066
0.787650 0.789190 0.607819
0.803966 0.797100 0.604942
0.822722 0.806424 0.597540
0.844523 0.816987 0.582951
0.869843 0.828554 0.563827
0.898358 0.840841 0.544057
0.907555 0.839901 0.538417
0.781104 0.802380 0.605449
0.781432 0.802489 0.605419
0.782499 0.803113 0.605203
0.784983 0.804313 0.604778
0.788816 0.806074 0.604116
0.794484 0.808648 0.603062
0.801649 0.812165 0.601746
0.810871 0.816460 0.600062
0.822104 0.821649 0.597936
0.835196 0.827884 0.594337
0.850729 0.835352 0.586291
0.868884 0.844012 0.573502
0.889954 0.853697 0.556466
0.913215 0.864104 0.537167
0.937719 0.875121 0.517867
0.961881 0.886831 0.499723
0.194096 0.021007 0.016904
0.209766 0.026882 0.020641
0.239056 0.043022 0.032757
0.267086 0.066871 0.051915
0.291834 0.096041 0.078320
0.313367 0.127498 0.108168
0.332345 0.160754 0.140447
0.349856 0.195458 0.175002
0.366924 0.231123 0.211377
0.384582 0.266652 0.248686
0.403916 0.301646 0.286464
0.425714 0.335570 0.324207
0.449719 0.367906 0.361303
0.475020 0.398242 0.396628
0.500971 0.426516 0.429421
0.525713 0.451407 0.457783
0.220045 0.036255 0.026537
0.226003 0.039037 0.028705
0.246124 0.051154 0.038351
0.270532 0.072876 0.056250
0.293741 0.100189 0.081603
0.314530 0.130575 0.110604
0.333152 0.163180 0.142403
0.350449 0.197389 0.176554
0.367404 0.232705 0.212683
0.385052 0.268047 0.249844
0.404370 0.302786 0.287448
0.426125 0.336523 0.325052
0.450143 0.368780 0.362068
0.475464 0.399066 0.397396
0.501402 0.427256 0.430108
0.526160 0.452085 0.458388
0.259761 0.075295 0.055343
0.261631 0.076709 0.056537
0.270525 0.084173 0.063581
0.286570 0.100959 0.079664
0.304356 0.123191 0.101182
0.321862 0.149583 0.127054
0.338572 0.179144 0.156488
0.354752 0.211046 0.188886
0.371146 0.244520 0.223595
0.388571 0.278287 0.259591
0.407871 0.311771 0.296217
0.429700 0.344417 0.333002
0.453714 0.375789 0.369255
0.478890 0.405287 0.403758
0.504745 0.432774 0.435692
0.529313 0.456979 0.463284
0.294565 0.126366 0.100007
0.295355 0.127136 0.100679
0.299870 0.131970 0.105601
0.307740 0.141260 0.115008
0.320467 0.159576 0.133275
0.334103 0.181863 0.155807
0.348260 0.207618 0.182160
0.362909 0.236117 0.211930
0.378522 0.266649 0.244412
0.395617 0.297869 0.278443
0.414999 0.329136 0.313411
0.436913 0.359846 0.348684
0.460815 0.389477 0.383446
0.485868 0.417455 0.416352
0.511468 0.443617 0.446733
0.535746 0.466759 0.472888
0.323983 0.182527 0.151381
0.324390 0.183025 0.151796
0.326979 0.186537 0.155517
0.331776 0.193395 0.162767
0.338647 0.203815 0.173828
0.349472 0.223198 0.193940
0.361446 0.245601 0.217728
0.374769 0.270799 0.244888
0.389775 0.298100 0.274890
0.406776 0.326287 0.306615
0.426421 0.354698 0.339401
0.448375 0.382792 0.372490
0.472167 0.410093 0.404918
0.496968 0.436010 0.435452
0.522153 0.460365 0.463545
0.545939 0.481771 0.487450
0.349855 0.242231 0.208264
0.350075 0.242590 0.208538
0.351778 0.245264 0.211496
0.355090 0.250575 0.217382
0.360139 0.258863 0.226585
0.366759 0.270006 0.239043
0.377617 0.290026 0.260968
0.390282 0.312488 0.286051
0.405239 0.336812 0.313861
0.422693 0.361988 0.343276
0.442609 0.387334 0.373519
0.464597 0.412599 0.403820
0.488213 0.437172 0.433173
0.512542 0.460653 0.460606
0.537230 0.482681 0.485580
0.560301 0.502019 0.506608
0.374834 0.304209 0.270148
0.375013 0.304472 0.270365
0.376351 0.306594 0.272837
0.379070 0.310844 0.277813
0.383326 0.317552 0.285604
0.389248 0.326756 0.296403
0.396995 0.338465 0.310241
0.409965 0.358733 0.333848
0.425637 0.380681 0.359889
0.443734 0.403059 0.386958
0.463911 0.425586 0.414235
0.485913 0.447995 0.441095
0.509234 0.469870 0.466818
0.533098 0.490671 0.490423
0.557019 0.510244 0.511672
0.579064 0.527155 0.529283
0.402244 0.367405 0.336766
0.402398 0.367619 0.336905
0.403690 0.369369 0.339071
0.406280 0.372895 0.343420
0.410520 0.378386 0.350263
0.416471 0.386046 0.359771
0.424501 0.395933 0.371984
0.434785 0.407872 0.386902
0.451498 0.427946 0.411034
0.470234 0.448044 0.435282
0.490628 0.468096 0.459130
0.512516 0.487858 0.482051
0.535403 0.507030 0.503466
0.558534 0.525204 0.522868
0.581667 0.542245 0.539975
0.602554 0.556700 0.553688
0.435421 0.430779 0.406739
0.435581 0.430944 0.406835
0.436921 0.432381 0.408692
0.439710 0.435316 0.412371
0.444144 0.439978 0.418211
0.450509 0.446431 0.426312
0.458976 0.454839 0.436718
0.469699 0.465126 0.449348
0.482871 0.477334 0.464008
0.502199 0.495597 0.484966
0.522798 0.513491 0.504923
0.544485 0.530939 0.523445
0.566866 0.547789 0.540404
0.589118 0.563358 0.555288
0.611166 0.577917 0.567982
0.630735 0.589835 0.577837
0.475320 0.492639 0.474166
0.475461 0.492732 0.474234
0.476852 0.493984 0.475693
0.479762 0.496519 0.478645
0.484333 0.500461 0.483378
0.490842 0.505976 0.489723
0.499529 0.513202 0.498081
0.510434 0.522128 0.508025
0.523822 0.532703 0.519555
0.539710 0.544951 0.532307
0.560435 0.561085 0.547979
0.581912 0.576588 0.561920
0.603643 0.591160 0.574220
0.625072 0.604477 0.584451
0.645731 0.616608 0.592871
0.663802 0.626153 0.598942
0.520841 0.552270 0.533120
0.520987 0.552403 0.533210
0.522419 0.553453 0.534269
0.525266 0.555634 0.536450
0.529891 0.559015 0.539925
0.536414 0.563811 0.544636
0.545063 0.569987 0.550674
0.556019 0.577888 0.557857
0.569320 0.587047 0.566024
0.585174 0.597913 0.574993
0.603576 0.610252 0.584194
0.624585 0.623894 0.593481
0.645593 0.636503 0.601018
0.665907 0.647809 0.606762
0.685602 0.657917 0.608590
0.703412 0.664679 0.610181
0.570628 0.609409 0.578945
0.570787 0.609421 0.578980
0.572164 0.610393 0.579785
0.575009 0.612269 0.581144
0.579534 0.615213 0.583373
0.585947 0.619312 0.586310
0.594539 0.624823 0.590174
0.605204 0.631700 0.594547
0.618298 0.639822 0.599420
0.633769 0.649420 0.604553
0.651870 0.660286 0.609490
0.672453 0.672527 0.613668
0.692654 0.683599 0.616231
0.711963 0.693021 0.617571
0.730702 0.701348 0.612408
0.747428 0.706199 0.606422
0.623176 0.663338 0.608195
0.623305 0.663461 0.608196
0.624610 0.664233 0.608617
0.627385 0.665906 0.609253
0.631949 0.668463 0.610266
0.638151 0.672155 0.611772
0.646401 0.676992 0.613302
0.656773 0.683043 0.615063
0.669444 0.690232 0.616807
0.684471 0.698937 0.618095
0.702001 0.708548 0.618893
0.722163 0.719602 0.618811
0.745221 0.731875 0.617708
0.763374 0.739869 0.612615
0.781237 0.746409 0.601415
0.796011 0.749341 0.593504
0.676661 0.713857 0.619215
0.676863 0.713922 0.619230
0.678149 0.714634 0.619188
0.680671 0.716126 0.619286
0.685002 0.718460 0.619305
0.690985 0.721701 0.619323
0.699069 0.726074 0.619216
0.709022 0.731364 0.618986
0.721379 0.737903 0.618274
0.736000 0.745522 0.617205
0.753115 0.754267 0.615425
0.772724 0.764190 0.613114
0.794852 0.775479 0.606301
0.820751 0.788349 0.589844
0.837409 0.793005 0.577627
0.849693 0.793922 0.570215
0.730364 0.760888 0.615731
0.730533 0.761007 0.615727
0.731775 0.761562 0.615594
0.734278 0.762909 0.615382
0.738429 0.764980 0.614863
0.744327 0.767918 0.614118
0.752023 0.771707 0.613179
0.761664 0.776499 0.611879
0.773568 0.782358 0.610041
0.787580 0.789141 0.607788
0.803942 0.797093 0.604935
0.822651 0.806415 0.597479
0.844539 0.816992 0.582943
0.869912 0.828576 0.563797
0.898384 0.840855 0.544056
0.907570 0.839900 0.538380
0.781181 0.802428 0.605414
0.781332 0.802489 0.605381
0.782531 0.803057 0.605216
0.784859 0.804257 0.604767
0.788829 0.806022 0.604100
0.794341 0.808599 0.603065
0.801627 0.812122 0.601730
0.810827 0.816422 0.600083
0.822077 0.821618 0.597905
0.835225 0.827867 0.594274
0.850660 0.835341 0.586277
0.868880 0.844018 0.573490
0.889958 0.853701 0.556413
0.913172 0.864056 0.537120
0.937719 0.875111 0.517802
0.961850 0.886809 0.499678
0.211710 0.029886 0.027664
0.220592 0.033912 0.030221
0.242896 0.046905 0.039414
0.269137 0.070028 0.057777
0.293031 0.098388 0.083240
0.314159 0.129359 0.112162
0.332945 0.162284 0.143858
0.350291 0.196741 0.177917
0.367311 0.232213 0.213987
0.384957 0.267621 0.251002
0.404264 0.302471 0.288555
0.426051 0.336268 0.326049
0.450072 0.368561 0.363014
0.475384 0.398831 0.398120
0.501304 0.427009 0.430754
0.526089 0.451855 0.458926
0.229120 0.042578 0.035392
0.231808 0.043429 0.036097
0.249431 0.054720 0.044674
0.272423 0.075824 0.062064
0.294904 0.102477 0.086396
0.315302 0.132403 0.114563
0.333721 0.164655 0.145749
0.350885 0.198638 0.179460
0.367799 0.233766 0.215241
0.385365 0.268960 0.252108
0.404730 0.303624 0.289565
0.426496 0.337242 0.326956
0.450496 0.369441 0.363819
0.475826 0.399624 0.398879
0.501734 0.427774 0.431419
0.526513 0.452515 0.459512
0.262032 0.077850 0.060649
0.263879 0.079310 0.061992
0.272278 0.086533 0.068728
0.286745 0.101025 0.082376
0.303846 0.121895 0.102250
0.321144 0.147608 0.127151
0.337838 0.176837 0.155955
0.354004 0.208661 0.187949
0.370425 0.242110 0.222498
0.387785 0.276002 0.258407
0.407076 0.309702 0.295080
0.428876 0.342643 0.331992
0.452899 0.374233 0.368401
0.478185 0.403995 0.403094
0.504134 0.431742 0.435256
0.528841 0.456234 0.463057
0.295713 0.128006 0.103808
0.296492 0.128786 0.104520
0.300425 0.133071 0.108651
0.308521 0.142639 0.118192
0.320470 0.159438 0.134896
0.333766 0.180792 0.156382
0.347746 0.205981 0.182048
0.362290 0.234237 0.211349
0.377862 0.264690 0.243540
0.394942 0.295922 0.277445
0.414251 0.327315 0.312436
0.436108 0.358187 0.347782
0.460095 0.388007 0.382634
0.485187 0.416250 0.415740
0.510876 0.442675 0.446343
0.535258 0.466025 0.472686
0.324636 0.183716 0.154289
0.325039 0.184240 0.154759
0.327150 0.187055 0.157488
0.332054 0.194074 0.164847
0.339052 0.204718 0.176076
0.349432 0.223028 0.195106
0.361165 0.244794 0.218107
0.374310 0.269530 0.244686
0.389249 0.296630 0.274415
0.406208 0.324711 0.305883
0.425693 0.353161 0.338604
0.447659 0.381364 0.371702
0.471479 0.408781 0.404267
0.496297 0.434915 0.434932
0.521640 0.459455 0.463196
0.545493 0.481080 0.487272
0.350284 0.243137 0.210630
0.350532 0.243508 0.210904
0.351815 0.245526 0.212880
0.355194 0.250928 0.218869
0.360314 0.259297 0.228161
0.367078 0.270712 0.240770
0.377587 0.289925 0.261854
0.390040 0.311801 0.286309
0.404869 0.335837 0.313691
0.422166 0.360788 0.342860
0.441967 0.386152 0.372956
0.463951 0.411378 0.403237
0.487537 0.436069 0.432684
0.511997 0.459683 0.460145
0.536710 0.481906 0.485261
0.559864 0.501417 0.506459
0.375183 0.304934 0.272136
0.375310 0.305217 0.272316
0.376302 0.306662 0.273824
0.379066 0.311006 0.278851
0.383382 0.317780 0.286786
0.389375 0.327093 0.297667
0.397249 0.338955 0.311625
0.409947 0.358633 0.334607
0.425402 0.380206 0.360155
0.443340 0.402346 0.386873
0.463432 0.424746 0.413981
0.485352 0.447055 0.440730
0.508639 0.468958 0.466438
0.532549 0.489861 0.490139
0.556522 0.509523 0.511476
0.578793 0.526631 0.529180
0.402596 0.368059 0.338515
0.402734 0.368223 0.338685
0.403578 0.369391 0.339825
0.406247 0.372917 0.344205
0.410508 0.378502 0.351102
0.416514 0.386251 0.360669
0.424635 0.396162 0.373015
0.435014 0.408323 0.388043
0.451498 0.427869 0.411609
0.469964 0.447645 0.435504
0.490301 0.467497 0.459081
0.512075 0.487213 0.481897
0.534947 0.506360 0.503332
0.558118 0.524591 0.522701
0.581173 0.541624 0.539841
0.602263 0.556249 0.553677
0.435735 0.431283 0.408265
0.435879 0.431444 0.408341
0.436789 0.432360 0.409278
0.439620 0.435279 0.413008
0.444068 0.439993 0.418859
0.450513 0.446509 0.426996
0.459045 0.454981 0.437454
0.469860 0.465393 0.450161
0.483129 0.477621 0.464863
0.502193 0.495569 0.485472
0.522614 0.513206 0.505068
0.544225 0.530510 0.523464
0.566446 0.547303 0.540365
0.588737 0.562860 0.555187
0.610813 0.577437 0.567942
0.630430 0.589465 0.577835
0.475642 0.493051 0.475325
0.475804 0.493200 0.475386
0.476721 0.493939 0.476109
0.479576 0.496486 0.479098
0.484214 0.500443 0.483821
0.490763 0.505987 0.490237
0.499476 0.513213 0.498543
0.510457 0.522222 0.508544
0.523944 0.532886 0.520086
0.539940 0.545232 0.532891
0.560454 0.561057 0.548298
0.581751 0.576345 0.562072
0.603405 0.590806 0.574254
0.624694 0.604157 0.584430
0.645356 0.616219 0.592882
0.663524 0.625850 0.598941
0.521169 0.552642 0.533970
0.521376 0.552823 0.534092
0.522220 0.553385 0.534558
0.525090 0.555607 0.536749
0.529726 0.558963 0.540238
0.536257 0.563803 0.544989
0.545020 0.570017 0.550978
0.556004 0.577920 0.558181
0.569416 0.587218 0.566390
0.585303 0.598095 0.575323
0.603776 0.610403 0.584542
0.624695 0.623898 0.593701
0.645556 0.636377 0.601137
0.665741 0.647572 0.606790
0.685546 0.657676 0.608617
0.703110 0.664603 0.610250
0.570949 0.609699 0.579548
0.571087 0.609774 0.579568
0.571946 0.610360 0.579875
0.574862 0.612200 0.581355
0.579369 0.615210 0.583579
0.585860 0.619304 0.586464
0.594398 0.624833 0.590240
0.605164 0.631664 0.594766
0.618302 0.639933 0.599587
0.633824 0.649529 0.604726
0.651989 0.660449 0.609572
0.672682 0.672871 0.613793
0.692801 0.683610 0.616275
0.711843 0.692930 0.617570
0.730500 0.701171 0.612418
0.747265 0.706047 0.606404
0.623528 0.663625 0.608455
0.623606 0.663674 0.608480
0.624458 0.664231 0.608680
0.627307 0.665796 0.609349
0.631647 0.668396 0.610372
0.638000 0.672129 0.611837
0.646276 0.676992 0.613350
0.656614 0.683000 0.615144
0.669413 0.690285 0.616834
0.684513 0.698944 0.618109
0.702061 0.708658 0.618918
0.722340 0.719751 0.618756
0.745431 0.731998 0.617628
0.763428 0.739958 0.612578
0.781200 0.746369 0.601315
0.795891 0.749271 0.593453
0.676966 0.714107 0.619199
0.677153 0.714164 0.619213
0.677949 0.714606 0.619153
0.680584 0.716099 0.619244
0.684913 0.718414 0.619281
0.690838 0.721692 0.619281
0.698841 0.726084 0.619162
0.708971 0.731420 0.618961
0.721323 0.737917 0.618220
0.736043 0.745569 0.617125
0.753068 0.754313 0.615420
0.772813 0.764289 0.612994
0.795079 0.775669 0.606132
0.821080 0.788567 0.589528
0.837529 0.793088 0.577471
0.849726 0.793913 0.570143
0.730757 0.761072 0.615591
0.730770 0.761178 0.615606
0.731654 0.761547 0.615508
0.734172 0.762901 0.615317
0.738361 0.764981 0.614734
0.744234 0.767900 0.614067
0.751861 0.771719 0.613049
0.761593 0.776555 0.611785
0.773526 0.782398 0.609981
0.787617 0.789226 0.607611
0.803987 0.797097 0.604813
0.822728 0.806484 0.597347
0.844604 0.817117 0.582823
0.870015 0.828684 0.563520
0.898614 0.840990 0.543771
0.907650 0.839955 0.538166
0.781542 0.802641 0.605174
0.781593 0.802636 0.605177
0.782471 0.803102 0.605091
0.784757 0.804306 0.604769
0.788749 0.806079 0.604012
0.794338 0.808668 0.603010
0.801665 0.812158 0.601581
0.810845 0.816472 0.599955
0.822107 0.821744 0.597760
0.835229 0.827905 0.594176
0.850711 0.835425 0.586223
0.868926 0.844093 0.573288
0.890107 0.853792 0.556271
0.913300 0.864136 0.536929
0.937948 0.875244 0.517500
0.962027 0.886954 0.499389
0.229484 0.041681 0.043654
0.235001 0.044826 0.045752
0.252091 0.056564 0.054115
0.272996 0.076034 0.069278
0.295476 0.102989 0.092636
0.315748 0.133017 0.120010
0.334082 0.165286 0.150548
0.351177 0.199308 0.183789
0.368104 0.234368 0.219185
0.385667 0.269514 0.255645
0.405034 0.304155 0.292768
0.426783 0.337692 0.329858
0.450778 0.369822 0.366412
0.476088 0.399982 0.401222
0.501996 0.428024 0.433435
0.526649 0.452731 0.461267
0.241213 0.052485 0.050370
0.242198 0.052254 0.050332
0.256884 0.063139 0.058463
0.276131 0.081491 0.073285
0.297271 0.106940 0.095646
0.316887 0.136014 0.122322
0.334858 0.167657 0.152390
0.351771 0.201190 0.185326
0.368586 0.235973 0.220469
0.386147 0.270849 0.256790
0.405438 0.305259 0.293676
0.427217 0.338730 0.330751
0.451263 0.370709 0.367212
0.476525 0.400738 0.401993
0.502466 0.428796 0.434111
0.527132 0.453395 0.461861
0.269401 0.086924 0.074998
0.270204 0.087202 0.075336
0.276140 0.091705 0.079475
0.289499 0.105453 0.091773
0.305809 0.125758 0.110580
0.322566 0.150909 0.134422
0.338901 0.179659 0.162347
0.354880 0.211062 0.193625
0.371164 0.244229 0.227580
0.388526 0.277920 0.263016
0.407808 0.311326 0.299237
0.429640 0.344060 0.335775
0.453668 0.375470 0.371827
0.478904 0.405095 0.406119
0.504811 0.432742 0.437899
0.529525 0.457109 0.465366
0.297827 0.131294 0.111290
0.298616 0.132111 0.112075
0.302480 0.136419 0.116242
0.310220 0.145723 0.125294
0.321050 0.160511 0.139784
0.333724 0.180383 0.159490
0.347341 0.204591 0.183860
0.361676 0.232200 0.212188
0.377142 0.262261 0.243714
0.394107 0.293414 0.277230
0.413346 0.324987 0.312105
0.435217 0.356136 0.347524
0.459217 0.386337 0.382516
0.484480 0.414930 0.415886
0.510363 0.441797 0.446741
0.535005 0.465530 0.473391
0.325879 0.186113 0.160050
0.326289 0.186633 0.160556
0.328388 0.189483 0.163346
0.332901 0.195942 0.169883
0.339985 0.206843 0.181167
0.349764 0.223630 0.198578
0.361049 0.244287 0.220289
0.373930 0.268258 0.245885
0.388672 0.294856 0.274885
0.405452 0.322802 0.305980
0.424858 0.351262 0.338498
0.446832 0.379617 0.371613
0.470678 0.407341 0.404265
0.495622 0.433762 0.435122
0.521091 0.458618 0.463618
0.545213 0.480676 0.487961
0.351121 0.244991 0.215340
0.351346 0.245369 0.215651
0.352673 0.247397 0.217677
0.355618 0.252051 0.222543
0.360839 0.260602 0.231938
0.367706 0.272197 0.244692
0.377756 0.290276 0.264494
0.389946 0.311327 0.287955
0.404486 0.334819 0.314621
0.421585 0.359433 0.343253
0.441238 0.384674 0.373142
0.463203 0.410007 0.403309
0.486836 0.434857 0.432771
0.511373 0.458656 0.460420
0.536239 0.481177 0.485723
0.559641 0.501062 0.507127
0.375831 0.306409 0.276114
0.376052 0.306656 0.276343
0.377015 0.308192 0.277882
0.379303 0.311734 0.281712
0.383701 0.318607 0.289736
0.389811 0.328095 0.300716
0.397755 0.340086 0.314778
0.410123 0.358897 0.336742
0.425257 0.379752 0.361484
0.442950 0.401518 0.387664
0.462899 0.423713 0.414385
0.484740 0.446034 0.441018
0.508036 0.467976 0.466697
0.532018 0.489004 0.490457
0.556156 0.508919 0.511912
0.578545 0.526358 0.529732
0.403221 0.369229 0.341986
0.403373 0.369489 0.342172
0.404229 0.370597 0.343370
0.406334 0.373356 0.346458
0.410663 0.379014 0.353399
0.416840 0.386879 0.363031
0.425038 0.396925 0.375507
0.435615 0.409177 0.390673
