assets/luts/War.cube
LUT_3D_SIZE 16
-0.039370 -0.052712 -0.052666
0.011576 -0.051213 -0.051167
0.143064 0.029062 0.026749
0.197863 0.074659 0.065904
0.256709 0.098560 0.084239
0.320879 0.097854 0.080301
0.389944 0.121103 0.097562
0.462088 0.157134 0.127011
0.535433 0.192915 0.156606
0.608138 0.227969 0.186031
0.679471 0.262069 0.215018
0.748701 0.294799 0.243100
0.815252 0.325683 0.269926
0.878731 0.354439 0.295148
0.938458 0.381046 0.318602
0.992671 0.404907 0.339800
-0.030622 -0.032757 -0.047356
0.029638 -0.029704 -0.045602
0.143500 0.041232 0.025767
0.198032 0.079923 0.065673
0.256838 0.103802 0.084031
0.321014 0.104982 0.079972
0.390097 0.127501 0.097273
0.462193 0.162272 0.126793
0.535515 0.197208 0.156446
0.608238 0.231687 0.185906
0.679496 0.265305 0.214884
0.748676 0.297691 0.243021
0.815266 0.328275 0.269846
0.878760 0.356735 0.295036
0.938499 0.383084 0.318562
0.992662 0.406703 0.339747
0.109545 0.071829 0.032483
0.118595 0.071778 0.029256
0.144992 0.071316 0.022576
0.198649 0.098996 0.064879
0.257302 0.123217 0.083254
0.321409 0.130297 0.078695
0.390429 0.151250 0.096143
0.462477 0.182244 0.125952
0.535762 0.214441 0.155816
0.608420 0.246759 0.185409
0.679732 0.278589 0.214526
0.748859 0.309452 0.242720
0.815401 0.338797 0.269595
0.878907 0.366179 0.294818
0.938662 0.391583 0.318367
0.992728 0.414380 0.339567
0.154383 0.127919 0.072212
0.158435 0.128005 0.071136
0.174179 0.128125 0.067453
0.199695 0.127971 0.064179
0.257998 0.153839 0.082125
0.322041 0.168272 0.076618
0.390934 0.188661 0.094260
0.462891 0.215988 0.124533
0.536131 0.244884 0.154683
0.608748 0.274199 0.184462
0.679976 0.303386 0.213731
0.749181 0.331783 0.242043
0.815709 0.359031 0.269023
0.879175 0.384501 0.294348
0.938930 0.408181 0.317937
0.992950 0.429476 0.339276
0.184577 0.189248 0.101076
0.187940 0.189396 0.100128
0.201615 0.189947 0.096170
0.226339 0.190516 0.088809
0.258997 0.190638 0.082534
0.322813 0.212520 0.074918
0.391541 0.233766 0.092003
0.463354 0.258879 0.122706
0.536504 0.285280 0.153188
0.609067 0.311853 0.183258
0.680281 0.338293 0.212672
0.749443 0.363922 0.241109
0.816031 0.388517 0.268239
0.879490 0.411625 0.293626
0.939303 0.433104 0.317364
0.993311 0.452255 0.338694
0.204258 0.255947 0.121749
0.207670 0.256170 0.120739
0.221496 0.256991 0.116428
0.246847 0.258214 0.107679
0.282042 0.259309 0.093718
0.323857 0.259788 0.078846
0.392192 0.282977 0.091667
0.463817 0.307317 0.121245
0.536866 0.332279 0.151655
0.609360 0.356916 0.181862
0.680529 0.380977 0.211474
0.749787 0.404207 0.240080
0.816308 0.426226 0.267353
0.879826 0.446751 0.292834
0.939687 0.465640 0.316593
0.993673 0.482366 0.338024
0.240154 0.328409 0.155404
0.242941 0.328596 0.154616
0.254542 0.329341 0.151203
0.276480 0.330677 0.144243
0.308142 0.332200 0.133033
0.347818 0.333583 0.116930
0.393233 0.334273 0.099161
0.464297 0.358978 0.122816
0.537176 0.383534 0.151228
0.609611 0.406953 0.180813
0.680738 0.429399 0.210299
0.749910 0.450620 0.238933
0.816668 0.470379 0.266221
0.880123 0.488389 0.291875
0.940077 0.504797 0.315783
0.994082 0.518953 0.337269
0.283338 0.404732 0.195796
0.285591 0.404870 0.195156
0.295049 0.405551 0.192546
0.313397 0.406705 0.187232
0.340632 0.408354 0.178671
0.376076 0.410083 0.166389
0.418207 0.411537 0.150180
0.465193 0.412461 0.132690
0.537558 0.437506 0.154755
0.609784 0.460643 0.181530
0.680918 0.482053 0.209899
0.750219 0.501705 0.238069
0.816835 0.519541 0.265276
0.880511 0.535329 0.290906
0.940335 0.549298 0.314883
0.994605 0.560897 0.336411
0.327252 0.483349 0.237611
0.329104 0.483487 0.237056
0.336984 0.484100 0.234853
0.352553 0.485189 0.230567
0.376263 0.486793 0.223661
0.407723 0.488619 0.213845
0.445936 0.490467 0.200814
0.489984 0.492109 0.184526
0.538345 0.493221 0.166845
0.610034 0.516652 0.186980
0.680981 0.537647 0.211885
0.750268 0.556256 0.238469
0.817040 0.572428 0.264889
0.880623 0.586354 0.290240
0.940783 0.598100 0.314036
0.994974 0.607316 0.335603
0.370866 0.562236 0.279809
0.372456 0.562404 0.279340
0.379066 0.562941 0.277305
0.392356 0.563937 0.273667
0.413089 0.565432 0.267971
0.440853 0.567244 0.259861
0.475315 0.569255 0.249092
0.515758 0.571276 0.235508
0.561257 0.572958 0.219191
0.610875 0.574281 0.201173
0.681254 0.595300 0.219019
0.750367 0.613302 0.241720
0.817085 0.628359 0.266114
0.880872 0.640585 0.290387
0.940999 0.650405 0.313678
0.995343 0.657453 0.334874
0.413661 0.640179 0.321756
0.414932 0.640334 0.321322
0.420549 0.640873 0.319482
0.432008 0.641804 0.316126
0.450101 0.643148 0.311309
0.474726 0.644876 0.304551
0.505634 0.646956 0.295505
0.542469 0.649053 0.284051
0.584527 0.651172 0.270031
0.631348 0.652986 0.253490
0.682166 0.654484 0.235212
0.750579 0.672286 0.250575
0.817091 0.686615 0.270718
0.880910 0.697454 0.292569
0.941184 0.705498 0.314394
0.995867 0.710207 0.334935
0.454907 0.716085 0.362872
0.456042 0.716137 0.362467
0.460868 0.716654 0.360837
0.470695 0.717494 0.357713
0.486489 0.718698 0.353387
0.508362 0.720500 0.347594
0.536136 0.722489 0.339869
0.569536 0.724559 0.330090
0.608229 0.726859 0.318122
0.651733 0.728924 0.303769
0.699763 0.730997 0.287162
0.751587 0.732470 0.268592
0.817558 0.746283 0.281106
0.881121 0.756198 0.298233
0.941376 0.762657 0.317299
0.996144 0.765784 0.336166
0.494218 0.788624 0.402628
0.495180 0.788738 0.402234
0.499371 0.789166 0.400786
0.507884 0.789918 0.397930
0.521607 0.791150 0.393826
0.541084 0.792835 0.388701
0.565959 0.794627 0.382056
0.596251 0.796697 0.373654
0.631600 0.799044 0.363311
0.671855 0.801340 0.350871
0.716722 0.803532 0.336174
0.765787 0.805542 0.319305
0.818744 0.807161 0.300447
0.881690 0.816350 0.309928
0.941841 0.821696 0.323967
0.996476 0.823043 0.339745
0.531053 0.857017 0.440316
0.531909 0.857102 0.440011
0.535578 0.857501 0.438709
0.543016 0.858313 0.436143
0.554964 0.859485 0.432275
0.572168 0.860876 0.427463
0.594545 0.862651 0.421685
0.622009 0.864733 0.414380
0.654274 0.866895 0.405289
0.691246 0.869228 0.394425
0.732879 0.871590 0.381490
0.778830 0.873890 0.366508
0.829077 0.875852 0.349280
0.883141 0.877516 0.330082
0.942663 0.881942 0.336507
0.997205 0.881892 0.347286
0.565358 0.920772 0.475743
0.566075 0.920822 0.475419
0.569280 0.921132 0.474299
0.575840 0.921910 0.471950
0.586387 0.922977 0.468406
0.601442 0.924370 0.463806
0.621585 0.926010 0.458589
0.646442 0.927949 0.452093
0.675926 0.930112 0.444132
0.709721 0.932315 0.434610
0.748284 0.934764 0.423162
0.791032 0.937098 0.409853
0.838122 0.939343 0.394501
0.889271 0.941316 0.376950
0.944346 0.942904 0.357369
0.998261 0.941713 0.360510
0.596293 0.977720 0.508074
0.596943 0.977790 0.507835
0.599830 0.978111 0.506730
0.605622 0.978726 0.504641
0.614974 0.979686 0.501429
0.628307 0.980939 0.497106
0.646160 0.982505 0.492014
0.668691 0.984303 0.486356
0.695503 0.986236 0.479354
0.726607 0.988323 0.470873
0.762024 0.990562 0.460775
0.801579 0.992930 0.448979
0.845465 0.995224 0.435209
0.893366 0.997247 0.419565
0.945383 0.999064 0.401698
0.999968 0.999967 0.381407
-0.038610 -0.052211 -0.040122
0.015001 -0.050692 -0.037884
0.143029 0.029237 0.039212
0.197853 0.074701 0.070698
0.256698 0.098614 0.088987
0.320861 0.097937 0.087142
0.389946 0.121175 0.103806
0.462093 0.157183 0.131977
0.535422 0.192968 0.160770
0.608148 0.228011 0.189632
0.679453 0.262139 0.218156
0.748599 0.294826 0.245866
0.815240 0.325732 0.272422
0.878722 0.354509 0.297307
0.938454 0.381094 0.320589
0.992676 0.404921 0.341599
-0.029528 -0.031766 -0.031677
0.030727 -0.028560 -0.028458
0.143842 0.047760 0.044472
0.198181 0.084110 0.074025
0.256952 0.107264 0.091740
0.321046 0.108341 0.089822
0.390081 0.129568 0.105402
0.462172 0.163286 0.132685
0.535486 0.197668 0.161021
0.608232 0.231821 0.189606
0.679490 0.265307 0.218027
0.748595 0.297590 0.245731
0.815279 0.328162 0.272217
0.878748 0.356620 0.297176
0.938489 0.383022 0.320489
0.992665 0.406690 0.341524
0.109670 0.071865 0.042302
0.124114 0.071753 0.045263
0.145104 0.071346 0.043321
0.198770 0.101215 0.073378
0.257361 0.125573 0.091036
0.321487 0.132630 0.088732
0.390478 0.152777 0.104404
0.462485 0.183104 0.131943
0.535736 0.214849 0.160404
0.608414 0.246883 0.189147
0.679721 0.278582 0.217618
0.748842 0.309395 0.245412
0.815411 0.338653 0.272010
0.878891 0.366110 0.296971
0.938654 0.391563 0.320283
0.992731 0.414387 0.341406
0.154438 0.127939 0.076283
0.161780 0.128093 0.077766
0.176113 0.128149 0.075149
0.199759 0.127999 0.072782
0.258079 0.154923 0.090065
0.322087 0.169589 0.087020
0.391021 0.189671 0.102714
0.462911 0.216599 0.130597
0.536111 0.245169 0.159337
0.608756 0.274329 0.188213
0.679975 0.303374 0.216859
0.749183 0.331747 0.244749
0.815705 0.358874 0.271389
0.879168 0.384429 0.296500
0.938926 0.408159 0.319871
0.992955 0.429469 0.341053
0.184718 0.189235 0.104680
0.190380 0.189514 0.105578
0.203465 0.190030 0.102039
0.227301 0.190577 0.095602
0.259051 0.190648 0.090362
0.322854 0.213119 0.085625
0.391572 0.234352 0.100715
0.463348 0.259305 0.128879
0.536505 0.285504 0.157892
0.609065 0.311964 0.187017
0.680222 0.338253 0.215831
0.749459 0.363918 0.243855
0.816032 0.388490 0.270605
0.879458 0.411593 0.295827
0.939308 0.433053 0.319317
0.993288 0.452269 0.340514
0.204554 0.255913 0.125623
0.209666 0.256229 0.126056
0.223083 0.257041 0.122053
0.247900 0.258259 0.114014
0.282569 0.259343 0.101462
0.323886 0.259814 0.088795
0.392207 0.283216 0.100373
0.463823 0.307588 0.127496
0.536873 0.332431 0.156391
0.609372 0.356992 0.185657
0.680541 0.380942 0.214653
0.749726 0.404136 0.242821
0.816319 0.426155 0.269693
0.879788 0.446675 0.294988
0.939699 0.465612 0.318555
0.993694 0.482344 0.339832
0.240443 0.328397 0.158710
0.244195 0.328601 0.158770
0.255632 0.329380 0.155493
0.277281 0.330684 0.148838
0.308662 0.332263 0.138194
0.348088 0.333590 0.123129
0.393228 0.334276 0.107009
0.464332 0.359068 0.128935
0.537205 0.383579 0.156008
0.609645 0.406990 0.184652
0.680753 0.429379 0.213471
0.749959 0.450570 0.241724
0.816683 0.470295 0.268630
0.880137 0.488358 0.294125
0.940033 0.504775 0.317715
0.994109 0.518964 0.339105
0.283626 0.404632 0.198583
0.286344 0.404870 0.198370
0.295709 0.405552 0.195803
0.313926 0.406724 0.190618
0.341026 0.408350 0.182272
0.376296 0.410121 0.170368
0.418316 0.411548 0.154801
0.465222 0.412466 0.138183
0.537544 0.437549 0.159347
0.609797 0.460661 0.185373
0.680933 0.482055 0.213067
0.750224 0.501689 0.240818
0.816854 0.519461 0.267700
0.880505 0.535271 0.293108
0.940356 0.549275 0.316834
0.994632 0.560900 0.338244
0.327520 0.483290 0.240032
0.329567 0.483469 0.239644
0.337401 0.484074 0.237440
0.352910 0.485195 0.233214
0.376528 0.486765 0.226437
0.407847 0.488606 0.216789
0.446058 0.490487 0.203990
0.490003 0.492117 0.188106
0.538369 0.493210 0.170974
0.610073 0.516648 0.190585
0.680982 0.537616 0.215024
0.750326 0.556220 0.241184
0.817036 0.572409 0.267333
0.880641 0.586337 0.292442
0.940749 0.598090 0.316015
0.995005 0.607320 0.337418
0.371133 0.562188 0.281939
0.372757 0.562356 0.281492
0.379291 0.562901 0.279447
0.392660 0.563921 0.275840
0.413272 0.565421 0.270210
0.440973 0.567254 0.262205
0.475390 0.569257 0.251609
0.515764 0.571280 0.238183
0.561259 0.572963 0.222101
0.610882 0.574288 0.204472
0.681252 0.595305 0.222038
0.750343 0.613290 0.244393
0.817104 0.628334 0.268508
0.880895 0.640578 0.292609
0.940962 0.650399 0.315618
0.995378 0.657460 0.336747
0.413928 0.640187 0.323660
0.415181 0.640291 0.323193
0.420759 0.640857 0.321356
0.432179 0.641794 0.317948
0.450217 0.643131 0.313243
0.474801 0.644866 0.306456
0.505689 0.646952 0.297506
0.542515 0.649056 0.286098
0.584551 0.651154 0.272296
0.631338 0.652996 0.256031
0.682172 0.654526 0.237930
0.750622 0.672276 0.253072
0.817110 0.686558 0.273025
0.880935 0.697447 0.294688
0.941172 0.705484 0.316366
0.995781 0.710258 0.336735
0.455173 0.716053 0.364561
0.456247 0.716175 0.364087
0.461032 0.716565 0.362475
0.470844 0.717474 0.359325
0.486583 0.718683 0.355017
0.508447 0.720500 0.349267
0.536205 0.722523 0.341595
0.569569 0.724605 0.331867
0.608250 0.726875 0.319985
0.651734 0.728970 0.305768
0.699722 0.730950 0.289305
0.751543 0.732483 0.270897
0.817574 0.746281 0.283310
0.881096 0.756188 0.300351
0.941404 0.762648 0.319231
0.996123 0.765795 0.337959
0.494452 0.788644 0.404122
0.495363 0.788691 0.403696
0.499521 0.789162 0.402244
0.508030 0.789895 0.399398
0.521687 0.791133 0.395228
0.541119 0.792802 0.390199
0.566024 0.794601 0.383614
0.596284 0.796691 0.375179
0.631616 0.799046 0.364864
0.671860 0.801347 0.352518
0.716724 0.803509 0.337901
0.765740 0.805531 0.321179
0.818741 0.807149 0.302491
0.881663 0.816354 0.311857
0.941874 0.821668 0.325791
0.996520 0.823012 0.341620
0.531293 0.856976 0.441703
0.532099 0.857073 0.441355
0.535723 0.857481 0.440034
0.543181 0.858243 0.437447
0.555075 0.859453 0.433587
0.572244 0.860858 0.428770
0.594616 0.862637 0.423064
0.622051 0.864693 0.415714
0.654311 0.866896 0.406669
0.691238 0.869224 0.395830
0.732888 0.871602 0.382964
0.778832 0.873907 0.368034
0.829083 0.875871 0.351008
0.883161 0.877537 0.331941
0.942689 0.881953 0.338356
0.997230 0.881912 0.349016
0.565550 0.920703 0.476973
0.566274 0.920773 0.476682
0.569467 0.921134 0.475525
0.576016 0.921926 0.473174
0.586512 0.922974 0.469618
0.601578 0.924386 0.465032
0.621668 0.926000 0.459773
0.646527 0.927943 0.453324
0.675930 0.930114 0.445412
0.709776 0.932323 0.435891
0.748291 0.934776 0.424506
0.791048 0.937115 0.411256
0.838103 0.939364 0.395943
0.889284 0.941286 0.378558
0.944374 0.942891 0.359037
0.998290 0.941699 0.362184
0.596481 0.977703 0.509129
0.597170 0.977798 0.508926
0.600036 0.978070 0.507938
0.605813 0.978691 0.505795
0.615123 0.979670 0.502565
0.628504 0.980973 0.498201
0.646259 0.982496 0.493215
0.668788 0.984301 0.487469
0.695564 0.986240 0.480481
0.726637 0.988328 0.472070
0.762081 0.990576 0.461964
0.801594 0.992913 0.450209
0.845467 0.995247 0.436538
0.893362 0.997281 0.420910
0.945410 0.999095 0.403049
0.999968 0.999967 0.382997
0.102085 0.033475 0.065228
0.113441 0.032592 0.065961
0.142493 0.030595 0.065814
0.197692 0.075006 0.087470
0.256588 0.098866 0.106259
0.320711 0.098336 0.110486
0.389861 0.121492 0.126182
0.461984 0.157448 0.150987
0.535328 0.193137 0.177304
0.608075 0.228196 0.204141
0.679403 0.262274 0.231000
0.748549 0.294959 0.257369
0.815128 0.325846 0.282722
0.878672 0.354613 0.306633
0.938430 0.381134 0.329026
0.992577 0.404992 0.349210
0.104131 0.043799 0.065898
0.121671 0.048930 0.066274
0.143628 0.048192 0.065615
0.198139 0.084287 0.089067
0.256846 0.107463 0.108054
0.320920 0.108656 0.112257
0.389974 0.129878 0.127339
0.462098 0.163525 0.151557
0.535403 0.197863 0.177468
0.608120 0.231996 0.204136
0.679471 0.265432 0.230886
0.748576 0.297734 0.257202
0.815243 0.328250 0.282565
0.878649 0.356816 0.306460
0.938436 0.383130 0.328935
0.992621 0.406795 0.349184
0.110200 0.072023 0.066631
0.124493 0.071827 0.065661
0.145332 0.071420 0.064823
0.196024 0.099494 0.087069
0.252664 0.120425 0.103111
0.316166 0.122734 0.102839
0.386336 0.141873 0.116772
0.459488 0.173129 0.141833
0.533519 0.206006 0.168811
0.606738 0.239266 0.196589
0.678438 0.272206 0.224501
0.748035 0.304125 0.251881
0.814766 0.334538 0.278300
0.878495 0.362925 0.303211
0.938423 0.389292 0.326484
0.992648 0.413017 0.347619
0.154698 0.128005 0.091077
0.161960 0.128169 0.091393
0.174514 0.125195 0.087904
0.197012 0.125009 0.086445
0.253435 0.149995 0.102197
0.316888 0.161946 0.101329
0.387008 0.181403 0.115203
0.460010 0.208652 0.140500
0.533990 0.237855 0.167706
0.607193 0.267762 0.195689
0.678835 0.297664 0.223752
0.748280 0.326990 0.251221
0.815085 0.354986 0.277735
0.878755 0.381475 0.302667
0.938785 0.406036 0.326099
0.992974 0.428147 0.347298
0.185339 0.189195 0.118518
0.190840 0.189492 0.118944
0.198868 0.185064 0.111710
0.222737 0.185629 0.106234
0.254443 0.185706 0.102157
0.317703 0.206827 0.099966
0.387631 0.227985 0.113392
0.460515 0.253140 0.138905
0.534370 0.279658 0.166314
0.607517 0.306542 0.194505
0.679165 0.333446 0.222706
0.748558 0.359745 0.250375
0.815471 0.385065 0.276938
0.879130 0.408934 0.302044
0.939128 0.431092 0.325519
0.993221 0.451041 0.346777
0.205859 0.255775 0.140706
0.210789 0.256105 0.140921
0.216224 0.251320 0.130954
0.241485 0.252678 0.123647
0.276804 0.253843 0.112603
0.318763 0.254308 0.102146
0.388363 0.278143 0.112828
0.460969 0.302721 0.137545
0.534806 0.327849 0.164852
0.607823 0.352592 0.193167
0.679468 0.376967 0.221546
0.748895 0.400625 0.249385
0.815775 0.423229 0.276048
0.879472 0.444341 0.301251
0.939504 0.463872 0.324798
0.993690 0.481251 0.346084
0.241822 0.328201 0.172098
0.245423 0.328461 0.172018
0.249175 0.324856 0.162687
0.271288 0.326271 0.156375
0.303278 0.327967 0.146366
0.343435 0.329327 0.132464
0.389328 0.330052 0.118210
0.461515 0.355252 0.138606
0.535122 0.379937 0.164351
0.608108 0.403565 0.192128
0.679704 0.426157 0.220452
0.749193 0.447695 0.248260
0.816086 0.467819 0.274997
0.879810 0.486384 0.300319
0.939890 0.503259 0.323973
0.994134 0.518001 0.345351
0.284984 0.404513 0.210092
0.287562 0.404724 0.209789
0.290350 0.402178 0.201679
0.308831 0.403429 0.196630
0.336414 0.405128 0.188545
0.372192 0.406922 0.177113
0.414889 0.408483 0.162313
0.462414 0.409406 0.146819
0.535467 0.434653 0.167295
0.608292 0.457888 0.192667
0.679861 0.479418 0.219898
0.749298 0.499325 0.247403
0.816416 0.517411 0.274031
0.880177 0.533599 0.299388
0.940239 0.548030 0.323088
0.994629 0.560095 0.344521
0.328828 0.483142 0.250111
0.330770 0.483323 0.249692
0.332991 0.481505 0.242569
0.348686 0.482654 0.238378
0.372604 0.484350 0.231728
0.404320 0.486236 0.222251
0.442957 0.488141 0.209812
0.487426 0.489783 0.194503
0.536336 0.490944 0.178108
0.608550 0.514497 0.197529
0.679983 0.535514 0.221644
0.749460 0.554276 0.247635
0.816461 0.570711 0.273663
0.880369 0.584886 0.298727
0.940580 0.597023 0.322299
0.995038 0.606647 0.343687
0.372437 0.562044 0.290830
0.373940 0.562189 0.290410
0.375830 0.560897 0.284225
0.389198 0.561987 0.280460
0.410004 0.563519 0.274901
0.437977 0.565428 0.266983
0.472719 0.567482 0.256587
0.513461 0.569516 0.243484
0.559340 0.571279 0.227780
0.609392 0.572610 0.210684
0.680118 0.593689 0.228259
0.749575 0.611779 0.250612
0.816620 0.626945 0.274767
0.880524 0.639439 0.298838
0.940902 0.649462 0.321900
0.995377 0.656803 0.343079
0.415107 0.639995 0.331613
0.416369 0.640136 0.331138
0.418182 0.639332 0.325865
0.429489 0.640292 0.322350
0.447591 0.641734 0.317532
0.472347 0.643514 0.310901
0.503424 0.645564 0.302009
0.540481 0.647769 0.290831
0.582842 0.649882 0.277237
0.629953 0.651718 0.261263
0.681050 0.653214 0.243729
0.749765 0.671234 0.259052
0.816590 0.685546 0.279130
0.880603 0.696538 0.300842
0.941001 0.704771 0.322603
0.995834 0.709896 0.343046
0.456317 0.715873 0.371679
0.457339 0.715916 0.371271
0.459122 0.715396 0.366814
0.468869 0.716415 0.363611
0.484563 0.717672 0.359080
0.506504 0.719354 0.353427
0.534379 0.721496 0.345847
0.567871 0.723703 0.336257
0.606733 0.725943 0.324527
0.650526 0.728089 0.310496
0.698647 0.729949 0.294347
0.750744 0.731627 0.276381
0.817006 0.745502 0.289089
0.880754 0.755493 0.306288
0.941360 0.762161 0.325383
0.996135 0.765387 0.344245
0.495528 0.788434 0.410573
0.496418 0.788558 0.410166
0.498231 0.788298 0.406481
0.506711 0.789169 0.403556
0.520291 0.790365 0.399345
0.539653 0.791941 0.394209
0.564685 0.793843 0.387710
0.595003 0.795984 0.379368
0.630515 0.798331 0.369170
0.670833 0.800701 0.356920
0.715747 0.802884 0.342600
0.765076 0.804946 0.326136
0.818264 0.806554 0.307778
0.881346 0.815776 0.317489
0.941702 0.821265 0.331837
0.996491 0.822820 0.347794
0.532299 0.856852 0.447531
0.533118 0.856984 0.447157
0.534958 0.856968 0.444173
0.542341 0.857749 0.441577
0.554228 0.858875 0.437653
0.571255 0.860393 0.432755
0.593708 0.862170 0.427046
0.621119 0.864251 0.419796
0.653460 0.866487 0.410852
0.690608 0.868841 0.400119
0.732241 0.871175 0.387405
0.778351 0.873512 0.372696
0.828654 0.875520 0.355856
0.882837 0.877184 0.337151
0.942522 0.881643 0.343986
0.997234 0.881732 0.354983
0.566495 0.920642 0.482281
0.567209 0.920694 0.481955
0.569210 0.920810 0.479607
0.575679 0.921554 0.477272
0.586142 0.922601 0.473675
0.601111 0.924079 0.469046
0.621103 0.925729 0.463755
0.645934 0.927667 0.457347
0.675357 0.929844 0.449520
0.709322 0.932080 0.440104
0.747898 0.934562 0.428866
0.790621 0.936891 0.415740
0.837788 0.939185 0.400586
0.888959 0.941118 0.383482
0.944244 0.942843 0.364300
0.998227 0.941636 0.367909
0.597400 0.977576 0.513979
0.598019 0.977582 0.513722
0.600187 0.977884 0.511974
0.605900 0.978514 0.509876
0.615161 0.979528 0.506619
0.628419 0.980824 0.502277
0.646155 0.982413 0.497173
0.668581 0.984162 0.491498
0.695441 0.986137 0.484566
0.726402 0.988233 0.476254
0.761871 0.990611 0.466234
0.801520 0.992922 0.454604
0.845275 0.995190 0.441176
0.893259 0.997343 0.425744
0.945283 0.999079 0.408185
0.999968 0.999967 0.388365
0.146916 0.077929 0.110303
0.151846 0.077684 0.110864
0.169732 0.076954 0.111848
0.196827 0.076136 0.111922
0.255959 0.099771 0.132870
0.320136 0.099491 0.144198
0.389400 0.122410 0.160174
0.461697 0.158057 0.182145
0.535120 0.193622 0.205780
0.607886 0.228559 0.230123
0.679188 0.262614 0.254648
0.748413 0.295283 0.278890
0.815061 0.326109 0.302280
0.878477 0.354772 0.324532
0.938355 0.381347 0.345323
0.992533 0.405152 0.364037
0.147678 0.082700 0.110677
0.156969 0.086143 0.111699
0.172729 0.085658 0.112098
0.197451 0.085081 0.111906
0.256342 0.108168 0.133703
0.320425 0.109591 0.145197
0.389607 0.130629 0.160926
0.461824 0.164116 0.182564
0.535198 0.198302 0.205947
0.607967 0.232347 0.230127
0.679230 0.265793 0.254567
0.748536 0.297993 0.278745
0.815118 0.328493 0.302116
0.878571 0.356954 0.324405
0.938407 0.383322 0.345210
0.992458 0.406941 0.364043
0.150878 0.100276 0.112119
0.159516 0.102157 0.112375
0.172971 0.100098 0.109663
0.195877 0.099794 0.109145
0.252472 0.120774 0.129196
0.315906 0.123322 0.138239
0.386103 0.142430 0.153240
0.459276 0.173551 0.175121
0.533375 0.206388 0.198956
0.606573 0.239609 0.223813
0.678368 0.272451 0.249005
0.747887 0.304347 0.274043
0.814691 0.334714 0.298297
0.878330 0.363160 0.321333
0.938369 0.389486 0.342991
0.992621 0.413181 0.362568
0.155507 0.128062 0.113993
0.162314 0.128335 0.112863
0.174833 0.125299 0.109156
0.200176 0.128120 0.110907
0.247964 0.145329 0.124428
0.307256 0.149004 0.126036
0.378369 0.164524 0.137308
0.453316 0.191768 0.158947
0.528892 0.222209 0.183819
0.603279 0.254060 0.210387
0.675907 0.286181 0.237604
0.746165 0.317656 0.264642
0.813620 0.347913 0.290946
0.877813 0.376354 0.315934
0.938272 0.402886 0.339439
0.992840 0.426741 0.360737
0.187199 0.188975 0.141584
0.192177 0.189362 0.141362
0.199443 0.185144 0.134787
0.218417 0.179786 0.126428
0.248987 0.179769 0.124012
0.308218 0.195767 0.124732
0.379167 0.215058 0.135663
0.453990 0.240097 0.157412
0.529495 0.267211 0.182416
0.603828 0.295272 0.209157
0.676408 0.323690 0.236549
0.746609 0.351659 0.263755
0.814087 0.378720 0.290178
0.878254 0.404263 0.315298
0.938698 0.428200 0.338898
0.993240 0.449743 0.360287
0.209788 0.255178 0.166844
0.213881 0.255664 0.166430
0.218226 0.251100 0.157763
0.230814 0.242306 0.142008
0.266652 0.243645 0.133144
0.309274 0.244086 0.125656
0.379955 0.267610 0.134813
0.454588 0.292454 0.156020
0.529960 0.317961 0.181024
0.604185 0.343493 0.207892
0.676786 0.368897 0.235436
0.747013 0.393748 0.262757
0.814458 0.417710 0.289270
0.878643 0.440262 0.314510
0.939122 0.461264 0.338160
0.993693 0.480034 0.359621
0.245654 0.327644 0.196530
0.248791 0.328005 0.196134
0.251616 0.324558 0.187666
0.259600 0.316807 0.170893
0.292473 0.318730 0.161966
0.333845 0.320285 0.149944
0.380904 0.321031 0.138464
0.455119 0.346902 0.156496
0.530302 0.371968 0.180320
0.604490 0.396115 0.206798
0.677032 0.419476 0.234264
0.747377 0.441909 0.261678
0.814749 0.463073 0.288280
0.879027 0.482822 0.313637
0.939477 0.500935 0.337416
0.994148 0.516893 0.358874
0.288337 0.404028 0.231711
0.290677 0.404255 0.231296
0.292830 0.401838 0.223772
0.298428 0.395935 0.208337
0.326684 0.397868 0.200767
0.363455 0.399836 0.190111
0.407332 0.401458 0.176615
