assets/luts/War.cube
LUT_3D_SIZE 6
-0.039370 -0.052712 -0.052666
0.197863 0.074659 0.065904
0.389944 0.121103 0.097562
0.608138 0.227969 0.186031
0.815252 0.325683 0.269926
0.992671 0.404907 0.339800
0.154383 0.127919 0.072212
0.199695 0.127971 0.064179
0.390934 0.188661 0.094260
0.608748 0.274199 0.184462
0.815709 0.359031 0.269023
0.992950 0.429476 0.339276
0.240154 0.328409 0.155404
0.276480 0.330677 0.144243
0.393233 0.334273 0.099161
0.609611 0.406953 0.180813
0.816668 0.470379 0.266221
0.994082 0.518953 0.337269
0.370866 0.562236 0.279809
0.392356 0.563937 0.273667
0.475315 0.569255 0.249092
0.610875 0.574281 0.201173
0.817085 0.628359 0.266114
0.995343 0.657453 0.334874
0.494218 0.788624 0.402628
0.507884 0.789918 0.397930
0.565959 0.794627 0.382056
0.671855 0.801340 0.350871
0.818744 0.807161 0.300447
0.996476 0.823043 0.339745
0.596293 0.977720 0.508074
0.605622 0.978726 0.504641
0.646160 0.982505 0.492014
0.726607 0.988323 0.470873
0.845465 0.995224 0.435209
0.999968 0.999967 0.381407
0.146916 0.077929 0.110303
0.196827 0.076136 0.111922
0.389400 0.122410 0.160174
0.607886 0.228559 0.230123
0.815061 0.326109 0.302280
0.992533 0.405152 0.364037
0.155507 0.128062 0.113993
0.200176 0.128120 0.110907
0.378369 0.164524 0.137308
0.603279 0.254060 0.210387
0.813620 0.347913 0.290946
0.992840 0.426741 0.360737
0.245654 0.327644 0.196530
0.259600 0.316807 0.170893
0.380904 0.321031 0.138464
0.604490 0.396115 0.206798
0.814749 0.463073 0.288280
0.994148 0.516893 0.358874
0.375228 0.561609 0.308163
0.382225 0.557429 0.289848
0.466956 0.563287 0.266608
0.605834 0.568570 0.223156
0.815282 0.624228 0.287912
0.995433 0.656221 0.356731
0.497835 0.788107 0.423355
0.504404 0.787210 0.412415
0.562103 0.792129 0.396336
0.668745 0.799149 0.366357
0.816899 0.805174 0.318990
0.996573 0.822535 0.361214
0.599258 0.977243 0.523597
0.606799 0.978212 0.518757
0.646523 0.982223 0.505927
0.726457 0.988201 0.485355
0.845273 0.995208 0.451157
0.999968 0.999967 0.400256
0.194879 0.136312 0.253061
0.244494 0.139344 0.264055
0.382104 0.135302 0.284608
0.604638 0.233375 0.352082
0.813395 0.328586 0.408148
0.991528 0.406659 0.450871
0.214195 0.192995 0.256203
0.231500 0.173356 0.252477
0.372469 0.171681 0.274489
0.600744 0.257515 0.342284
0.812232 0.349852 0.401190
0.992054 0.427967 0.448586
0.279397 0.323266 0.293736
0.286795 0.312480 0.283754
0.394487 0.334948 0.288039
0.579142 0.372556 0.319124
0.803180 0.459308 0.395761
0.994515 0.543538 0.472499
0.403564 0.557076 0.404846
0.406186 0.553459 0.393213
0.448964 0.534302 0.350725
0.580434 0.540074 0.325048
0.803956 0.615663 0.395090
0.996045 0.672156 0.471540
0.517902 0.784870 0.502503
0.522242 0.784440 0.493724
0.563507 0.778456 0.470446
0.662263 0.786056 0.447720
0.805313 0.792251 0.414458
0.997170 0.829736 0.475334
0.614273 0.975037 0.586149
0.620586 0.976246 0.581746
0.670233 0.981841 0.584905
0.741227 0.988319 0.567330
0.852023 0.995494 0.541242
0.999968 1.000178 0.504338
0.299506 0.247301 0.438377
0.329620 0.250132 0.444984
0.434623 0.255790 0.469156
0.591498 0.252446 0.494921
0.806239 0.337960 0.554160
0.987712 0.411757 0.584506
0.311783 0.286116 0.440132
0.321219 0.270022 0.438690
0.427466 0.276540 0.464189
0.587757 0.273827 0.490801
0.805443 0.358025 0.550809
0.988435 0.432485 0.583556
0.364761 0.401431 0.456202
0.370272 0.393076 0.451750
0.424684 0.378532 0.446410
0.571346 0.378353 0.471515
0.799152 0.462711 0.544822
0.992323 0.545653 0.600185
0.442391 0.553581 0.509227
0.447221 0.549071 0.504944
0.480123 0.528506 0.484876
0.612371 0.575607 0.508465
0.791246 0.638671 0.567541
0.997425 0.736815 0.668838
0.563819 0.777961 0.619099
0.567822 0.777214 0.615478
0.596273 0.772281 0.601032
0.682497 0.771700 0.594120
0.791921 0.777425 0.576931
0.998552 0.860108 0.673229
0.651161 0.969398 0.693907
0.656583 0.970516 0.691708
0.697444 0.977006 0.694893
0.796252 0.989312 0.728241
0.879488 0.996409 0.712798
1.000701 1.000808 0.692628
0.396296 0.350395 0.630688
0.416760 0.352514 0.635090
0.493400 0.359607 0.652601
0.621132 0.366013 0.682922
0.787051 0.363807 0.713700
0.976344 0.426398 0.748134
0.405045 0.378236 0.632199
0.414780 0.369965 0.632671
0.491122 0.377240 0.650523
0.619105 0.383815 0.681514
0.786228 0.381980 0.712628
0.977271 0.445965 0.748565
0.442973 0.473962 0.640516
0.450487 0.468800 0.640163
0.509637 0.471529 0.644719
0.622099 0.478598 0.676120
0.781546 0.477875 0.706614
0.982394 0.554140 0.761637
0.515040 0.612994 0.671834
0.521050 0.610226 0.670107
0.563922 0.608697 0.665219
0.666099 0.641798 0.683079
0.783496 0.642704 0.706865
0.992530 0.739426 0.805262
0.599901 0.776921 0.734060
0.605189 0.775658 0.732659
0.637209 0.768225 0.724455
0.711249 0.765718 0.720682
0.820273 0.808892 0.750715
0.999968 0.903094 0.861810
0.704302 0.962307 0.819328
0.710205 0.963144 0.819511
0.749120 0.968569 0.827798
0.832356 0.981316 0.854638
0.921550 0.996753 0.883174
1.001017 1.001018 0.871838
0.476586 0.436443 0.814457
0.491018 0.438037 0.817375
0.547505 0.444031 0.829486
0.646259 0.453052 0.853041
0.782459 0.459867 0.885972
0.952174 0.459155 0.920076
0.482975 0.456777 0.815594
0.494538 0.455712 0.818009
0.550146 0.461635 0.830131
0.647799 0.470611 0.853705
0.783442 0.477430 0.886900
0.953207 0.476896 0.921352
0.510495 0.532582 0.821244
0.520733 0.532080 0.823275
0.592669 0.561917 0.840191
0.675857 0.569897 0.862634
0.798475 0.576312 0.895365
0.959389 0.576543 0.929072
0.565861 0.653074 0.837910
0.574209 0.653174 0.839219
0.633759 0.674149 0.852069
0.759821 0.744678 0.889001
0.845447 0.750833 0.917191
0.973726 0.751776 0.946945
0.645302 0.800076 0.877458
0.652387 0.800468 0.878153
0.700419 0.812888 0.886057
0.802565 0.853344 0.909247
0.909297 0.905466 0.942977
0.990313 0.907962 0.967066
0.732743 0.964302 0.941024
0.738896 0.964945 0.941749
0.777221 0.969579 0.946609
0.858592 0.980378 0.958089
0.944364 0.992946 0.971429
0.999968 0.999967 0.978964
