assets/luts/Wedding.cube
LUT_3D_SIZE 6
0.211533 0.147792 -0.113148
0.346928 0.147792 -0.113148
0.502891 0.147792 -0.113148
0.652925 0.147792 -0.113148
0.800658 0.147792 -0.113148
0.936126 0.147792 -0.113148
0.211533 0.320533 -0.113148
0.346928 0.320533 -0.113148
0.502891 0.263673 -0.113148
0.652925 0.241516 -0.113148
0.800658 0.231539 -0.113148
0.936126 0.227125 -0.113148
0.211533 0.495766 -0.113148
0.299264 0.495766 -0.113148
0.502891 0.495766 -0.113148
0.652925 0.441438 -0.113148
0.800658 0.414363 -0.113148
0.936126 0.397099 -0.113148
0.211533 0.655849 -0.113148
0.281154 0.655849 -0.113148
0.453316 0.655849 -0.113148
0.652925 0.655849 -0.113148
0.800658 0.614255 -0.113148
0.936126 0.586504 -0.113148
0.211533 0.813138 -0.113148
0.273101 0.813138 -0.113148
0.428959 0.813138 -0.113148
0.613581 0.813138 -0.113148
0.800658 0.813138 -0.113148
0.936126 0.776122 -0.113148
0.211533 0.963979 -0.113148
0.269546 0.963979 -0.113148
0.413619 0.963979 -0.113148
0.587418 0.963979 -0.113148
0.766348 0.963979 -0.113148
0.936126 0.963979 -0.113148
0.211533 0.147792 0.226913
0.346928 0.147792 0.226913
0.502891 0.147792 0.154484
0.652925 0.147792 0.126126
0.800658 0.147792 0.113335
0.936126 0.147792 0.107671
0.211533 0.320533 0.226913
0.346928 0.320533 0.226913
0.502891 0.320533 0.226913
0.652925 0.320533 0.226913
0.800658 0.320533 0.226913
0.936126 0.320533 0.226913
0.211533 0.495766 0.154484
0.346928 0.495766 0.226913
0.502891 0.495766 0.226913
0.652925 0.469748 0.226913
0.800658 0.455999 0.226913
0.936126 0.445924 0.226913
0.211533 0.655849 0.126126
0.346928 0.655849 0.226913
0.479038 0.655849 0.226913
0.652925 0.655849 0.226913
0.800658 0.629755 0.226913
0.936126 0.610264 0.226913
0.211533 0.813138 0.113335
0.346928 0.813138 0.226913
0.466508 0.813138 0.226913
0.628250 0.813138 0.226913
0.800658 0.813138 0.226913
0.936126 0.785533 0.226913
0.211533 0.963979 0.107671
0.346928 0.963979 0.226913
0.457365 0.963979 0.226913
0.609839 0.963979 0.226913
0.775125 0.963979 0.226913
0.936126 0.963979 0.226913
0.211533 0.147792 0.443975
0.299264 0.147792 0.443975
0.502891 0.147792 0.443975
0.652925 0.147792 0.378044
0.800658 0.147792 0.344632
0.936126 0.147792 0.323213
0.211533 0.263673 0.443975
0.346928 0.320533 0.443975
0.502891 0.320533 0.443975
0.652925 0.320533 0.412584
0.800658 0.320533 0.395840
0.936126 0.320533 0.383510
0.211533 0.495766 0.443975
0.346928 0.495766 0.443975
0.502891 0.495766 0.443975
0.652925 0.495766 0.443975
0.800658 0.495766 0.443975
0.936126 0.495766 0.443975
0.211533 0.655849 0.378044
0.346928 0.655849 0.412584
0.502891 0.655849 0.443975
0.652925 0.655849 0.443975
0.800658 0.645784 0.443975
0.936126 0.636824 0.443975
0.211533 0.813138 0.344632
0.346928 0.813138 0.395840
0.502891 0.813138 0.443975
0.643463 0.813138 0.443975
0.800658 0.813138 0.443975
0.936126 0.796450 0.443975
0.211533 0.963979 0.323213
0.346928 0.963979 0.383510
0.502891 0.963979 0.443975
0.634923 0.963979 0.443975
0.785257 0.963979 0.443975
0.936126 0.963979 0.443975
0.211533 0.147792 0.628638
0.281154 0.147792 0.628638
0.453316 0.147792 0.628638
0.652925 0.147792 0.628638
0.800658 0.147792 0.582024
0.936126 0.147792 0.550423
0.211533 0.241516 0.628638
0.346928 0.320533 0.628638
0.479038 0.320533 0.628638
0.652925 0.320533 0.628638
0.800658 0.320533 0.599463
0.936126 0.320533 0.577509
0.211533 0.441438 0.628638
0.346928 0.469748 0.628638
0.502891 0.495766 0.628638
0.652925 0.495766 0.628638
0.800658 0.495766 0.617490
0.936126 0.495766 0.607399
0.211533 0.655849 0.628638
0.346928 0.655849 0.628638
0.502891 0.655849 0.628638
0.652925 0.655849 0.628638
0.800658 0.655849 0.628638
0.936126 0.655849 0.628638
0.211533 0.813138 0.582024
0.346928 0.813138 0.599463
0.502891 0.813138 0.617490
0.652925 0.813138 0.628638
0.800658 0.813138 0.628638
0.936126 0.804623 0.628638
0.211533 0.963979 0.550423
0.346928 0.963979 0.577509
0.502891 0.963979 0.607399
0.652925 0.963979 0.628638
0.792850 0.963979 0.628638
0.936126 0.963979 0.628638
0.211533 0.147792 0.798404
0.273101 0.147792 0.798404
0.428959 0.147792 0.798404
0.613581 0.147792 0.798404
0.800658 0.147792 0.798404
0.936126 0.147792 0.759268
0.211533 0.231539 0.798404
0.346928 0.320533 0.798404
0.466508 0.320533 0.798404
0.628250 0.320533 0.798404
0.800658 0.320533 0.798404
0.936126 0.320533 0.769258
0.211533 0.414363 0.798404
0.346928 0.455999 0.798404
0.502891 0.495766 0.798404
0.643463 0.495766 0.798404
0.800658 0.495766 0.798404
0.936126 0.495766 0.780823
0.211533 0.614255 0.798404
0.346928 0.629755 0.798404
0.502891 0.645784 0.798404
0.652925 0.655849 0.798404
0.800658 0.655849 0.798404
0.936126 0.655849 0.789461
0.211533 0.813138 0.798404
0.346928 0.813138 0.798404
0.502891 0.813138 0.798404
0.652925 0.813138 0.798404
0.800658 0.813138 0.798404
0.936126 0.813138 0.798404
0.211533 0.963979 0.759268
0.346928 0.963979 0.769258
0.502891 0.963979 0.780823
0.652925 0.963979 0.789461
0.800658 0.963979 0.798404
0.936126 0.963979 0.798404
0.211533 0.147792 0.954735
0.269546 0.147792 0.954735
0.413619 0.147792 0.954735
0.587418 0.147792 0.954735
0.766348 0.147792 0.954735
0.936126 0.147792 0.954735
0.211533 0.227125 0.954735
0.346928 0.320533 0.954735
0.457365 0.320533 0.954735
0.609839 0.320533 0.954735
0.775125 0.320533 0.954735
0.936126 0.320533 0.954735
0.211533 0.397099 0.954735
0.346928 0.445924 0.954735
0.502891 0.495766 0.954735
0.634923 0.495766 0.954735
0.785257 0.495766 0.954735
0.936126 0.495766 0.954735
0.211533 0.586504 0.954735
0.346928 0.610264 0.954735
0.502891 0.636824 0.954735
0.652925 0.655849 0.954735
0.792850 0.655849 0.954735
0.936126 0.655849 0.954735
0.211533 0.776122 0.954735
0.346928 0.785533 0.954735
0.502891 0.796450 0.954735
0.652925 0.804623 0.954735
0.800658 0.813138 0.954735
0.936126 0.813138 0.954735
0.211533 0.963979 0.954735
0.346928 0.963979 0.954735
0.502891 0.963979 0.954735
0.652925 0.963979 0.954735
0.800658 0.963979 0.954735
0.936126 0.963979 0.954735
