assets/luts/Wedding.cube
LUT_3D_SIZE 16
0.211533 0.147792 -0.113148
0.216819 0.147792 -0.113148
0.281350 0.147792 -0.113148
0.346928 0.147792 -0.113148
0.400563 0.147792 -0.113148
0.452128 0.147792 -0.113148
0.502891 0.147792 -0.113148
0.553148 0.147792 -0.113148
0.602845 0.147792 -0.113148
0.652925 0.147792 -0.113148
0.703023 0.147792 -0.113148
0.752625 0.147792 -0.113148
0.800658 0.147792 -0.113148
0.846555 0.147792 -0.113148
0.890054 0.147792 -0.113148
0.936126 0.147792 -0.113148
0.211533 0.156452 -0.113148
0.216819 0.156452 -0.113148
0.281350 0.160736 -0.113148
0.346928 0.163659 -0.113148
0.400563 0.162232 -0.113148
0.452128 0.160670 -0.113148
0.502891 0.159374 -0.113148
0.553148 0.158348 -0.113148
0.602845 0.157556 -0.113148
0.652925 0.156985 -0.113148
0.703023 0.156573 -0.113148
0.752625 0.156291 -0.113148
0.800658 0.156125 -0.113148
0.846555 0.156065 -0.113148
0.890054 0.156129 -0.113148
0.936126 0.156452 -0.113148
0.211533 0.241749 -0.113148
0.219522 0.241749 -0.113148
0.281350 0.241749 -0.113148
0.346928 0.227673 -0.113148
0.400563 0.215354 -0.113148
0.452128 0.206740 -0.113148
0.502891 0.200536 -0.113148
0.553148 0.195953 -0.113148
0.602845 0.192443 -0.113148
0.652925 0.189889 -0.113148
0.703023 0.188074 -0.113148
0.752625 0.186757 -0.113148
0.800658 0.185892 -0.113148
0.846555 0.185426 -0.113148
0.890054 0.185324 -0.113148
0.936126 0.185992 -0.113148
0.211533 0.320533 -0.113148
0.221394 0.320533 -0.113148
0.269986 0.320533 -0.113148
0.346928 0.320533 -0.113148
0.400563 0.294066 -0.113148
0.452128 0.276316 -0.113148
0.502891 0.263673 -0.113148
0.553148 0.254245 -0.113148
0.602845 0.246976 -0.113148
0.652925 0.241516 -0.113148
0.703023 0.237366 -0.113148
0.752625 0.234137 -0.113148
0.800658 0.231539 -0.113148
0.846555 0.229404 -0.113148
0.890054 0.227651 -0.113148
0.936126 0.227125 -0.113148
0.211533 0.382354 -0.113148
0.220479 0.382354 -0.113148
0.260141 0.382354 -0.113148
0.324519 0.382354 -0.113148
0.400563 0.382354 -0.113148
0.452128 0.356058 -0.113148
0.502891 0.337226 -0.113148
0.553148 0.323075 -0.113148
0.602845 0.312127 -0.113148
0.652925 0.303743 -0.113148
0.703023 0.297260 -0.113148
0.752625 0.292088 -0.113148
0.800658 0.287713 -0.113148
0.846555 0.283933 -0.113148
0.890054 0.280501 -0.113148
0.936126 0.278718 -0.113148
0.211533 0.440130 -0.113148
0.219475 0.440130 -0.113148
0.253316 0.440130 -0.113148
0.309709 0.440130 -0.113148
0.377578 0.440130 -0.113148
0.452128 0.440130 -0.113148
0.502891 0.415500 -0.113148
0.553148 0.396920 -0.113148
0.602845 0.382397 -0.113148
0.652925 0.371256 -0.113148
0.703023 0.362646 -0.113148
0.752625 0.355602 -0.113148
0.800658 0.349602 -0.113148
0.846555 0.344207 -0.113148
0.890054 0.339195 -0.113148
0.936126 0.336309 -0.113148
0.211533 0.495766 -0.113148
0.218649 0.495766 -0.113148
0.248432 0.495766 -0.113148
0.299264 0.495766 -0.113148
0.361256 0.495766 -0.113148
0.429985 0.495766 -0.113148
0.502891 0.495766 -0.113148
0.553148 0.472991 -0.113148
0.602845 0.455166 -0.113148
0.652925 0.441438 -0.113148
0.703023 0.430700 -0.113148
0.752625 0.421935 -0.113148
0.800658 0.414363 -0.113148
0.846555 0.407538 -0.113148
0.890054 0.401034 -0.113148
0.936126 0.397099 -0.113148
0.211533 0.549946 -0.113148
0.218007 0.549946 -0.113148
0.244839 0.549946 -0.113148
0.291528 0.549946 -0.113148
0.349115 0.549946 -0.113148
0.413428 0.549946 -0.113148
0.482013 0.549946 -0.113148
0.553148 0.549946 -0.113148
0.602845 0.529003 -0.113148
0.652925 0.512802 -0.113148
0.703023 0.500063 -0.113148
0.752625 0.489668 -0.113148
0.800658 0.480617 -0.113148
0.846555 0.472389 -0.113148
0.890054 0.464528 -0.113148
0.936126 0.459664 -0.113148
0.211533 0.602875 -0.113148
0.217505 0.602875 -0.113148
0.242100 0.602875 -0.113148
0.285588 0.602875 -0.113148
0.339751 0.602875 -0.113148
0.400598 0.602875 -0.113148
0.465749 0.602875 -0.113148
0.533641 0.602875 -0.113148
0.602845 0.602875 -0.113148
0.652925 0.584391 -0.113148
0.703023 0.569841 -0.113148
0.752625 0.557849 -0.113148
0.800658 0.547411 -0.113148
0.846555 0.537894 -0.113148
0.890054 0.528708 -0.113148
0.936126 0.522955 -0.113148
0.211533 0.655849 -0.113148
0.217146 0.655849 -0.113148
0.240111 0.655849 -0.113148
0.281154 0.655849 -0.113148
0.332682 0.655849 -0.113148
0.390817 0.655849 -0.113148
0.453316 0.655849 -0.113148
0.518616 0.655849 -0.113148
0.585419 0.655849 -0.113148
0.652925 0.655849 -0.113148
0.703023 0.639455 -0.113148
0.752625 0.626033 -0.113148
0.800658 0.614255 -0.113148
0.846555 0.603492 -0.113148
0.890054 0.593175 -0.113148
0.936126 0.586504 -0.113148
0.211533 0.708743 -0.113148
0.216897 0.708743 -0.113148
0.238688 0.708743 -0.113148
0.277803 0.708743 -0.113148
0.327229 0.708743 -0.113148
0.383273 0.708743 -0.113148
0.443614 0.708743 -0.113148
0.506851 0.708743 -0.113148
0.571753 0.708743 -0.113148
0.637429 0.708743 -0.113148
0.703023 0.708743 -0.113148
0.752625 0.693968 -0.113148
0.800658 0.680895 -0.113148
0.846555 0.668921 -0.113148
0.890054 0.657408 -0.113148
0.936126 0.650030 -0.113148
0.211533 0.761408 -0.113148
0.216721 0.761408 -0.113148
0.237669 0.761408 -0.113148
0.275196 0.761408 -0.113148
0.322856 0.761408 -0.113148
0.377158 0.761408 -0.113148
0.435744 0.761408 -0.113148
0.497280 0.761408 -0.113148
0.560541 0.761408 -0.113148
0.624708 0.761408 -0.113148
0.689036 0.761408 -0.113148
0.752625 0.761408 -0.113148
0.800658 0.747264 -0.113148
0.846555 0.734042 -0.113148
0.890054 0.721349 -0.113148
0.936126 0.713170 -0.113148
0.211533 0.813138 -0.113148
0.216609 0.813138 -0.113148
0.236994 0.813138 -0.113148
0.273101 0.813138 -0.113148
0.319224 0.813138 -0.113148
0.371922 0.813138 -0.113148
0.428959 0.813138 -0.113148
0.488979 0.813138 -0.113148
0.550763 0.813138 -0.113148
0.613581 0.813138 -0.113148
0.676684 0.813138 -0.113148
0.739276 0.813138 -0.113148
0.800658 0.813138 -0.113148
0.846555 0.798815 -0.113148
0.890054 0.785047 -0.113148
0.936126 0.776122 -0.113148
0.211533 0.863452 -0.113148
0.216572 0.863452 -0.113148
0.236632 0.863452 -0.113148
0.271377 0.863452 -0.113148
0.316032 0.863452 -0.113148
0.367255 0.863452 -0.113148
0.422872 0.863452 -0.113148
0.481451 0.863452 -0.113148
0.541905 0.863452 -0.113148
0.603429 0.863452 -0.113148
0.665366 0.863452 -0.113148
0.726914 0.863452 -0.113148
0.787460 0.863452 -0.113148
0.846555 0.863452 -0.113148
0.890054 0.848479 -0.113148
0.936126 0.838826 -0.113148
0.211533 0.911924 -0.113148
0.216612 0.911924 -0.113148
0.236551 0.911924 -0.113148
0.269968 0.911924 -0.113148
0.313216 0.911924 -0.113148
0.362935 0.911924 -0.113148
0.417069 0.911924 -0.113148
0.474270 0.911924 -0.113148
0.533392 0.911924 -0.113148
0.593687 0.911924 -0.113148
0.654432 0.911924 -0.113148
0.714932 0.911924 -0.113148
0.774674 0.911924 -0.113148
0.833001 0.911924 -0.113148
0.890054 0.911924 -0.113148
0.936126 0.901501 -0.113148
0.211533 0.963979 -0.113148
0.216819 0.963979 -0.113148
0.237071 0.963979 -0.113148
0.269546 0.963979 -0.113148
0.311718 0.963979 -0.113148
0.360462 0.963979 -0.113148
0.413619 0.963979 -0.113148
0.469839 0.963979 -0.113148
0.528030 0.963979 -0.113148
0.587418 0.963979 -0.113148
0.647446 0.963979 -0.113148
0.707183 0.963979 -0.113148
0.766348 0.963979 -0.113148
0.824219 0.963979 -0.113148
0.880733 0.963979 -0.113148
0.936126 0.963979 -0.113148
0.211533 0.147792 -0.098536
0.216819 0.147792 -0.098536
0.281350 0.147792 -0.089484
0.346928 0.147792 -0.082296
0.400563 0.147792 -0.085910
0.452128 0.147792 -0.089646
0.502891 0.147792 -0.092541
0.553148 0.147792 -0.094719
0.602845 0.147792 -0.096347
0.652925 0.147792 -0.097508
0.703023 0.147792 -0.098322
0.752625 0.147792 -0.098858
0.800658 0.147792 -0.099178
0.846555 0.147792 -0.099294
0.890054 0.147792 -0.099173
0.936126 0.147792 -0.098537
0.211533 0.156452 -0.098536
0.216819 0.156452 -0.098536
0.281350 0.156452 -0.098536
0.346928 0.156452 -0.098536
0.400563 0.156452 -0.098536
0.452128 0.156452 -0.098536
0.502891 0.156452 -0.098536
0.553148 0.156452 -0.098536
0.602845 0.156452 -0.098536
0.652925 0.156452 -0.098536
0.703023 0.156452 -0.098536
0.752625 0.156452 -0.098536
0.800658 0.156452 -0.098536
0.846555 0.156452 -0.098536
0.890054 0.156452 -0.098536
0.936126 0.156452 -0.098536
0.211533 0.241749 -0.089484
0.216819 0.241749 -0.098536
0.281350 0.241749 -0.098536
0.346928 0.223378 -0.098536
0.400563 0.211402 -0.098536
0.452128 0.203706 -0.098536
0.502891 0.198401 -0.098536
0.553148 0.194516 -0.098536
0.602845 0.191613 -0.098536
0.652925 0.189495 -0.098536
0.703023 0.187980 -0.098536
0.752625 0.186901 -0.098536
0.800658 0.186148 -0.098536
0.846555 0.185701 -0.098536
0.890054 0.185541 -0.098536
0.936126 0.185993 -0.098536
0.211533 0.320533 -0.082296
0.216819 0.320533 -0.098536
0.266546 0.320533 -0.098536
0.346928 0.320533 -0.098536
0.400563 0.292419 -0.098536
0.452128 0.274647 -0.098536
0.502891 0.262318 -0.098536
0.553148 0.253291 -0.098536
0.602845 0.246396 -0.098536
0.652925 0.241226 -0.098536
0.703023 0.237304 -0.098536
0.752625 0.234242 -0.098536
0.800658 0.231726 -0.098536
0.846555 0.229625 -0.098536
0.890054 0.227821 -0.098536
0.936126 0.227125 -0.098536
0.211533 0.382354 -0.085910
0.216819 0.382354 -0.098536
0.257017 0.382354 -0.098536
0.323135 0.382354 -0.098536
0.400563 0.382354 -0.098536
0.452128 0.355360 -0.098536
0.502891 0.336480 -0.098536
0.553148 0.322471 -0.098536
0.602845 0.311705 -0.098536
0.652925 0.303536 -0.098536
0.703023 0.297201 -0.098536
0.752625 0.292170 -0.098536
0.800658 0.287857 -0.098536
0.846555 0.284107 -0.098536
0.890054 0.280630 -0.098536
0.936126 0.278719 -0.098536
0.211533 0.440130 -0.089646
0.216819 0.440130 -0.098536
0.250929 0.440130 -0.098536
0.308316 0.440130 -0.098536
0.376928 0.440130 -0.098536
0.452128 0.440130 -0.098536
0.502891 0.415170 -0.098536
0.553148 0.396584 -0.098536
0.602845 0.382153 -0.098536
0.652925 0.371132 -0.098536
0.703023 0.362595 -0.098536
0.752625 0.355628 -0.098536
0.800658 0.349700 -0.098536
0.846555 0.344338 -0.098536
0.890054 0.339307 -0.098536
0.936126 0.336309 -0.098536
0.211533 0.495766 -0.092541
0.216819 0.495766 -0.098536
0.246756 0.495766 -0.098536
0.298140 0.495766 -0.098536
0.360606 0.495766 -0.098536
0.429695 0.495766 -0.098536
0.502891 0.495766 -0.098536
0.553148 0.472850 -0.098536
0.602845 0.455025 -0.098536
0.652925 0.441371 -0.098536
0.703023 0.430661 -0.098536
0.752625 0.421972 -0.098536
0.800658 0.414424 -0.098536
0.846555 0.407592 -0.098536
0.890054 0.401108 -0.098536
0.936126 0.397100 -0.098536
0.211533 0.549946 -0.094719
0.216819 0.549946 -0.098536
0.243717 0.549946 -0.098536
0.290736 0.549946 -0.098536
0.348583 0.549946 -0.098536
0.413141 0.549946 -0.098536
0.481885 0.549946 -0.098536
0.553148 0.549946 -0.098536
0.602845 0.528934 -0.098536
0.652925 0.512771 -0.098536
0.703023 0.500055 -0.098536
0.752625 0.489695 -0.098536
0.800658 0.480681 -0.098536
0.846555 0.472462 -0.098536
0.890054 0.464592 -0.098536
0.936126 0.459664 -0.098536
0.211533 0.602875 -0.096347
0.216819 0.602875 -0.098536
0.241448 0.602875 -0.098536
0.285131 0.602875 -0.098536
0.339419 0.602875 -0.098536
0.400386 0.602875 -0.098536
0.465623 0.602875 -0.098536
0.533580 0.602875 -0.098536
0.602845 0.602875 -0.098536
0.652925 0.584388 -0.098536
0.703023 0.569832 -0.098536
0.752625 0.557881 -0.098536
0.800658 0.547455 -0.098536
0.846555 0.537936 -0.098536
0.890054 0.528742 -0.098536
0.936126 0.522956 -0.098536
0.211533 0.655849 -0.097508
0.216819 0.655849 -0.098536
0.239796 0.655849 -0.098536
0.280927 0.655849 -0.098536
0.332515 0.655849 -0.098536
0.390741 0.655849 -0.098536
0.453263 0.655849 -0.098536
0.518571 0.655849 -0.098536
0.585416 0.655849 -0.098536
0.652925 0.655849 -0.098536
0.703023 0.639451 -0.098536
0.752625 0.626035 -0.098536
0.800658 0.614281 -0.098536
0.846555 0.603516 -0.098536
0.890054 0.593190 -0.098536
0.936126 0.586504 -0.098536
0.211533 0.708743 -0.098322
0.216819 0.708743 -0.098536
0.238618 0.708743 -0.098536
0.277750 0.708743 -0.098536
0.327171 0.708743 -0.098536
0.383213 0.708743 -0.098536
0.443578 0.708743 -0.098536
0.506846 0.708743 -0.098536
0.571743 0.708743 -0.098536
0.637425 0.708743 -0.098536
0.703023 0.708743 -0.098536
0.752625 0.693973 -0.098536
0.800658 0.680901 -0.098536
0.846555 0.668976 -0.098536
0.890054 0.657435 -0.098536
0.936126 0.650030 -0.098536
0.211533 0.761408 -0.098858
0.216819 0.761408 -0.098536
0.237770 0.761408 -0.098536
0.275268 0.761408 -0.098536
0.322927 0.761408 -0.098536
0.377190 0.761408 -0.098536
0.435777 0.761408 -0.098536
0.497295 0.761408 -0.098536
0.560541 0.761408 -0.098536
0.624718 0.761408 -0.098536
0.689042 0.761408 -0.098536
0.752625 0.761408 -0.098536
0.800658 0.747279 -0.098536
0.846555 0.734035 -0.098536
0.890054 0.721380 -0.098536
0.936126 0.713170 -0.098536
0.211533 0.813138 -0.099178
0.216819 0.813138 -0.098536
0.237188 0.813138 -0.098536
0.273243 0.813138 -0.098536
0.319328 0.813138 -0.098536
0.371998 0.813138 -0.098536
0.429033 0.813138 -0.098536
0.489014 0.813138 -0.098536
0.550830 0.813138 -0.098536
0.613592 0.813138 -0.098536
0.676690 0.813138 -0.098536
0.739290 0.813138 -0.098536
0.800658 0.813138 -0.098536
0.846555 0.798830 -0.098536
0.890054 0.785070 -0.098536
0.936126 0.776123 -0.098536
0.211533 0.863452 -0.099294
0.216819 0.863452 -0.098536
0.236852 0.863452 -0.098536
0.271559 0.863452 -0.098536
0.316180 0.863452 -0.098536
0.367391 0.863452 -0.098536
0.422917 0.863452 -0.098536
0.481514 0.863452 -0.098536
0.541941 0.863452 -0.098536
0.603462 0.863452 -0.098536
0.665383 0.863452 -0.098536
0.726949 0.863452 -0.098536
0.787474 0.863452 -0.098536
0.846555 0.863452 -0.098536
0.890054 0.848486 -0.098536
0.936126 0.838826 -0.098536
0.211533 0.911924 -0.099173
0.216819 0.911924 -0.098536
0.236721 0.911924 -0.098536
0.270100 0.911924 -0.098536
0.313317 0.911924 -0.098536
0.363040 0.911924 -0.098536
0.417161 0.911924 -0.098536
0.474318 0.911924 -0.098536
0.533411 0.911924 -0.098536
0.593701 0.911924 -0.098536
0.654444 0.911924 -0.098536
0.714961 0.911924 -0.098536
0.774695 0.911924 -0.098536
0.832980 0.911924 -0.098536
0.890054 0.911924 -0.098536
0.936126 0.901501 -0.098536
0.211533 0.963979 -0.098537
0.216819 0.963979 -0.098536
0.237072 0.963979 -0.098536
0.269547 0.963979 -0.098536
0.311718 0.963979 -0.098536
0.360462 0.963979 -0.098536
0.413619 0.963979 -0.098536
0.469840 0.963979 -0.098536
0.528030 0.963979 -0.098536
0.587418 0.963979 -0.098536
0.647446 0.963979 -0.098536
0.707183 0.963979 -0.098536
0.766348 0.963979 -0.098536
0.824219 0.963979 -0.098536
0.880734 0.963979 -0.098536
0.936126 0.963979 -0.098536
0.211533 0.147792 0.126422
0.219522 0.147792 0.126422
0.281350 0.147792 0.126422
0.346928 0.147792 0.108373
0.400563 0.147792 0.092556
0.452128 0.147792 0.081501
0.502891 0.147792 0.073544
0.553148 0.147792 0.067663
0.602845 0.147792 0.063163
0.652925 0.147792 0.059883
0.703023 0.147792 0.057539
0.752625 0.147792 0.055857
0.800658 0.147792 0.054738
0.846555 0.147792 0.054140
0.890054 0.147792 0.054003
0.936126 0.147792 0.054868
0.211533 0.160736 0.126422
0.216819 0.156452 0.126422
0.281350 0.156452 0.126422
0.346928 0.156452 0.102859
0.400563 0.156452 0.087503
0.452128 0.156452 0.077619
0.502891 0.156452 0.070801
0.553148 0.156452 0.065819
0.602845 0.156452 0.062089
0.652925 0.156452 0.059363
0.703023 0.156452 0.057424
0.752625 0.156452 0.056025
0.800658 0.156452 0.055059
0.846555 0.156452 0.054506
0.890054 0.156452 0.054287
0.936126 0.156452 0.054868
0.211533 0.241749 0.126422
0.216819 0.241749 0.126422
0.281350 0.241749 0.126422
0.346928 0.241749 0.126422
0.400563 0.241749 0.126422
0.452128 0.241749 0.126422
0.502891 0.241749 0.126422
0.553148 0.241749 0.126422
0.602845 0.241749 0.126422
0.652925 0.241749 0.126422
0.703023 0.241749 0.126422
0.752625 0.241749 0.126422
0.800658 0.241749 0.126422
0.846555 0.241749 0.126422
0.890054 0.241749 0.126422
0.936126 0.241749 0.126422
0.211533 0.320533 0.108373
0.216819 0.320533 0.102859
0.281350 0.320533 0.126422
0.346928 0.320533 0.126422
0.400563 0.305729 0.126422
0.452128 0.296983 0.126422
0.502891 0.291045 0.126422
0.553148 0.286700 0.126422
0.602845 0.283383 0.126422
0.652925 0.280882 0.126422
0.703023 0.278957 0.126422
0.752625 0.277412 0.126422
0.800658 0.276045 0.126422
0.846555 0.274775 0.126422
0.890054 0.273570 0.126422
0.936126 0.272813 0.126422
0.211533 0.382354 0.092556
0.216819 0.382354 0.087503
0.281350 0.382354 0.126422
0.334353 0.382354 0.126422
0.400563 0.382354 0.126422
0.452128 0.365082 0.126422
0.502891 0.353139 0.126422
0.553148 0.344255 0.126422
0.602845 0.337410 0.126422
0.652925 0.332164 0.126422
0.703023 0.328142 0.126422
0.752625 0.324801 0.126422
0.800658 0.321896 0.126422
0.846555 0.319191 0.126422
0.890054 0.316570 0.126422
0.936126 0.314913 0.126422
0.211533 0.440130 0.081501
0.216819 0.440130 0.077619
0.281350 0.440130 0.126422
0.326986 0.440130 0.126422
0.385427 0.440130 0.126422
0.452128 0.440130 0.126422
0.502891 0.422529 0.126422
0.553148 0.409333 0.126422
0.602845 0.399045 0.126422
0.652925 0.391108 0.126422
0.703023 0.384981 0.126422
0.752625 0.379906 0.126422
0.800658 0.375432 0.126422
0.846555 0.371280 0.126422
0.890054 0.367218 0.126422
0.936126 0.364662 0.126422
0.211533 0.495766 0.073544
0.216819 0.495766 0.070801
0.281350 0.495766 0.126422
0.321973 0.495766 0.126422
0.375023 0.495766 0.126422
0.436297 0.495766 0.126422
0.502891 0.495766 0.126422
0.553148 0.478544 0.126422
0.602845 0.464988 0.126422
0.652925 0.454635 0.126422
0.703023 0.446452 0.126422
0.752625 0.439739 0.126422
0.800658 0.433782 0.126422
0.846555 0.428238 0.126422
0.890054 0.422754 0.126422
0.936126 0.419425 0.126422
0.211533 0.549946 0.067663
0.216819 0.549946 0.065819
0.281350 0.549946 0.126422
0.318360 0.549946 0.126422
0.367311 0.549946 0.126422
0.424500 0.549946 0.126422
0.487076 0.549946 0.126422
0.553148 0.549946 0.126422
0.602845 0.533433 0.126422
0.652925 0.520671 0.126422
0.703023 0.510634 0.126422
0.752625 0.502349 0.126422
0.800658 0.494981 0.126422
0.846555 0.488115 0.126422
0.890054 0.481349 0.126422
0.936126 0.477114 0.126422
0.211533 0.602875 0.063163
0.216819 0.602875 0.062089
0.281350 0.602875 0.126422
0.315579 0.602875 0.126422
0.361387 0.602875 0.126422
0.415303 0.602875 0.126422
0.474703 0.602875 0.126422
0.537733 0.602875 0.126422
0.602845 0.602875 0.126422
0.652925 0.587980 0.126422
0.703023 0.576155 0.126422
0.752625 0.566420 0.126422
0.800658 0.557751 0.126422
0.846555 0.549640 0.126422
0.890054 0.541605 0.126422
0.936126 0.536593 0.126422
0.211533 0.655849 0.059883
0.216819 0.655849 0.059363
0.281350 0.655849 0.126422
0.313501 0.655849 0.126422
0.356895 0.655849 0.126422
0.408323 0.655849 0.126422
0.465264 0.655849 0.126422
0.525913 0.655849 0.126422
0.588791 0.655849 0.126422
0.652925 0.655849 0.126422
0.703023 0.642363 0.126422
0.752625 0.631195 0.126422
0.800658 0.621303 0.126422
0.846555 0.611984 0.126422
0.890054 0.602816 0.126422
0.936126 0.597051 0.126422
0.211533 0.708743 0.057539
0.216819 0.708743 0.057424
0.281350 0.708743 0.126422
0.311911 0.708743 0.126422
0.353416 0.708743 0.126422
0.402880 0.708743 0.126422
0.457853 0.708743 0.126422
0.516603 0.708743 0.126422
0.577685 0.708743 0.126422
0.640165 0.708743 0.126422
0.703023 0.708743 0.126422
0.752625 0.696330 0.126422
0.800658 0.685213 0.126422
0.846555 0.674824 0.126422
0.890054 0.664487 0.126422
0.936126 0.658052 0.126422
0.211533 0.761408 0.055857
0.216819 0.761408 0.056025
0.281350 0.761408 0.126422
0.310622 0.761408 0.126422
0.350593 0.761408 0.126422
0.398405 0.761408 0.126422
0.451767 0.761408 0.126422
0.508943 0.761408 0.126422
0.568573 0.761408 0.126422
0.629666 0.761408 0.126422
0.691240 0.761408 0.126422
0.752625 0.761408 0.126422
0.800658 0.749131 0.126422
0.846555 0.737629 0.126422
0.890054 0.726251 0.126422
0.936126 0.719138 0.126422
0.211533 0.813138 0.054738
0.216819 0.813138 0.055059
0.281350 0.813138 0.126422
0.309496 0.813138 0.126422
0.348100 0.813138 0.126422
0.394488 0.813138 0.126422
0.446396 0.813138 0.126422
0.502172 0.813138 0.126422
0.560424 0.813138 0.126422
0.620273 0.813138 0.126422
0.680731 0.813138 0.126422
0.741079 0.813138 0.126422
0.800658 0.813138 0.126422
0.846555 0.800560 0.126422
0.890054 0.788102 0.126422
0.936126 0.780256 0.126422
0.211533 0.863452 0.054140
0.216819 0.863452 0.054506
0.281350 0.863452 0.126422
0.308444 0.863452 0.126422
0.345800 0.863452 0.126422
0.390839 0.863452 0.126422
0.441419 0.863452 0.126422
0.495852 0.863452 0.126422
0.552847 0.863452 0.126422
0.611475 0.863452 0.126422
0.670929 0.863452 0.126422
0.730262 0.863452 0.126422
0.789085 0.863452 0.126422
0.846555 0.863452 0.126422
0.890054 0.849904 0.126422
0.936126 0.841402 0.126422
0.211533 0.911924 0.054003
0.216819 0.911924 0.054287
0.281350 0.911924 0.126422
0.307443 0.911924 0.126422
0.343592 0.911924 0.126422
0.387249 0.911924 0.126422
0.436492 0.911924 0.126422
0.489644 0.911924 0.126422
0.545358 0.911924 0.126422
0.602790 0.911924 0.126422
0.661115 0.911924 0.126422
0.719566 0.911924 0.126422
0.777486 0.911924 0.126422
0.834272 0.911924 0.126422
0.890054 0.911924 0.126422
0.936126 0.902712 0.126422
0.211533 0.963979 0.054868
0.216819 0.963979 0.054868
0.281350 0.963979 0.126422
0.306791 0.963979 0.126422
0.342170 0.963979 0.126422
0.385051 0.963979 0.126422
0.433498 0.963979 0.126422
0.485748 0.963979 0.126422
0.540684 0.963979 0.126422
0.597375 0.963979 0.126422
0.655039 0.963979 0.126422
0.712789 0.963979 0.126422
0.770225 0.963979 0.126422
0.826571 0.963979 0.126422
0.881831 0.963979 0.126422
0.936126 0.963979 0.126422
0.211533 0.147792 0.226913
0.221394 0.147792 0.226913
0.269986 0.147792 0.226913
0.346928 0.147792 0.226913
0.400563 0.147792 0.193259
0.452128 0.147792 0.170647
0.502891 0.147792 0.154484
0.553148 0.147792 0.142423
0.602845 0.147792 0.133116
0.652925 0.147792 0.126126
0.703023 0.147792 0.120803
0.752625 0.147792 0.116673
0.800658 0.147792 0.113335
0.846555 0.147792 0.110599
0.890054 0.147792 0.108342
0.936126 0.147792 0.107671
0.211533 0.163659 0.226913
0.216819 0.156452 0.226913
0.266546 0.156452 0.226913
0.346928 0.156452 0.226913
0.400563 0.156452 0.191169
0.452128 0.156452 0.168507
0.502891 0.156452 0.152756
0.553148 0.156452 0.141202
0.602845 0.156452 0.132369
0.652925 0.156452 0.125755
0.703023 0.156452 0.120724
0.752625 0.156452 0.116798
0.800658 0.156452 0.113575
0.846555 0.156452 0.110879
0.890054 0.156452 0.108558
0.936126 0.156452 0.107671
0.211533 0.227673 0.226913
0.216819 0.223378 0.226913
0.281350 0.241749 0.226913
0.346928 0.241749 0.226913
0.400563 0.241749 0.208101
0.452128 0.241749 0.196991
0.502891 0.241749 0.189407
0.553148 0.241749 0.183874
0.602845 0.241749 0.179657
0.652925 0.241749 0.176472
0.703023 0.241749 0.174018
0.752625 0.241749 0.172031
0.800658 0.241749 0.170297
0.846555 0.241749 0.168671
0.890054 0.241749 0.167131
0.936126 0.241749 0.166157
0.211533 0.320533 0.226913
0.216819 0.320533 0.226913
0.281350 0.320533 0.226913
0.346928 0.320533 0.226913
0.400563 0.320533 0.226913
0.452128 0.320533 0.226913
0.502891 0.320533 0.226913
0.553148 0.320533 0.226913
0.602845 0.320533 0.226913
0.652925 0.320533 0.226913
0.703023 0.320533 0.226913
0.752625 0.320533 0.226913
0.800658 0.320533 0.226913
0.846555 0.320533 0.226913
0.890054 0.320533 0.226913
0.936126 0.320533 0.226913
0.211533 0.382354 0.193259
0.216819 0.382354 0.191169
0.281350 0.382354 0.208101
0.346928 0.382354 0.226913
0.400563 0.382354 0.226913
0.452128 0.376060 0.226913
0.502891 0.371403 0.226913
0.553148 0.367706 0.226913
0.602845 0.364808 0.226913
0.652925 0.362663 0.226913
0.703023 0.360909 0.226913
0.752625 0.359497 0.226913
0.800658 0.358185 0.226913
0.846555 0.356953 0.226913
0.890054 0.355692 0.226913
0.936126 0.354961 0.226913
0.211533 0.440130 0.170647
0.216819 0.440130 0.168507
0.281350 0.440130 0.196991
0.346928 0.440130 0.226913
0.394986 0.440130 0.226913
0.452128 0.440130 0.226913
0.502891 0.430902 0.226913
0.553148 0.423636 0.226913
0.602845 0.417788 0.226913
0.652925 0.413329 0.226913
0.703023 0.409774 0.226913
0.752625 0.406825 0.226913
0.800658 0.404152 0.226913
0.846555 0.401632 0.226913
0.890054 0.399040 0.226913
0.936126 0.397514 0.226913
0.211533 0.495766 0.154484
0.216819 0.495766 0.152756
0.281350 0.495766 0.189407
0.346928 0.495766 0.226913
0.390923 0.495766 0.226913
