assets/luts/Western.cube
LUT_3D_SIZE 6
0.027523 0.000000 0.000000
0.164144 0.034994 0.006525
0.340147 0.085041 0.026222
0.542096 0.147257 0.062382
0.748961 0.216842 0.114170
0.961392 0.291740 0.173391
0.109285 0.109540 0.014708
0.178458 0.112753 0.017512
0.346582 0.149302 0.036580
0.545999 0.199235 0.072248
0.751604 0.259133 0.122629
0.963561 0.326857 0.180389
0.216170 0.266251 0.059584
0.259286 0.267765 0.061841
0.372223 0.274100 0.071110
0.562107 0.327041 0.108261
0.762930 0.381489 0.154362
0.972631 0.440169 0.208004
0.341496 0.463039 0.138234
0.370936 0.464061 0.140020
0.466045 0.468369 0.147386
0.592548 0.476921 0.161484
0.784821 0.538422 0.205676
0.988396 0.598514 0.255906
0.474809 0.692080 0.233447
0.496012 0.692810 0.234840
0.572128 0.696210 0.240691
0.686341 0.702991 0.252290
0.818006 0.713748 0.269886
1.000000 0.783322 0.319680
0.609272 0.939800 0.342364
0.625210 0.940092 0.343488
0.686205 0.941308 0.348532
0.786169 0.943799 0.358408
0.911580 0.947605 0.373812
1.000000 0.953943 0.394784
0.059589 0.022049 0.033269
0.165706 0.039650 0.035232
0.340793 0.087331 0.056897
0.542459 0.148784 0.093370
0.749220 0.217964 0.140911
0.961599 0.292648 0.196077
0.112538 0.110646 0.039673
0.179802 0.113810 0.041482
0.346318 0.130286 0.051371
0.544785 0.172331 0.080116
0.750320 0.231574 0.125671
0.961976 0.300682 0.180569
0.217586 0.266749 0.083363
0.244333 0.269455 0.075518
0.375014 0.276507 0.085074
0.561796 0.318876 0.115831
0.761854 0.368380 0.157639
0.971251 0.424491 0.208564
0.342422 0.463405 0.157300
0.354938 0.464637 0.147378
0.459626 0.469129 0.154830
0.593732 0.478079 0.169072
0.784426 0.533477 0.209415
0.987595 0.589994 0.257123
0.475461 0.692329 0.248807
0.481986 0.692876 0.238875
0.563244 0.696253 0.244823
0.682667 0.703237 0.256555
0.818478 0.714221 0.274345
1.000000 0.779562 0.321541
0.609765 0.939858 0.355365
0.613198 0.939826 0.345697
0.677044 0.941179 0.350722
0.780554 0.943663 0.360828
0.909013 0.947529 0.376309
1.000000 0.953981 0.397502
0.102290 0.053519 0.132646
0.197890 0.064719 0.133989
0.343649 0.096403 0.139651
0.544182 0.155078 0.180401
0.750524 0.222704 0.224781
0.962575 0.296449 0.274512
0.142260 0.137297 0.137146
0.181138 0.114882 0.137451
0.349522 0.134745 0.143647
0.546544 0.177620 0.176514
0.751459 0.236062 0.216849
0.962860 0.304420 0.264313
0.223562 0.268915 0.155147
0.249834 0.271901 0.157501
0.375204 0.276683 0.161323
0.561103 0.290679 0.172531
0.758844 0.317457 0.194110
0.966137 0.359358 0.228410
0.346191 0.464869 0.222756
0.358722 0.466156 0.218524
0.432138 0.472924 0.201782
0.599368 0.483589 0.215454
0.783782 0.516562 0.242689
0.984573 0.557516 0.276425
0.478123 0.693547 0.307022
0.484616 0.694095 0.300212
0.528187 0.697577 0.274979
0.669620 0.705172 0.286747
0.821179 0.717245 0.304675
1.000000 0.765702 0.340863
0.611696 0.940345 0.407187
0.615188 0.940341 0.399412
0.640092 0.940512 0.369247
0.758573 0.943280 0.379453
0.899240 0.947358 0.395256
1.000000 0.954239 0.416830
0.153116 0.092680 0.277312
0.235775 0.100624 0.278300
0.390623 0.127750 0.282436
0.547573 0.166873 0.290657
0.752654 0.231967 0.341197
0.964441 0.303939 0.392592
0.183360 0.168294 0.280565
0.203985 0.133210 0.279795
0.384100 0.154162 0.284138
0.550101 0.187870 0.292714
0.753783 0.244842 0.338453
0.964824 0.311763 0.386915
0.261973 0.312111 0.294172
0.276530 0.303678 0.294126
0.364876 0.267734 0.295224
0.565323 0.289065 0.305222
0.761315 0.322443 0.332734
0.968111 0.365141 0.368202
0.353659 0.467813 0.320188
0.366111 0.469265 0.321437
0.438641 0.476613 0.327806
0.597232 0.481510 0.332059
0.782823 0.494724 0.343485
0.980368 0.507721 0.354814
0.483422 0.695859 0.402853
0.489946 0.696528 0.399876
0.533225 0.700118 0.389811
0.644072 0.708628 0.372751
0.826056 0.722764 0.389645
1.000000 0.746427 0.412792
0.615707 0.941153 0.497658
0.619098 0.941209 0.492553
0.644062 0.941487 0.473261
0.718563 0.942818 0.440704
0.882608 0.947286 0.456041
1.000000 0.955043 0.477050
0.208152 0.136574 0.455270
0.277900 0.142564 0.456053
0.432831 0.165095 0.459375
0.597005 0.201343 0.466097
0.756425 0.245807 0.476608
0.967391 0.315505 0.534061
0.231519 0.202701 0.457906
0.240087 0.162568 0.456647
0.419815 0.182433 0.460065
0.593347 0.215739 0.466958
0.757548 0.258084 0.477706
0.967796 0.323093 0.531832
0.302793 0.350612 0.468991
0.309797 0.336187 0.468039
0.373154 0.274874 0.466023
0.584080 0.297687 0.473498
0.765384 0.329965 0.485243
0.971271 0.374155 0.525494
0.394696 0.518895 0.490839
0.401071 0.513887 0.490497
0.451298 0.496255 0.490869
0.579534 0.464158 0.492837
0.786951 0.486441 0.506125
0.982800 0.509351 0.524899
0.491710 0.699578 0.523958
0.498252 0.700125 0.524505
0.541097 0.704318 0.528201
0.650552 0.713352 0.536247
0.824412 0.720988 0.542806
1.000000 0.733473 0.553834
0.621975 0.942591 0.616620
0.625446 0.942617 0.614256
0.650236 0.942981 0.605716
0.724074 0.944347 0.592651
0.866221 0.948025 0.584124
1.000000 0.957966 0.602396
0.265548 0.183552 0.658080
0.324160 0.188314 0.658714
0.472969 0.207160 0.661421
0.639641 0.239684 0.666884
0.805063 0.282156 0.675370
0.971654 0.330929 0.687206
0.284145 0.240961 0.660191
0.285272 0.199972 0.658771
0.456068 0.217762 0.661450
0.632296 0.248988 0.667085
0.802449 0.290312 0.675726
0.972187 0.338330 0.687725
0.346877 0.387408 0.669246
0.348552 0.369038 0.667930
0.386605 0.286657 0.663423
0.606327 0.310683 0.669266
0.794829 0.344642 0.678372
0.975571 0.386491 0.691131
0.435172 0.563442 0.686907
0.437490 0.554483 0.685895
0.468266 0.519591 0.682675
0.570580 0.455477 0.678697
0.789268 0.479274 0.688639
0.986054 0.510837 0.702370
0.532119 0.757130 0.713751
0.535089 0.753385 0.713339
0.561688 0.739517 0.712014
0.646406 0.717459 0.710984
0.806151 0.700522 0.714689
1.000000 0.723613 0.728641
0.630595 0.944366 0.751811
0.634185 0.944485 0.751981
0.658893 0.944930 0.753277
0.731894 0.946463 0.757978
0.872560 0.950592 0.772625
1.000000 0.999965 0.999964
