assets/luts/Western.cube
LUT_3D_SIZE 16
0.027523 0.000000 0.000000
0.076696 0.011936 0.001222
0.118275 0.022694 0.003318
0.164144 0.034994 0.006525
0.217183 0.049633 0.011269
0.276452 0.066465 0.017814
0.340147 0.085041 0.026222
0.406668 0.104946 0.036501
0.474457 0.125806 0.048592
0.542096 0.147257 0.062382
0.609712 0.169377 0.077945
0.678220 0.192405 0.095362
0.748961 0.216842 0.114170
0.822555 0.242737 0.134416
0.897825 0.269409 0.155519
0.961392 0.291740 0.173391
0.056753 0.037223 0.002731
0.081931 0.038309 0.003250
0.120200 0.039781 0.004617
0.165250 0.047335 0.007539
0.217941 0.059294 0.012167
0.277041 0.074410 0.018648
0.340614 0.091773 0.027017
0.407038 0.110769 0.037279
0.474761 0.130911 0.049346
0.542349 0.151808 0.063127
0.609939 0.173451 0.078667
0.678415 0.196113 0.096025
0.749120 0.220237 0.114785
0.822776 0.245882 0.135011
0.898012 0.272332 0.156057
0.961536 0.294458 0.173897
0.081663 0.070936 0.007464
0.094331 0.071347 0.007743
0.127850 0.073019 0.008884
0.169810 0.077581 0.011296
0.221176 0.087122 0.015698
0.279503 0.099976 0.022046
0.342654 0.115146 0.030329
0.408712 0.132049 0.040497
0.476178 0.150262 0.052501
0.543574 0.169439 0.066195
0.610977 0.189579 0.081658
0.679300 0.210977 0.098847
0.750011 0.234006 0.117439
0.823480 0.258775 0.137489
0.898713 0.284389 0.158380
0.962264 0.305636 0.176063
0.109285 0.109540 0.014708
0.117173 0.109775 0.014915
0.142988 0.110764 0.015797
0.178458 0.112753 0.017512
0.227458 0.122281 0.021893
0.284418 0.134877 0.028279
0.346582 0.149302 0.036580
0.412066 0.164991 0.046715
0.479003 0.181733 0.058663
0.545999 0.199235 0.072248
0.613085 0.217698 0.087627
0.681209 0.237497 0.104385
0.751604 0.259133 0.122629
0.825031 0.282649 0.142402
0.900112 0.307127 0.163025
0.963561 0.326857 0.180389
0.141345 0.155425 0.025473
0.147016 0.155581 0.025654
0.167648 0.156299 0.026426
0.199426 0.157713 0.027973
0.236904 0.159959 0.030355
0.292001 0.173595 0.037087
0.352827 0.188620 0.045642
0.417353 0.204366 0.055939
0.483479 0.220676 0.067928
0.549826 0.237322 0.081499
0.616475 0.254655 0.096570
0.684136 0.273250 0.112805
0.754275 0.293701 0.130600
0.827481 0.316117 0.149958
0.902359 0.339405 0.170247
0.965731 0.357363 0.187126
0.177325 0.208082 0.040358
0.181743 0.208204 0.040524
0.198745 0.208736 0.041246
0.227070 0.209885 0.042707
0.262629 0.211667 0.044983
0.302186 0.214168 0.048125
0.361383 0.230563 0.057240
0.424585 0.247256 0.067943
0.489667 0.263996 0.080190
0.555197 0.280561 0.093731
0.621096 0.297501 0.108238
0.688329 0.315482 0.123935
0.757995 0.335257 0.141239
0.830843 0.356898 0.160168
0.905508 0.379294 0.180032
0.968659 0.395697 0.196357
0.216170 0.266251 0.059584
0.219760 0.266364 0.059749
0.234081 0.266803 0.060436
0.259286 0.267765 0.061841
0.292518 0.269225 0.064050
0.330839 0.271340 0.067143
0.372223 0.274100 0.071110
0.433882 0.292221 0.082505
0.497708 0.309895 0.095053
0.562107 0.327041 0.108261
0.627232 0.344044 0.122308
0.693719 0.361907 0.137537
0.762930 0.381489 0.154362
0.835299 0.402977 0.172884
0.909729 0.425037 0.192325
0.972631 0.440169 0.208004
0.256956 0.328832 0.083198
0.259952 0.328904 0.083354
0.272233 0.329301 0.084026
0.294639 0.330103 0.085385
0.325366 0.331394 0.087539
0.361971 0.333217 0.090524
0.402420 0.335581 0.094367
0.445094 0.338521 0.099049
0.507496 0.357533 0.111622
0.570725 0.375496 0.124652
0.634784 0.393134 0.138357
0.700500 0.411367 0.153222
0.769042 0.431346 0.169682
0.840973 0.453111 0.187853
0.914969 0.475248 0.206911
0.977320 0.489392 0.221909
0.298950 0.394685 0.110017
0.301565 0.394786 0.110164
0.312211 0.395079 0.110751
0.332144 0.395793 0.111952
0.360316 0.396919 0.113881
0.394903 0.398453 0.116586
0.433867 0.400563 0.120059
0.475644 0.403204 0.124377
0.519017 0.406336 0.129439
0.580881 0.425546 0.142463
0.643822 0.444076 0.156023
0.708487 0.463105 0.170670
0.776349 0.483779 0.186868
0.847715 0.506278 0.204787
0.921405 0.528832 0.223549
0.982736 0.542357 0.237932
0.341496 0.463039 0.138234
0.343780 0.463136 0.138362
0.353108 0.463454 0.138906
0.370936 0.464061 0.140020
0.396684 0.465067 0.141752
0.428945 0.466512 0.144222
0.466045 0.468369 0.147386
0.506352 0.470695 0.151339
0.548788 0.473546 0.156037
0.592548 0.476921 0.161484
0.654264 0.496671 0.175082
0.717985 0.516752 0.189574
0.784821 0.538422 0.205676
0.855717 0.561931 0.223454
0.928883 0.585397 0.242070
0.988396 0.598514 0.255906
0.384732 0.534502 0.167939
0.386678 0.534575 0.168069
0.394976 0.534836 0.168563
0.410979 0.535398 0.169572
0.434404 0.536324 0.171155
0.464326 0.537594 0.173406
0.499252 0.539287 0.176329
0.537884 0.541400 0.179962
0.579078 0.544001 0.184311
0.622003 0.547074 0.189422
0.666078 0.550671 0.195213
0.728681 0.571982 0.209739
0.794743 0.595053 0.225877
0.864872 0.619898 0.243740
0.937589 0.644610 0.262288
0.994247 0.657465 0.275627
0.428921 0.610128 0.199452
0.430745 0.610136 0.199567
0.438120 0.610426 0.200027
0.452508 0.610960 0.200960
0.473810 0.611802 0.202397
0.501513 0.613013 0.204495
0.534346 0.614565 0.207239
0.571207 0.616531 0.210626
0.610896 0.618923 0.214687
0.652822 0.621801 0.219450
0.696258 0.625084 0.224901
0.740666 0.628871 0.231020
0.805785 0.653558 0.247341
0.875261 0.679990 0.265320
0.947489 0.706043 0.284012
0.999773 0.719049 0.296908
0.474809 0.692080 0.233447
0.476414 0.692099 0.233544
0.483075 0.692348 0.234006
0.496012 0.692810 0.234840
0.515551 0.693669 0.236217
0.541236 0.694750 0.238142
0.572128 0.696210 0.240691
0.607210 0.698079 0.243917
0.645543 0.700356 0.247742
0.686341 0.702991 0.252290
0.728774 0.706106 0.257487
0.772940 0.709587 0.263352
0.818006 0.713748 0.269886
0.886785 0.742146 0.288210
0.958578 0.770122 0.307132
1.000000 0.783322 0.319680
0.522345 0.781529 0.270344
0.523748 0.781556 0.270442
0.529752 0.781834 0.270837
0.541607 0.782328 0.271655
0.559572 0.783011 0.272940
0.583487 0.784091 0.274780
0.612509 0.785498 0.277223
0.645902 0.787343 0.280282
0.682833 0.789422 0.283943
0.722485 0.792024 0.288267
0.764358 0.795031 0.293324
0.807819 0.798457 0.298930
0.852962 0.802432 0.305253
0.899444 0.806713 0.312205
0.970846 0.836770 0.331349
1.000000 0.850306 0.343553
0.570054 0.877161 0.309106
0.571395 0.877227 0.309203
0.576830 0.877418 0.309631
0.587679 0.877887 0.310403
0.604262 0.878660 0.311639
0.626472 0.879674 0.313426
0.653775 0.881048 0.315719
0.685590 0.882735 0.318627
0.720950 0.884852 0.322188
0.759462 0.887384 0.326283
0.800382 0.890284 0.331108
0.843452 0.893577 0.336550
0.888418 0.897259 0.342644
0.935303 0.901194 0.349374
0.983365 0.905420 0.356687
1.000000 0.916689 0.368692
0.609272 0.939800 0.342364
0.610419 0.939784 0.342464
0.615423 0.939840 0.342815
0.625210 0.940092 0.343488
0.640361 0.940341 0.344651
0.660778 0.940817 0.346308
0.686205 0.941308 0.348532
0.715902 0.942029 0.351221
0.749451 0.942901 0.354513
0.786169 0.943799 0.358408
0.825670 0.944883 0.362908
0.867530 0.946201 0.368069
0.911580 0.947605 0.373812
0.957893 0.949268 0.380185
0.998822 0.951329 0.387194
1.000000 0.953943 0.394784
0.038905 0.007539 0.006132
0.077262 0.013513 0.006490
0.118474 0.023307 0.007133
0.164264 0.035350 0.009707
0.217280 0.049886 0.014168
0.276521 0.066666 0.020558
0.340177 0.085196 0.028870
0.406714 0.105092 0.039084
0.474476 0.125929 0.051098
0.542097 0.147365 0.064832
0.609723 0.169477 0.080331
0.678230 0.192504 0.097584
0.748997 0.216925 0.116268
0.822572 0.242816 0.136373
0.897874 0.269456 0.157362
0.961453 0.291808 0.175091
0.057928 0.037600 0.007304
0.082411 0.038672 0.007629
0.120800 0.042122 0.008719
0.165616 0.048666 0.010934
0.218181 0.059028 0.014793
0.277198 0.072939 0.020605
0.340693 0.089649 0.028494
0.407040 0.108446 0.038438
0.474741 0.128539 0.050281
0.542296 0.149444 0.063868
0.609848 0.171179 0.079266
0.678296 0.193862 0.096483
0.749056 0.218054 0.115126
0.822610 0.243756 0.135206
0.897889 0.270226 0.156176
0.961462 0.292478 0.173955
0.082088 0.071075 0.010379
0.096436 0.071624 0.011092
0.128139 0.073244 0.012029
0.170149 0.078157 0.014183
0.221395 0.087080 0.018059
0.279671 0.099136 0.023886
0.342732 0.113726 0.031742
0.408742 0.130306 0.041635
0.476153 0.148378 0.053415
0.543483 0.167452 0.066946
0.610862 0.187590 0.082270
0.679189 0.208972 0.099313
0.749931 0.232030 0.117760
0.823402 0.256810 0.137684
0.898551 0.282460 0.158495
0.962111 0.303766 0.176123
0.109529 0.109618 0.016997
0.118191 0.110010 0.017446
0.143592 0.110998 0.018266
0.178733 0.112971 0.019867
0.227715 0.122389 0.023966
0.284619 0.134535 0.029967
0.346716 0.148484 0.037916
0.412105 0.163884 0.047818
0.478970 0.180375 0.059552
0.545951 0.197737 0.072999
0.613030 0.216118 0.088200
0.681064 0.235863 0.104843
0.751521 0.257436 0.122958
0.824911 0.280906 0.142608
0.900011 0.305359 0.163155
0.963469 0.325196 0.180447
0.141517 0.155470 0.027509
0.146914 0.155816 0.027588
0.167673 0.156534 0.028336
0.199577 0.157958 0.029842
0.237185 0.160193 0.032168
0.292221 0.173590 0.038632
0.352980 0.188254 0.046909
0.417376 0.203687 0.056990
0.483485 0.219758 0.068811
0.549762 0.236239 0.082230
0.616436 0.253470 0.097123
0.684075 0.271963 0.113270
0.754137 0.292331 0.130903
0.827405 0.314709 0.150165
0.902277 0.337918 0.170379
0.965606 0.355925 0.187203
0.177454 0.208114 0.042266
0.180991 0.208422 0.042032
0.198220 0.208967 0.042740
0.226847 0.210094 0.044189
0.262682 0.211891 0.046448
0.302480 0.214410 0.049573
0.361593 0.230521 0.058464
0.424711 0.246921 0.068974
0.489714 0.263414 0.081053
0.555183 0.279820 0.094442
0.621079 0.296596 0.108798
0.688269 0.314484 0.124379
0.757948 0.334191 0.141554
0.830759 0.355741 0.160397
0.905447 0.378072 0.180170
0.968532 0.394496 0.196433
0.216253 0.266277 0.061419
0.218688 0.266550 0.060937
0.233227 0.267002 0.061632
0.258713 0.267940 0.063043
0.292251 0.269456 0.065256
0.330889 0.271569 0.068330
0.372486 0.274325 0.072307
0.434019 0.292153 0.083513
0.497751 0.309666 0.095885
0.562139 0.326527 0.108931
0.627227 0.343422 0.122843
0.693720 0.361179 0.137944
0.762887 0.380689 0.154688
0.835276 0.402075 0.173116
0.909595 0.424018 0.192457
0.972530 0.439138 0.208097
0.257039 0.328877 0.084970
0.258823 0.329050 0.084357
0.271233 0.329453 0.085020
0.293886 0.330251 0.086384
0.324838 0.331504 0.088520
0.361733 0.333347 0.091499
0.402423 0.335750 0.095316
0.445327 0.338739 0.099996
0.507579 0.357485 0.112411
0.570742 0.375266 0.125283
0.634778 0.392693 0.138891
0.700474 0.410874 0.153630
0.768948 0.430705 0.170031
0.840859 0.452382 0.188064
0.914937 0.474403 0.207066
0.977210 0.488528 0.222022
0.299017 0.394684 0.111609
0.300378 0.394814 0.110926
0.311159 0.395123 0.111534
0.331276 0.395873 0.112759
0.359686 0.397008 0.114660
0.394476 0.398570 0.117363
0.433672 0.400681 0.120856
0.475602 0.403288 0.125140
0.519147 0.406453 0.130219
0.580951 0.425470 0.143082
0.643827 0.443856 0.156545
0.708456 0.462766 0.171054
0.776348 0.483329 0.187193
0.847706 0.505717 0.205012
0.921307 0.528189 0.223708
0.982589 0.541669 0.238040
0.341599 0.463085 0.139687
0.342658 0.463209 0.138990
0.352058 0.463508 0.139554
0.370020 0.464139 0.140627
0.395963 0.465142 0.142399
0.428446 0.466562 0.144818
0.465665 0.468425 0.148020
0.506178 0.470793 0.151968
0.548739 0.473637 0.156681
0.592690 0.477020 0.162108
0.654316 0.496558 0.175552
0.717963 0.516537 0.189997
0.784816 0.538091 0.206006
0.855646 0.561516 0.223725
0.928877 0.584917 0.242246
0.988312 0.597918 0.256044
0.384743 0.534525 0.169282
0.385621 0.534609 0.168569
0.393951 0.534844 0.169091
0.410034 0.535440 0.170092
0.433663 0.536339 0.171666
0.463726 0.537611 0.173907
0.498839 0.539336 0.176825
0.537639 0.541442 0.180482
0.578917 0.544037 0.184835
0.621989 0.547121 0.189929
0.666157 0.550721 0.195717
0.728639 0.571931 0.210220
0.794730 0.594840 0.226239
0.864875 0.619574 0.243985
0.937589 0.644164 0.262485
0.994186 0.657010 0.275769
0.429006 0.610126 0.200671
0.429655 0.610157 0.199985
0.437099 0.610434 0.200447
0.451533 0.610970 0.201373
0.473045 0.611827 0.202842
0.500869 0.613030 0.204919
0.533816 0.614586 0.207633
0.570806 0.616568 0.211013
0.610675 0.618974 0.215078
0.652664 0.621839 0.219877
0.696226 0.625157 0.225312
0.740706 0.628888 0.231478
0.805832 0.653473 0.247681
0.875245 0.679735 0.265623
0.947492 0.705818 0.284218
0.999763 0.718603 0.297111
0.474861 0.692104 0.234601
0.475405 0.692111 0.233913
0.482092 0.692362 0.234317
0.495126 0.692829 0.235198
0.514792 0.693670 0.236534
0.540556 0.694780 0.238518
0.571561 0.696251 0.241054
0.606779 0.698085 0.244251
0.645141 0.700444 0.248108
0.686161 0.702975 0.252640
0.728674 0.706196 0.257822
0.772828 0.709634 0.263714
0.818062 0.713821 0.270291
0.886798 0.742188 0.288545
0.958572 0.769939 0.307342
1.000000 0.783004 0.319826
0.522373 0.781569 0.271436
0.522805 0.781533 0.270722
0.528840 0.781847 0.271117
0.540733 0.782307 0.271951
0.558761 0.782993 0.273225
0.582780 0.784076 0.275074
0.611898 0.785525 0.277526
0.645413 0.787339 0.280565
0.682483 0.789425 0.284225
0.722207 0.792036 0.288584
0.764133 0.795053 0.293609
0.807768 0.798491 0.299203
0.852904 0.802431 0.305563
0.899473 0.806754 0.312507
0.970822 0.836715 0.331608
1.000000 0.850186 0.343731
0.570112 0.877216 0.310199
0.570482 0.877204 0.309499
0.575931 0.877377 0.309868
0.586848 0.877899 0.310681
0.603474 0.878631 0.311889
0.625731 0.879657 0.313605
0.653148 0.881039 0.315935
0.685047 0.882722 0.318839
0.720503 0.884861 0.322370
0.759102 0.887351 0.326519
0.800130 0.890263 0.331344
0.843246 0.893570 0.336774
0.888226 0.897249 0.342914
0.935263 0.901195 0.349584
0.983409 0.905434 0.356993
1.000000 0.916708 0.368889
0.609335 0.939821 0.343246
0.609572 0.939822 0.342627
0.614584 0.939849 0.342958
0.624422 0.940053 0.343685
0.639542 0.940342 0.344864
0.660107 0.940822 0.346534
0.685600 0.941274 0.348738
0.715395 0.942000 0.351423
0.748965 0.942907 0.354698
0.785802 0.943763 0.358622
0.825356 0.944894 0.363133
0.867273 0.946202 0.368261
0.911460 0.947668 0.373993
0.957800 0.949257 0.380374
0.998811 0.951326 0.387384
1.000000 0.953955 0.394954
0.048674 0.014311 0.016827
0.076331 0.017285 0.017011
0.119321 0.025713 0.017812
0.164740 0.036846 0.019898
0.217583 0.050974 0.024338
0.276762 0.067524 0.030790
0.340371 0.085911 0.039143
0.406837 0.105694 0.049306
0.474626 0.126456 0.061249
0.542220 0.147854 0.074835
0.609798 0.169883 0.090106
0.678346 0.192885 0.106757
0.749059 0.217250 0.124844
0.822663 0.243138 0.144478
0.897929 0.269748 0.165027
0.961458 0.292110 0.182246
0.060171 0.036593 0.017453
0.083899 0.039765 0.017801
0.121578 0.043164 0.018546
0.166084 0.049631 0.020727
0.218503 0.059897 0.024858
0.277432 0.073703 0.030898
0.340879 0.090316 0.038878
0.407249 0.109029 0.048784
0.474885 0.129050 0.060532
0.542428 0.149916 0.073962
0.609958 0.171595 0.089140
0.678414 0.194263 0.105745
0.749080 0.218409 0.123786
0.822735 0.244078 0.143403
0.897976 0.270534 0.163918
0.961492 0.292767 0.181164
0.083838 0.071650 0.020040
0.097649 0.072186 0.020275
0.128749 0.073706 0.020953
0.170370 0.077017 0.022447
0.221406 0.082718 0.025106
0.279597 0.091592 0.029469
0.342551 0.104063 0.036015
0.408461 0.119819 0.044987
0.475774 0.137637 0.056040
0.543072 0.156867 0.068978
0.610446 0.177259 0.083826
0.678763 0.198971 0.100385
0.749462 0.222277 0.118398
0.822911 0.247286 0.137996
0.898177 0.273174 0.158520
0.961561 0.294999 0.176001
0.110540 0.109956 0.025532
0.119051 0.110347 0.025866
0.142279 0.111461 0.025819
0.179417 0.113518 0.027267
0.228020 0.121046 0.030513
0.284767 0.130960 0.035279
0.346708 0.142992 0.042067
0.411917 0.157137 0.051111
0.478682 0.172860 0.062168
0.545550 0.189795 0.075047
0.612585 0.208007 0.089763
0.680637 0.227676 0.105940
0.751188 0.249211 0.123639
0.824440 0.272689 0.142927
0.899461 0.297168 0.163181
0.962939 0.317295 0.180368
0.142223 0.155705 0.035523
0.147581 0.156057 0.035640
0.163907 0.157045 0.034463
0.198359 0.158535 0.035911
0.238050 0.160913 0.038164
0.292688 0.172528 0.043705
0.353153 0.185485 0.050973
0.417339 0.199630 0.060267
0.483233 0.214757 0.071428
0.549467 0.230568 0.084315
0.616020 0.247367 0.098702
0.683669 0.265548 0.114347
0.753765 0.285680 0.131621
0.826970 0.307813 0.150537
0.901794 0.330905 0.170449
0.965075 0.349092 0.187140
0.178003 0.208307 0.050020
0.181520 0.208614 0.049850
0.192818 0.209546 0.047625
0.223831 0.210719 0.049070
0.261822 0.212604 0.051318
0.303443 0.215218 0.054448
0.362113 0.229716 0.062469
0.424798 0.244785 0.072273
0.489576 0.260261 0.083724
0.554931 0.275921 0.096512
0.620741 0.292160 0.110362
0.687875 0.309620 0.125515
0.757553 0.328904 0.142314
0.830374 0.350216 0.160817
0.904987 0.372325 0.180294
0.968099 0.388690 0.196425
0.216702 0.266436 0.069010
0.219125 0.266692 0.068607
0.227134 0.267518 0.065598
0.254533 0.268498 0.067014
0.289982 0.270015 0.069246
0.330288 0.272218 0.072352
0.373369 0.275075 0.076362
0.434359 0.291491 0.086854
0.497810 0.307959 0.098525
0.562030 0.324017 0.111012
0.626963 0.340306 0.124428
0.693381 0.357561 0.139116
0.762421 0.376680 0.155475
0.834825 0.397616 0.173583
0.909208 0.419304 0.192668
0.972075 0.434310 0.208147
0.257412 0.329020 0.092308
0.259176 0.329180 0.091761
0.265176 0.329781 0.088345
0.289164 0.330637 0.089710
0.321646 0.331925 0.091833
0.359941 0.333789 0.094808
0.401921 0.336268 0.098633
0.446011 0.339313 0.103274
0.507834 0.356933 0.115011
0.570798 0.373826 0.127327
0.634619 0.390653 0.140489
0.700216 0.408280 0.154845
0.768628 0.427632 0.170876
0.840580 0.448918 0.188622
0.914519 0.470596 0.207339
0.976792 0.484567 0.222139
0.299359 0.394805 0.118226
0.300691 0.394940 0.117616
0.305294 0.395332 0.114127
0.326416 0.396116 0.115361
0.355975 0.397269 0.117292
0.392008 0.398868 0.119955
0.432261 0.401011 0.123451
0.475202 0.403678 0.127768
0.519624 0.406936 0.132850
0.581171 0.425023 0.145176
0.643826 0.442691 0.158204
0.708285 0.461017 0.172334
0.776077 0.481108 0.188111
0.847404 0.503041 0.205629
0.920947 0.525135 0.224080
0.982262 0.538383 0.238233
0.341867 0.463209 0.145691
0.342937 0.463304 0.145047
0.346532 0.463637 0.141611
0.365177 0.464286 0.142735
0.392058 0.465292 0.144470
0.425541 0.466753 0.146930
0.463705 0.468658 0.150118
0.505049 0.471027 0.154104
0.548405 0.473916 0.158785
0.593027 0.477364 0.164262
0.654438 0.496175 0.177254
0.717968 0.515502 0.191337
0.784674 0.536560 0.207027
0.855443 0.559570 0.224449
0.928535 0.582529 0.242653
0.988053 0.595282 0.256303
0.385000 0.534625 0.174764
0.385824 0.534714 0.174110
0.388711 0.534959 0.170762
0.405350 0.535541 0.171765
0.429665 0.536437 0.173348
0.460573 0.537728 0.175628
0.496446 0.539473 0.178533
0.536013 0.541630 0.182204
0.577989 0.544251 0.186583
0.621704 0.547361 0.191697
0.666460 0.551000 0.197521
0.728730 0.571558 0.211592
0.794677 0.593940 0.227290
0.864721 0.618201 0.244748
0.937383 0.642377 0.262981
0.993967 0.655046 0.276143
0.429219 0.610243 0.205759
0.429913 0.610303 0.205094
0.432194 0.610431 0.201811
0.447092 0.610981 0.202755
0.469138 0.611850 0.204213
0.497596 0.613064 0.206302
0.531256 0.614623 0.209030
0.568893 0.616624 0.212422
0.609366 0.619093 0.216514
0.651915 0.621984 0.221330
0.696008 0.625361 0.226803
0.740933 0.629155 0.232971
0.805846 0.653043 0.248836
0.875124 0.678891 0.266500
0.947281 0.704505 0.284846
0.999590 0.717067 0.297504
0.475059 0.692170 0.239364
0.475603 0.692234 0.238680
0.477472 0.692332 0.235444
0.490799 0.692813 0.236290
0.510932 0.693664 0.237708
0.537250 0.694757 0.239646
0.568805 0.696249 0.242206
0.604606 0.698139 0.245403
0.643550 0.700439 0.249299
0.684932 0.703086 0.253804
0.728060 0.706312 0.259048
0.772622 0.709857 0.264939
0.818110 0.713952 0.271521
0.886780 0.741813 0.289488
0.958468 0.769192 0.308004
1.000000 0.781826 0.320303
0.522566 0.781608 0.275944
0.522968 0.781639 0.275223
0.524472 0.781787 0.272034
0.536629 0.782255 0.272847
0.555000 0.782969 0.274105
0.579445 0.784090 0.276002
0.609076 0.785479 0.278464
0.643100 0.787276 0.281533
0.680584 0.789381 0.285201
0.720832 0.792020 0.289537
0.763129 0.795053 0.294583
0.807124 0.798530 0.300202
0.852629 0.802453 0.306597
0.899557 0.806860 0.313563
0.970748 0.836332 0.332367
1.000000 0.849437 0.344356
0.570283 0.877217 0.314507
0.570620 0.877206 0.313788
0.571754 0.877252 0.310568
0.582894 0.877770 0.311335
0.599803 0.878444 0.312596
0.622431 0.879603 0.314363
0.650245 0.880897 0.316674
0.682578 0.882619 0.319641
0.718475 0.884750 0.323125
0.757523 0.887227 0.327340
0.798885 0.890273 0.332118
0.842416 0.893569 0.337584
0.887719 0.897259 0.343683
0.934987 0.901198 0.350461
0.983384 0.905438 0.357884
1.000000 0.916432 0.369587
0.609421 0.939842 0.347338
0.609759 0.939843 0.346647
0.610689 0.939824 0.343541
0.620703 0.939968 0.344251
0.636120 0.940276 0.345501
0.656984 0.940701 0.347079
0.682701 0.941307 0.349323
0.712923 0.941902 0.352016
0.746938 0.942835 0.355352
0.784065 0.943699 0.359240
0.823992 0.944811 0.363797
0.866234 0.946125 0.368922
0.910661 0.947636 0.374732
0.957253 0.949273 0.381146
0.998667 0.951306 0.388132
1.000000 0.953955 0.395770
0.059589 0.022049 0.033269
0.081213 0.023925 0.033409
0.122463 0.030352 0.034014
0.165706 0.039650 0.035232
0.218244 0.053087 0.040439
0.277280 0.069229 0.047811
0.340793 0.087331 0.056897
0.407212 0.106921 0.067599
0.474910 0.127513 0.079827
0.542459 0.148784 0.093370
0.610043 0.170733 0.107886
0.678534 0.193621 0.123599
0.749220 0.217964 0.140911
0.822856 0.243786 0.159865
0.898093 0.270368 0.179725
0.961599 0.292648 0.196077
0.067462 0.039981 0.033749
0.087089 0.042136 0.034009
0.125040 0.045510 0.034610
0.167033 0.051510 0.035804
0.219160 0.061606 0.040928
0.277951 0.075221 0.048013
0.341304 0.091675 0.056788
0.407581 0.110213 0.067236
0.475170 0.130086 0.079269
0.542657 0.150849 0.092676
0.610165 0.172423 0.107102
0.678623 0.195004 0.122742
0.749424 0.219077 0.139988
0.822911 0.244717 0.158864
0.898175 0.271118 0.178720
0.961629 0.293310 0.195062
0.088122 0.074048 0.035757
0.100812 0.074924 0.035996
0.129477 0.074268 0.036466
0.171390 0.077737 0.037701
0.222121 0.083703 0.041757
0.280140 0.092684 0.047480
0.342962 0.105170 0.054970
0.408785 0.120868 0.064424
0.476072 0.138622 0.075663
0.543309 0.157762 0.088555
0.610696 0.178059 0.102726
0.678913 0.199735 0.118219
0.749588 0.222991 0.135288
0.823094 0.247927 0.154063
0.898286 0.273777 0.173819
0.961719 0.295550 0.190305
0.112538 0.110646 0.039673
0.120785 0.111030 0.039891
0.143597 0.112161 0.040535
0.179802 0.113810 0.041482
0.227795 0.117414 0.043567
0.284447 0.122520 0.046602
0.346318 0.130286 0.051371
0.411364 0.141803 0.058760
0.477980 0.156033 0.068407
0.544785 0.172331 0.080116
0.611787 0.190300 0.093732
0.679828 0.209990 0.108866
0.750320 0.231574 0.125671
0.823499 0.255087 0.144164
0.898512 0.279745 0.163766
0.961976 0.300682 0.180569
0.143640 0.156213 0.049667
0.148914 0.156546 0.049822
0.165059 0.157548 0.049554
0.193888 0.159167 0.048154
0.239186 0.161829 0.050382
0.293002 0.169733 0.054752
0.353263 0.179324 0.060111
0.417037 0.190809 0.067824
0.482792 0.204054 0.077650
0.548853 0.218594 0.089366
0.615299 0.234503 0.102580
0.682872 0.252084 0.117298
0.752958 0.271737 0.133679
0.826085 0.293431 0.151825
0.900821 0.316333 0.171072
0.964127 0.334889 0.187411
0.179088 0.208672 0.064302
0.182571 0.208982 0.064248
0.193801 0.209949 0.062919
0.215537 0.211657 0.059248
0.259041 0.213706 0.061535
0.305032 0.216550 0.064703
0.362822 0.227741 0.071439
0.424935 0.240236 0.079841
0.489391 0.253697 0.089950
0.554483 0.267858 0.101430
0.620207 0.282976 0.114198
0.687204 0.299516 0.128431
0.756834 0.318116 0.144407
0.829535 0.338764 0.162144
0.904145 0.360408 0.181024
0.967137 0.376806 0.196773
0.217586 0.266749 0.083363
0.219990 0.267008 0.083086
0.228023 0.267860 0.080847
0.244333 0.269455 0.075518
0.284425 0.271114 0.077790
0.328665 0.273449 0.080967
0.375014 0.276507 0.085074
0.435020 0.290035 0.094191
0.497901 0.304420 0.104573
0.561796 0.318876 0.115831
0.626590 0.333940 0.128217
0.692838 0.350231 0.142060
0.761854 0.368380 0.157639
0.834130 0.388598 0.175013
0.908380 0.409626 0.193460
0.971251 0.424491 0.208564
0.258145 0.329291 0.106000
0.259930 0.329459 0.105561
0.265918 0.330082 0.102855
0.278547 0.331335 0.096838
0.314595 0.332734 0.098985
0.356059 0.334665 0.101924
0.400812 0.337230 0.105740
0.447293 0.340464 0.110403
