assets/luts/Winter.cube
LUT_3D_SIZE 6
0.003234 0.051831 0.191584
0.077380 0.047334 0.190881
0.293493 0.044612 0.190811
0.526093 0.042907 0.190494
0.784398 0.040675 0.189418
0.999964 0.037441 0.186523
0.002684 0.221277 0.200742
0.083403 0.221277 0.188390
0.293493 0.206484 0.187732
0.526093 0.199178 0.186450
0.784398 0.195162 0.184780
0.999964 0.187345 0.182366
0.002487 0.441514 0.205017
0.070278 0.441514 0.187191
0.301679 0.441514 0.187191
0.526093 0.418782 0.186450
0.784398 0.412188 0.184780
0.999964 0.397137 0.182366
0.002330 0.634982 0.206238
0.060216 0.634982 0.186170
0.277720 0.634982 0.186170
0.531293 0.634982 0.186170
0.784398 0.620528 0.184782
0.999964 0.598610 0.182366
0.002092 0.824771 0.206091
0.055220 0.824771 0.184599
0.265777 0.824771 0.184599
0.510910 0.824771 0.184599
0.785900 0.824771 0.184599
0.999964 0.794472 0.182314
0.001762 0.999966 0.202073
0.051925 0.999966 0.182221
0.252172 0.999966 0.182221
0.487557 0.999966 0.182221
0.751718 0.999966 0.182221
0.999964 0.999966 0.182221
0.002684 0.064321 0.317686
0.085502 0.045494 0.317686
0.293532 0.044483 0.306447
0.526094 0.042873 0.301969
0.784398 0.040670 0.299507
0.999964 0.037439 0.293460
0.002684 0.223898 0.317686
0.076473 0.220776 0.316600
0.295482 0.215839 0.314263
0.528103 0.210105 0.310914
0.785464 0.204110 0.307166
0.999964 0.196409 0.300719
0.002487 0.441514 0.313274
0.068278 0.444615 0.314738
0.299708 0.444615 0.308681
0.528103 0.422943 0.309611
0.785464 0.414192 0.305255
0.999964 0.399311 0.299679
0.002330 0.634982 0.307529
0.065828 0.636992 0.315297
0.273311 0.636992 0.306177
0.531788 0.636992 0.306177
0.785464 0.621721 0.305255
0.999964 0.599277 0.299679
0.002092 0.824771 0.304447
0.062613 0.825653 0.314018
0.259844 0.825653 0.302834
0.510227 0.825653 0.302834
0.786708 0.825653 0.302834
0.999964 0.794633 0.299132
0.001762 0.999966 0.297838
0.057964 0.999966 0.305453
0.249030 0.999966 0.297811
0.487272 0.999966 0.297811
0.751966 0.999966 0.297811
0.999964 0.999966 0.297811
0.002487 0.069164 0.472237
0.072892 0.043881 0.472237
0.303345 0.043881 0.472237
0.526099 0.042757 0.456116
0.784399 0.040630 0.452241
0.999964 0.037419 0.441387
0.002487 0.218189 0.472237
0.068278 0.217845 0.474353
0.300796 0.208814 0.474353
0.528263 0.208641 0.459404
0.785496 0.203591 0.454291
0.999964 0.196174 0.443212
0.002487 0.443323 0.472237
0.068278 0.445858 0.474353
0.292729 0.441136 0.471729
0.528737 0.438174 0.470138
0.787021 0.430124 0.465060
0.999964 0.417850 0.455511
0.002330 0.634982 0.460040
0.065828 0.636992 0.462616
0.277311 0.639687 0.464450
0.533116 0.639687 0.462177
0.787021 0.627594 0.464526
0.999964 0.608063 0.456143
0.002092 0.824771 0.454439
0.062613 0.825653 0.457376
0.267781 0.827702 0.460197
0.511206 0.827702 0.456115
0.789012 0.827702 0.456115
0.999964 0.797867 0.455198
0.001762 0.999966 0.443047
0.057964 0.999966 0.445255
0.255619 0.999966 0.447032
0.492447 0.999966 0.448386
0.754292 0.999966 0.448386
0.999964 0.999966 0.448386
0.002330 0.070402 0.598706
0.063077 0.042518 0.598706
0.278799 0.042518 0.598706
0.531890 0.042518 0.598706
0.784402 0.040552 0.589915
0.999964 0.037389 0.574900
0.002330 0.209310 0.598706
0.065828 0.217903 0.599920
0.274880 0.205351 0.599920
0.532326 0.205351 0.599920
0.785524 0.202547 0.590611
0.999964 0.195685 0.575166
0.002330 0.425118 0.598706
0.065828 0.428299 0.599920
0.277311 0.430042 0.601627
0.533424 0.426702 0.601627
0.787645 0.426032 0.593552
0.999964 0.415731 0.579685
0.002330 0.635627 0.598706
0.065828 0.637442 0.599920
0.277311 0.639934 0.601627
0.525643 0.634713 0.598456
0.786352 0.632362 0.597066
0.999964 0.623009 0.590429
0.002092 0.824771 0.591319
0.062613 0.825653 0.592366
0.267781 0.827702 0.593556
0.507885 0.828485 0.590694
0.789901 0.828485 0.589720
0.999964 0.804755 0.591112
0.001762 0.999966 0.575682
0.057964 0.999966 0.576285
0.255619 0.999966 0.576702
0.489367 0.999966 0.575672
0.756312 0.999966 0.580519
0.999964 0.999966 0.580519
0.002092 0.069940 0.713507
0.058190 0.040419 0.713507
0.266420 0.040419 0.713507
0.510649 0.040419 0.713507
0.784997 0.040419 0.713507
0.999964 0.037339 0.694129
0.002092 0.204494 0.713507
0.062613 0.215563 0.713923
0.261653 0.200778 0.713923
0.510436 0.200778 0.713923
0.786073 0.200778 0.713923
0.999964 0.194958 0.694022
0.002092 0.415613 0.713507
0.062613 0.419524 0.713923
0.267781 0.423142 0.715143
0.511723 0.417846 0.715143
0.788713 0.417846 0.715143
0.999964 0.412108 0.695252
0.002092 0.622108 0.713507
0.062613 0.623893 0.713923
0.267781 0.626264 0.715143
0.507885 0.622024 0.715626
0.789727 0.620822 0.715626
0.999964 0.617140 0.699011
0.002092 0.824771 0.714018
0.062613 0.825653 0.714483
0.267781 0.827702 0.715488
0.507885 0.828485 0.715781
0.784117 0.824543 0.713356
0.999964 0.819110 0.711839
0.001762 0.999966 0.694579
0.057964 0.999966 0.694580
0.255619 0.999966 0.694526
0.489367 0.999966 0.694400
0.766383 0.999966 0.703798
0.999964 0.999966 0.705917
0.001762 0.064867 0.847937
0.054550 0.037265 0.847937
0.253114 0.037265 0.847937
0.487954 0.037265 0.847937
0.751868 0.037265 0.847937
0.999964 0.037265 0.847937
0.001762 0.195941 0.847937
0.057964 0.204476 0.847937
0.250179 0.193848 0.847937
0.487773 0.193848 0.847937
0.752221 0.193848 0.847937
0.999964 0.193848 0.847937
0.001762 0.400319 0.847937
0.057964 0.403096 0.847937
0.255619 0.405362 0.847937
0.491895 0.406559 0.847937
0.754083 0.406559 0.847937
0.999964 0.406559 0.847937
0.001762 0.600180 0.847937
0.057964 0.601185 0.847937
0.255619 0.602046 0.847937
0.489367 0.600138 0.847937
0.755708 0.606280 0.847937
0.999964 0.606280 0.847937
0.001762 0.795143 0.847937
0.057964 0.795459 0.847937
0.255619 0.795777 0.847937
0.489367 0.795129 0.847937
0.766383 0.806734 0.847937
0.999964 0.811977 0.847937
0.001762 0.999966 0.847937
0.057964 0.999966 0.847937
0.255619 0.999966 0.847937
0.489367 0.999966 0.847937
0.766383 0.999966 0.847937
0.999964 0.999966 0.847937
