assets/luts/Winter.cube
LUT_3D_SIZE 16
0.003234 0.051831 0.191584
0.008018 0.051086 0.191592
0.030572 0.049058 0.191096
0.077380 0.047334 0.190881
0.145807 0.045924 0.190673
0.218621 0.045218 0.190782
0.293493 0.044612 0.190811
0.369291 0.044078 0.190792
0.445682 0.043505 0.190676
0.526093 0.042907 0.190494
0.610302 0.042225 0.190203
0.697032 0.041479 0.189849
0.784398 0.040675 0.189418
0.870333 0.039821 0.188925
0.953733 0.038928 0.188375
0.999964 0.037441 0.186523
0.003163 0.077081 0.193235
0.008079 0.077081 0.192602
0.030595 0.073732 0.191069
0.077380 0.071460 0.189776
0.145807 0.069617 0.188723
0.218621 0.068192 0.188193
0.293493 0.066795 0.187732
0.369291 0.065406 0.187336
0.445682 0.063990 0.186898
0.526093 0.062823 0.186450
0.610302 0.061791 0.185943
0.697032 0.060788 0.185399
0.784398 0.059757 0.184780
0.870333 0.058615 0.184152
0.953733 0.057350 0.183476
0.999964 0.056527 0.182366
0.002938 0.144790 0.198056
0.007182 0.144790 0.196000
0.031085 0.144790 0.189893
0.078357 0.137058 0.189776
0.145807 0.135149 0.188723
0.218621 0.134018 0.188193
0.293493 0.132506 0.187732
0.369291 0.130618 0.187336
0.445682 0.128587 0.186898
0.526093 0.127090 0.186450
0.610302 0.125973 0.185943
0.697032 0.124976 0.185399
0.784398 0.123845 0.184780
0.870333 0.122464 0.184152
0.953733 0.120803 0.183476
0.999964 0.118445 0.182366
0.002684 0.221277 0.200742
0.006406 0.221277 0.198004
0.027170 0.221277 0.188532
0.083403 0.221277 0.188390
0.147852 0.211618 0.188710
0.218621 0.208337 0.188193
0.293493 0.206484 0.187732
0.369291 0.203927 0.187336
0.445682 0.201120 0.186898
0.526093 0.199178 0.186450
0.610302 0.197761 0.185943
0.697032 0.196543 0.185399
0.784398 0.195162 0.184780
0.870333 0.193383 0.184152
0.953733 0.191133 0.183476
0.999964 0.187345 0.182366
0.002560 0.297553 0.202577
0.005913 0.297553 0.199627
0.024633 0.297553 0.188769
0.078622 0.297553 0.187645
0.154223 0.297553 0.187645
0.221196 0.286945 0.187929
0.293493 0.282045 0.187732
0.369291 0.278846 0.187336
0.445682 0.275195 0.186898
0.526093 0.272724 0.186450
0.610302 0.271020 0.185943
0.697032 0.269539 0.185399
0.784398 0.267859 0.184780
0.870333 0.265578 0.184152
0.953733 0.262727 0.183476
0.999964 0.257550 0.182366
0.002528 0.371230 0.204060
0.005612 0.371230 0.201081
0.022757 0.371230 0.189704
0.074274 0.371230 0.187427
0.148324 0.371230 0.187427
0.227285 0.371230 0.187427
0.296040 0.360006 0.187427
0.369291 0.353545 0.187336
0.445682 0.349251 0.186898
0.526093 0.346281 0.186450
0.610302 0.344296 0.185943
0.697032 0.342602 0.185399
0.784398 0.340530 0.184780
0.870333 0.337808 0.184152
0.953733 0.334351 0.183476
0.999964 0.327829 0.182366
0.002487 0.441514 0.205017
0.005355 0.441514 0.202057
0.021249 0.441514 0.190513
0.070278 0.441514 0.187191
0.142651 0.441514 0.187191
0.220131 0.441514 0.187191
0.301679 0.441514 0.187191
0.371421 0.429282 0.186991
0.445683 0.422153 0.186897
0.526093 0.418782 0.186450
0.610302 0.416516 0.185943
0.697032 0.414548 0.185399
0.784398 0.412188 0.184780
0.870333 0.409054 0.184152
0.953733 0.405014 0.183476
0.999964 0.397137 0.182366
0.002438 0.508063 0.205653
0.005116 0.508063 0.202747
0.019895 0.508063 0.191253
0.066403 0.508063 0.186905
0.136971 0.508063 0.186905
0.212898 0.508063 0.186905
0.292571 0.508063 0.186905
0.376587 0.508063 0.186905
0.447293 0.495405 0.186608
0.526096 0.490055 0.186409
0.610302 0.487517 0.185943
0.697032 0.485339 0.185399
0.784398 0.482745 0.184780
0.870333 0.479258 0.184152
0.953733 0.474663 0.183476
0.999964 0.465373 0.182366
0.002389 0.571505 0.206041
0.004895 0.571505 0.203177
0.018727 0.571505 0.191834
0.062813 0.571505 0.186568
0.131487 0.571505 0.186568
0.205948 0.571505 0.186568
0.283903 0.571505 0.186568
0.366044 0.571505 0.186568
0.452031 0.571505 0.186568
0.526813 0.560881 0.186170
0.610306 0.557383 0.185863
0.697032 0.554973 0.185399
0.784398 0.552115 0.184780
0.870333 0.548231 0.184152
0.953733 0.543097 0.183476
0.999964 0.532512 0.182366
0.002330 0.634982 0.206238
0.004708 0.634982 0.203437
0.017847 0.634982 0.192152
0.060216 0.634982 0.186170
0.127525 0.634982 0.186170
0.200994 0.634982 0.186170
0.277720 0.634982 0.186170
0.358411 0.634982 0.186170
0.442997 0.634982 0.186170
0.531293 0.634982 0.186170
0.610311 0.626339 0.185710
0.696994 0.623661 0.185285
0.784398 0.620528 0.184782
0.870333 0.616213 0.184152
0.953733 0.610563 0.183476
0.999964 0.598610 0.182366
0.002255 0.698766 0.206317
0.004539 0.698766 0.203543
0.017168 0.698766 0.192226
0.058317 0.698766 0.185710
0.124636 0.698766 0.185710
0.197372 0.698766 0.185710
0.273242 0.698766 0.185710
0.352947 0.698766 0.185710
0.436450 0.698766 0.185710
0.523632 0.698766 0.185710
0.614317 0.698766 0.185710
0.696966 0.691699 0.185189
0.784402 0.688299 0.184681
0.870334 0.683602 0.184126
0.953733 0.677344 0.183476
0.999964 0.664137 0.182366
0.002180 0.762272 0.206251
0.004381 0.762272 0.203475
0.016584 0.762272 0.192130
0.056754 0.762272 0.185189
0.122229 0.762272 0.185189
0.194409 0.762272 0.185189
0.269474 0.762272 0.185189
0.348460 0.762272 0.185189
0.431009 0.762272 0.185189
0.517316 0.762272 0.185189
0.607004 0.762272 0.185189
0.699855 0.762272 0.185189
0.784406 0.755733 0.184599
0.870338 0.750454 0.184047
0.953734 0.743702 0.183428
0.999964 0.729241 0.182366
0.002092 0.824771 0.206091
0.004215 0.824771 0.203304
0.016010 0.824771 0.191946
0.055220 0.824771 0.184599
0.119802 0.824771 0.184599
0.191371 0.824771 0.184599
0.265777 0.824771 0.184599
0.343770 0.824771 0.184599
0.425578 0.824771 0.184599
0.510910 0.824771 0.184599
0.599611 0.824771 0.184599
0.691451 0.824771 0.184599
0.785900 0.824771 0.184599
0.870340 0.817475 0.183989
0.953736 0.809997 0.183347
0.999964 0.794472 0.182314
0.002006 0.885743 0.205836
0.004040 0.885743 0.203074
0.015406 0.885743 0.191731
0.053521 0.885743 0.183989
0.117025 0.885743 0.183989
0.187856 0.885743 0.183989
0.261362 0.885743 0.183989
0.338551 0.885743 0.183989
0.419200 0.885743 0.183989
0.503466 0.885743 0.183989
0.591068 0.885743 0.183989
0.681655 0.885743 0.183989
0.775036 0.885743 0.183989
0.870706 0.885743 0.183989
0.953737 0.876942 0.183327
0.999964 0.860487 0.182243
0.001909 0.945139 0.205521
0.003859 0.945139 0.202789
0.014770 0.945139 0.191489
0.051632 0.945139 0.183327
0.113836 0.945139 0.183327
0.183818 0.945139 0.183327
0.256325 0.945139 0.183327
0.332359 0.945139 0.183327
0.411897 0.945139 0.183327
0.494927 0.945139 0.183327
0.581224 0.945139 0.183327
0.670637 0.945139 0.183327
0.762441 0.945139 0.183327
0.856784 0.945139 0.183327
0.953737 0.945629 0.183327
0.999964 0.928297 0.182221
0.001762 0.999966 0.202073
0.003755 0.999966 0.199356
0.015064 0.999966 0.188505
0.051925 0.999966 0.182221
0.112195 0.999966 0.182221
0.180796 0.999966 0.182221
0.252172 0.999966 0.182221
0.327131 0.999966 0.182221
0.405597 0.999966 0.182221
0.487557 0.999966 0.182221
0.572790 0.999966 0.182221
0.661027 0.999966 0.182221
0.751718 0.999966 0.182221
0.844854 0.999966 0.182221
0.939696 0.999966 0.182221
0.999964 0.999966 0.182221
0.003163 0.055724 0.211955
0.008079 0.053461 0.211955
0.031053 0.048839 0.209374
0.077404 0.047225 0.208539
0.145816 0.045869 0.208587
0.218628 0.045196 0.208617
0.293495 0.044603 0.208419
0.369292 0.044066 0.208062
0.445683 0.043502 0.207563
0.526093 0.042904 0.207172
0.610302 0.042226 0.206782
0.697032 0.041478 0.206365
0.784398 0.040675 0.205878
0.870333 0.039821 0.205279
0.953733 0.038928 0.204563
0.999964 0.037438 0.202626
0.003163 0.079444 0.211955
0.007989 0.078434 0.211653
0.030539 0.076693 0.211409
0.077576 0.074642 0.210653
0.146192 0.072875 0.210107
0.219072 0.071841 0.209940
0.293883 0.071001 0.209795
0.369585 0.070272 0.209617
0.446007 0.069537 0.209365
0.526341 0.068769 0.209067
0.610476 0.067930 0.208674
0.697093 0.067017 0.208180
0.784439 0.066032 0.207622
0.870316 0.065000 0.206992
0.953734 0.063917 0.206314
0.999964 0.062137 0.204169
0.002938 0.144790 0.214938
0.007510 0.144991 0.214778
0.030844 0.144991 0.211516
0.078150 0.138978 0.210160
0.146192 0.136406 0.208839
0.219072 0.134665 0.208064
0.293883 0.132805 0.207441
0.369585 0.130757 0.206906
0.446007 0.128738 0.206359
0.526341 0.127141 0.205781
0.610476 0.125873 0.205153
0.697093 0.124692 0.204467
0.784439 0.123418 0.203727
0.870316 0.121909 0.202964
0.953734 0.120215 0.202159
0.999964 0.118151 0.200842
0.002684 0.221277 0.217303
0.006956 0.221795 0.217217
0.027776 0.221795 0.211423
0.081321 0.221795 0.208015
0.147793 0.212984 0.208839
0.219072 0.209351 0.208064
0.293883 0.207042 0.207441
0.369585 0.204244 0.206906
0.446007 0.201365 0.206359
0.526341 0.199276 0.205781
0.610476 0.197726 0.205153
0.697093 0.196382 0.204467
0.784439 0.194901 0.203727
0.870316 0.193026 0.202964
0.953734 0.190742 0.202159
0.999964 0.187122 0.200842
0.002560 0.297553 0.218603
0.006691 0.298140 0.219037
0.025558 0.298140 0.212070
0.075671 0.298140 0.207038
0.152975 0.298140 0.207038
0.221313 0.288002 0.207707
0.293883 0.282879 0.207441
0.369585 0.279320 0.206906
0.446007 0.275546 0.206359
0.526341 0.272913 0.205781
0.610476 0.271058 0.205153
0.697093 0.269441 0.204467
0.784439 0.267670 0.203727
0.870316 0.265311 0.202964
0.953734 0.262414 0.202159
0.999964 0.257377 0.200842
0.002528 0.371230 0.219434
0.006625 0.371697 0.220617
0.024010 0.371697 0.213196
0.070799 0.371697 0.206768
0.146492 0.371697 0.206768
0.226517 0.371697 0.206768
0.296171 0.360751 0.206914
0.369585 0.354238 0.206906
0.446007 0.349682 0.206359
0.526341 0.346509 0.205781
0.610476 0.344345 0.205153
0.697093 0.342536 0.204467
0.784439 0.340386 0.203727
0.870316 0.337631 0.202964
0.953734 0.334091 0.202159
0.999964 0.327734 0.200842
0.002487 0.441514 0.219817
0.006546 0.441909 0.221675
0.022718 0.441909 0.214041
0.066464 0.441909 0.206485
0.140453 0.441909 0.206485
0.218996 0.441909 0.206485
0.301201 0.441909 0.206485
0.371626 0.429967 0.206321
0.446007 0.422670 0.206359
0.526341 0.419020 0.205781
0.610476 0.416683 0.205153
0.697093 0.414528 0.204467
0.784439 0.412113 0.203727
0.870316 0.408910 0.202964
0.953734 0.404834 0.202159
0.999964 0.396990 0.200842
0.002438 0.508063 0.219863
0.006455 0.508393 0.222327
0.021571 0.508393 0.214696
0.062363 0.508393 0.206127
0.134487 0.508393 0.206127
0.211543 0.508393 0.206127
0.291899 0.508393 0.206127
0.376339 0.508393 0.206127
0.447481 0.495923 0.205809
0.526347 0.490456 0.205702
0.610476 0.487723 0.205153
0.697093 0.485365 0.204467
0.784439 0.482727 0.203727
0.870316 0.479082 0.202964
0.953734 0.474442 0.202159
0.999964 0.465226 0.200842
0.002389 0.571505 0.219717
0.006352 0.571757 0.222734
0.020549 0.571757 0.215161
0.058621 0.571757 0.205744
0.128811 0.571757 0.205744
0.204464 0.571757 0.205744
0.283097 0.571757 0.205744
0.365563 0.571757 0.205744
0.451886 0.571757 0.205744
0.527073 0.561301 0.205270
0.610484 0.557647 0.205009
0.697093 0.555036 0.204467
0.784439 0.552102 0.203727
0.870316 0.548111 0.202964
0.953734 0.542962 0.202159
0.999964 0.532409 0.200842
0.002330 0.634982 0.219575
0.006233 0.635225 0.222962
0.019772 0.635225 0.215359
0.055845 0.635225 0.205270
0.124729 0.635225 0.205270
0.199402 0.635225 0.205270
0.276780 0.635225 0.205270
0.357883 0.635225 0.205270
0.442757 0.635225 0.205270
0.531269 0.635225 0.205270
0.610501 0.626667 0.204702
0.697104 0.623872 0.204306
0.784439 0.620615 0.203727
0.870316 0.616113 0.202964
0.953734 0.610392 0.202159
0.999964 0.598529 0.200842
0.002255 0.698766 0.219431
0.006090 0.698990 0.223028
0.019128 0.698990 0.215383
0.053765 0.698990 0.204702
0.121644 0.698990 0.204702
0.195664 0.698990 0.204702
0.272221 0.698990 0.204702
0.352344 0.698990 0.204702
0.436133 0.698990 0.204702
0.523572 0.698990 0.204702
0.614322 0.698990 0.204702
0.697143 0.691942 0.204101
0.784450 0.688451 0.203548
0.870318 0.683517 0.202928
0.953734 0.677238 0.202159
0.999964 0.664069 0.200842
0.002180 0.762272 0.219199
0.005938 0.762373 0.222907
0.018552 0.762373 0.215253
0.052036 0.762373 0.204101
0.119082 0.762373 0.204101
0.192569 0.762373 0.204101
0.268380 0.762373 0.204101
0.347817 0.762373 0.204101
0.430655 0.762373 0.204101
0.517139 0.762373 0.204101
0.606972 0.762373 0.204101
0.699857 0.762373 0.204101
0.784459 0.755758 0.203390
0.870327 0.750364 0.202770
0.953737 0.743594 0.202086
0.999964 0.729189 0.200842
0.002092 0.824771 0.218869
0.005764 0.824868 0.222670
0.017988 0.824868 0.214983
0.050342 0.824868 0.203390
0.116493 0.824868 0.203390
0.189427 0.824868 0.203390
0.264528 0.824868 0.203390
0.343085 0.824868 0.203390
0.425129 0.824868 0.203390
0.510706 0.824868 0.203390
0.599621 0.824868 0.203390
0.691389 0.824868 0.203390
0.785991 0.824868 0.203390
0.870332 0.817406 0.202663
0.953743 0.809900 0.201947
0.999964 0.794349 0.200758
0.002006 0.885743 0.218436
0.005579 0.885732 0.222333
0.017383 0.885732 0.214645
0.048520 0.885732 0.202663
0.113594 0.885732 0.202663
0.185861 0.885732 0.202663
0.260096 0.885732 0.202663
0.337706 0.885732 0.202663
0.418736 0.885732 0.202663
0.503215 0.885732 0.202663
0.590951 0.885732 0.202663
0.681672 0.885732 0.202663
0.775045 0.885732 0.202663
0.870714 0.885732 0.202663
0.953678 0.876950 0.201878
0.999964 0.860409 0.200616
0.001909 0.945139 0.217898
0.005396 0.945135 0.221922
0.016745 0.945135 0.214255
0.046494 0.945135 0.201878
0.110285 0.945135 0.201878
0.181739 0.945135 0.201878
0.255030 0.945135 0.201878
0.331496 0.945135 0.201878
0.411405 0.945135 0.201878
0.494580 0.945135 0.201878
0.581020 0.945135 0.201878
0.670336 0.945135 0.201878
0.762353 0.945135 0.201878
0.856860 0.945135 0.201878
0.953678 0.945574 0.201878
0.999964 0.928257 0.200582
0.001762 0.999966 0.214632
0.005090 0.999966 0.217887
0.016810 0.999966 0.210582
0.047968 0.999966 0.200582
0.109418 0.999966 0.200582
0.179164 0.999966 0.200582
0.251136 0.999966 0.200582
0.326441 0.999966 0.200582
0.405197 0.999966 0.200582
0.487287 0.999966 0.200582
0.572633 0.999966 0.200582
0.660885 0.999966 0.200582
0.751633 0.999966 0.200582
0.844817 0.999966 0.200582
0.939695 0.999966 0.200582
0.999964 0.999966 0.200582
0.002938 0.061363 0.262020
0.007182 0.057254 0.262020
0.032440 0.047506 0.262020
0.079935 0.046698 0.256244
0.145831 0.045661 0.254411
0.218642 0.045112 0.254329
0.293531 0.044557 0.253762
0.369295 0.044045 0.252773
0.445684 0.043487 0.251632
0.526093 0.042898 0.250808
0.610302 0.042221 0.250197
0.697033 0.041471 0.249647
0.784398 0.040673 0.248960
0.870333 0.039817 0.248063
0.953733 0.038924 0.246952
0.999964 0.037438 0.244484
0.002938 0.084893 0.262020
0.007510 0.083692 0.262149
0.030844 0.076169 0.262149
0.079333 0.073843 0.257555
0.146244 0.072531 0.255721
0.219096 0.071689 0.255307
0.293865 0.070936 0.254638
0.369593 0.070224 0.253678
0.446010 0.069512 0.252628
0.526342 0.068752 0.251804
0.610476 0.067928 0.251168
0.697094 0.067013 0.250561
0.784440 0.066031 0.249823
0.870316 0.064997 0.248911
0.953734 0.063917 0.247831
0.999964 0.062149 0.245252
0.002938 0.147445 0.262020
0.007510 0.147267 0.262149
0.030253 0.145017 0.261179
0.077441 0.143477 0.260820
0.146726 0.141337 0.259717
0.219925 0.139529 0.258919
0.294819 0.137969 0.258200
0.370520 0.136587 0.257549
0.446883 0.135365 0.256917
0.527125 0.134103 0.256278
0.611134 0.132782 0.255513
0.697663 0.131402 0.254707
0.784899 0.129937 0.253807
0.870642 0.128433 0.252842
0.953878 0.126863 0.251816
0.999964 0.124316 0.248978
0.002684 0.221277 0.262198
0.006956 0.221795 0.262460
0.028070 0.222606 0.261038
0.078666 0.222606 0.258605
0.147221 0.216240 0.259463
0.219925 0.212601 0.258114
0.294819 0.209641 0.256973
0.370520 0.206608 0.255991
0.446883 0.203695 0.255064
0.527125 0.201402 0.254138
0.611134 0.199541 0.253178
0.697663 0.197797 0.252155
0.784899 0.195946 0.251078
0.870642 0.193878 0.249967
0.953878 0.191524 0.248802
0.999964 0.188654 0.246946
0.002560 0.297553 0.262706
0.006691 0.298140 0.263084
0.026839 0.299626 0.262006
0.072634 0.299626 0.257723
0.150083 0.299626 0.255453
0.221278 0.290652 0.257752
0.294819 0.285526 0.256973
0.370520 0.281487 0.255991
0.446883 0.277455 0.255064
0.527125 0.274563 0.254138
0.611134 0.272395 0.253178
0.697663 0.270453 0.252155
0.784899 0.268369 0.251078
0.870642 0.265865 0.249967
0.953878 0.262890 0.248802
0.999964 0.258315 0.246946
0.002528 0.371230 0.262453
0.006625 0.371697 0.263197
0.026468 0.373107 0.263432
0.068571 0.373107 0.258197
0.141937 0.373107 0.254844
0.224869 0.373107 0.254844
0.296635 0.363027 0.255824
0.370520 0.356370 0.255991
0.446883 0.351453 0.255064
0.527125 0.348033 0.254138
0.611134 0.345408 0.253178
0.697663 0.343311 0.252155
0.784899 0.340920 0.251078
0.870642 0.337954 0.249967
0.953878 0.334339 0.248802
0.999964 0.328275 0.246946
0.002487 0.441514 0.261780
0.006546 0.441909 0.262837
0.026196 0.443107 0.264467
0.065444 0.443107 0.258711
0.135076 0.443107 0.254336
0.216466 0.443107 0.254336
0.300306 0.443107 0.254336
0.372316 0.431791 0.254530
0.446883 0.424396 0.255064
0.527125 0.420369 0.254138
0.611134 0.417528 0.253178
0.697663 0.415151 0.252155
0.784899 0.412481 0.251078
0.870642 0.409103 0.249967
0.953878 0.404947 0.248802
0.999964 0.397388 0.246946
0.002438 0.508063 0.260680
0.006455 0.508393 0.262126
0.025909 0.509409 0.265132
0.062681 0.509409 0.259084
0.128627 0.509409 0.253834
0.208535 0.509409 0.253834
0.290478 0.509409 0.253834
0.375911 0.509409 0.253834
0.448222 0.497500 0.253543
0.527124 0.491734 0.253943
0.611134 0.488610 0.253178
0.697663 0.485976 0.252155
0.784899 0.483040 0.251078
0.870642 0.479260 0.249967
0.953878 0.474470 0.248802
0.999964 0.465443 0.246946
0.002389 0.571505 0.259485
0.006352 0.571757 0.261265
0.025595 0.572611 0.265512
0.060250 0.572611 0.259309
0.122656 0.572611 0.253266
0.201227 0.572611 0.253266
0.281360 0.572611 0.253266
0.364779 0.572611 0.253266
0.451781 0.572611 0.253266
0.527812 0.562559 0.252645
0.611159 0.558542 0.252791
0.697663 0.555645 0.252155
0.784899 0.552443 0.251078
0.870642 0.548213 0.249967
0.953878 0.542949 0.248802
0.999964 0.532453 0.246946
0.002330 0.634982 0.258608
0.006233 0.635225 0.260624
0.025236 0.635920 0.265673
0.058365 0.635920 0.259300
0.118166 0.635920 0.252619
0.195876 0.635920 0.252619
0.274860 0.635920 0.252619
0.356912 0.635920 0.252619
0.442381 0.635920 0.252619
0.531320 0.635920 0.252619
0.611207 0.627593 0.251880
0.697691 0.624421 0.251652
0.784899 0.620894 0.251078
0.870642 0.616247 0.249967
0.953878 0.610379 0.248802
0.999964 0.598558 0.246946
0.002255 0.698766 0.257962
0.006090 0.698990 0.260115
0.024818 0.699533 0.265633
0.056826 0.699533 0.259096
0.114670 0.699533 0.251880
0.191869 0.699533 0.251880
0.270023 0.699533 0.251880
0.351174 0.699533 0.251880
0.435558 0.699533 0.251880
0.523394 0.699533 0.251880
0.614507 0.699533 0.251880
0.697811 0.692661 0.251012
0.784879 0.688759 0.250529
0.870651 0.683727 0.249874
0.953878 0.677256 0.248802
0.999964 0.664056 0.246946
0.002180 0.762272 0.257378
0.005938 0.762373 0.259603
0.024351 0.762809 0.265380
0.055445 0.762809 0.258693
0.111661 0.762809 0.251012
0.188458 0.762809 0.251012
0.266038 0.762809 0.251012
0.346334 0.762809 0.251012
0.429951 0.762809 0.251012
0.516846 0.762809 0.251012
0.606972 0.762809 0.251012
0.700076 0.762809 0.251012
0.784900 0.756223 0.250070
0.870646 0.750595 0.249355
0.953892 0.743623 0.248623
0.999964 0.729164 0.246946
0.002092 0.824771 0.256677
0.005764 0.824868 0.258967
0.023842 0.825180 0.264998
0.054047 0.825180 0.258176
0.108647 0.825180 0.250070
0.185053 0.825180 0.250070
0.261972 0.825180 0.250070
0.341597 0.825180 0.250070
0.424310 0.825180 0.250070
0.510258 0.825180 0.250070
0.599449 0.825180 0.250070
0.691549 0.825180 0.250070
0.786258 0.825180 0.250070
0.870626 0.817646 0.249046
0.953853 0.809874 0.248174
0.999964 0.794361 0.246681
0.002006 0.885743 0.255805
0.005579 0.885732 0.258160
0.023292 0.885966 0.264454
0.052550 0.885966 0.257572
0.105304 0.885966 0.249046
0.181238 0.885966 0.249046
0.257393 0.885966 0.249046
0.336080 0.885966 0.249046
0.417792 0.885966 0.249046
0.502761 0.885966 0.249046
0.590728 0.885966 0.249046
0.681780 0.885966 0.249046
0.775165 0.885966 0.249046
0.871073 0.885966 0.249046
0.953869 0.876972 0.247958
0.999964 0.860351 0.246308
0.001909 0.945139 0.254759
0.005396 0.945135 0.257220
0.022718 0.945221 0.263815
0.050969 0.945221 0.256886
0.101613 0.945221 0.247958
0.176915 0.945221 0.247958
0.252157 0.945221 0.247958
0.329752 0.945221 0.247958
0.410295 0.945221 0.247958
0.493959 0.945221 0.247958
0.580747 0.945221 0.247958
0.670327 0.945221 0.247958
0.762399 0.945221 0.247958
0.856961 0.945221 0.247958
0.953869 0.945641 0.247958
0.999964 0.928188 0.246197
0.001762 0.999966 0.251517
0.005090 0.999966 0.253451
0.021797 0.999966 0.258350
0.051015 0.999966 0.252340
0.103902 0.999966 0.246197
0.176122 0.999966 0.246197
0.249349 0.999966 0.246197
0.325433 0.999966 0.246197
0.404585 0.999966 0.246197
0.487010 0.999966 0.246197
0.572486 0.999966 0.246197
0.660872 0.999966 0.246197
0.751678 0.999966 0.246197
0.844859 0.999966 0.246197
0.939680 0.999966 0.246197
0.999964 0.999966 0.246197
0.002684 0.064321 0.317686
0.006406 0.059402 0.317686
0.029098 0.045494 0.317686
0.085502 0.045494 0.317686
0.149940 0.045235 0.310683
0.218654 0.044931 0.307310
0.293532 0.044483 0.306447
0.369301 0.043998 0.304971
0.445686 0.043465 0.303163
0.526094 0.042873 0.301969
0.610303 0.042209 0.301132
0.697034 0.041464 0.300384
0.784398 0.040670 0.299507
0.870333 0.039817 0.298271
0.953733 0.038924 0.296717
0.999964 0.037439 0.293460
0.002684 0.087327 0.317686
0.006956 0.086302 0.318065
0.027776 0.075331 0.318065
0.083197 0.071763 0.318065
0.149613 0.071787 0.311622
0.219102 0.071385 0.308275
0.293894 0.070790 0.307186
0.369607 0.070137 0.305590
0.445993 0.069468 0.303804
0.526343 0.068725 0.302585
0.610477 0.067906 0.301704
0.697096 0.066992 0.300882
0.784440 0.066019 0.299949
0.870316 0.064982 0.298696
0.953734 0.063905 0.297145
0.999964 0.062139 0.293830
0.002684 0.149355 0.317686
0.006956 0.149146 0.318065
0.028070 0.145557 0.318631
0.078666 0.139894 0.318631
0.148517 0.139648 0.313739
0.220013 0.138745 0.311045
0.294844 0.137580 0.309696
0.370568 0.136398 0.308127
0.446882 0.135215 0.306504
0.527133 0.134007 0.305265
0.611139 0.132725 0.304249
0.697637 0.131351 0.303281
0.784826 0.129909 0.302206
0.870644 0.128417 0.300909
0.953879 0.126845 0.299398
0.999964 0.124301 0.295933
0.002684 0.223898 0.317686
0.006956 0.224209 0.318065
0.028070 0.224388 0.318631
0.076473 0.220776 0.316600
0.146102 0.219659 0.316304
0.220034 0.217812 0.315296
0.295482 0.215839 0.314263
0.371474 0.213869 0.313155
0.447884 0.211986 0.312051
0.528103 0.210105 0.310914
0.611983 0.208162 0.309731
0.698444 0.206156 0.308505
0.785464 0.204110 0.307166
0.871088 0.202009 0.305792
0.954192 0.199857 0.304362
0.999964 0.196409 0.300719
0.002560 0.297553 0.315805
0.006691 0.298140 0.316236
0.026839 0.299626 0.316554
0.071439 0.300131 0.314122
0.148385 0.300131 0.312546
0.220315 0.293479 0.315167
0.295482 0.289457 0.313747
0.371474 0.285696 0.312321
0.447884 0.281985 0.310966
0.528103 0.279018 0.309611
0.611983 0.276525 0.308205
0.698444 0.274157 0.306758
0.785464 0.271716 0.305255
0.871088 0.268984 0.303734
0.954192 0.265973 0.302182
0.999964 0.262305 0.299679
0.002528 0.371230 0.314824
0.006625 0.371697 0.315312
0.026468 0.373107 0.315881
0.069381 0.374459 0.314249
0.140179 0.374459 0.311475
0.223203 0.374459 0.309792
0.296700 0.365517 0.312739
0.371474 0.359662 0.312321
0.447884 0.354819 0.310966
0.528103 0.351249 0.309611
0.611983 0.348465 0.308205
0.698444 0.345907 0.306758
0.785464 0.343230 0.305255
0.871088 0.340074 0.303734
0.954192 0.336448 0.302182
0.999964 0.330975 0.299679
0.002487 0.441514 0.313274
0.006546 0.441909 0.313930
0.026196 0.443107 0.315078
0.068278 0.444615 0.314738
0.134537 0.444615 0.311215
0.213605 0.444615 0.308681
0.299708 0.444615 0.308681
0.373075 0.434039 0.309957
0.447884 0.427128 0.310966
0.528103 0.422943 0.309611
0.611983 0.419835 0.308205
0.698444 0.417115 0.306758
0.785464 0.414192 0.305255
0.871088 0.410598 0.303734
0.954192 0.406335 0.302182
0.999964 0.399311 0.299679
0.002438 0.508063 0.311218
0.006455 0.508393 0.312111
0.025909 0.509409 0.313999
0.067452 0.510801 0.315110
0.129902 0.510801 0.311142
0.205425 0.510801 0.307835
0.289184 0.510801 0.307835
0.375869 0.510801 0.307835
