assets/luts/Xpro.cube
LUT_3D_SIZE 16
-0.099866 -0.099866 0.015350
-0.083828 -0.099438 0.020083
0.068117 -0.101259 -0.020595
0.119312 -0.102404 -0.028886
0.178206 -0.104704 -0.039673
0.244879 -0.108664 -0.052479
0.317616 -0.114594 -0.066730
0.394867 -0.122552 -0.082005
0.475655 -0.132416 -0.098060
0.561415 -0.144294 -0.115149
0.651398 -0.157928 -0.133111
0.743626 -0.172863 -0.151537
0.836612 -0.188649 -0.170136
0.928307 -0.204755 -0.188467
1.010893 -0.219788 -0.205164
1.035704 -0.224377 -0.210195
-0.098434 -0.082537 0.027490
-0.081989 -0.081989 0.029903
0.066797 -0.087862 -0.027585
0.118801 -0.092953 -0.032562
0.177920 -0.095623 -0.042125
0.244671 -0.099239 -0.054322
0.317456 -0.104929 -0.068201
0.394725 -0.112978 -0.083218
0.475531 -0.123253 -0.099077
0.561315 -0.135700 -0.116017
0.651287 -0.150019 -0.133857
0.743461 -0.165645 -0.152183
0.836542 -0.182114 -0.170706
0.928302 -0.198866 -0.188963
1.010845 -0.214432 -0.205617
1.035655 -0.219024 -0.210641
-0.095197 0.064870 0.041235
-0.082140 0.065286 0.042130
0.060223 0.067219 0.037065
0.119131 0.029220 -0.053905
0.178225 0.007843 -0.055981
0.245667 -0.021014 -0.066793
0.318867 -0.037271 -0.079676
0.396321 -0.055551 -0.093627
0.477127 -0.074687 -0.108418
0.562848 -0.094422 -0.124385
0.652810 -0.114700 -0.141339
0.744920 -0.135193 -0.158866
0.837739 -0.155659 -0.176651
0.929314 -0.175702 -0.194265
1.011824 -0.193763 -0.210384
1.036658 -0.198562 -0.215454
-0.090717 0.119567 0.052864
-0.080590 0.119710 0.053335
0.044117 0.120329 0.054828
0.112173 0.121613 0.047071
0.170028 0.121701 0.021714
0.244062 0.124220 -0.080200
0.322509 0.123809 -0.105362
0.402145 0.120919 -0.121407
0.483292 0.115242 -0.134481
0.568717 0.105315 -0.147893
0.658160 0.087629 -0.162269
0.749735 0.050905 -0.177448
0.842117 -0.076689 -0.193162
0.933211 -0.117621 -0.208963
1.015299 -0.146258 -0.223624
1.040115 -0.151749 -0.228624
-0.080481 0.178835 0.069255
-0.068205 0.178929 0.069577
0.059328 0.179283 0.070699
0.117096 0.180102 0.068997
0.170152 0.181165 0.061213
0.234302 0.190340 0.044161
0.308233 0.199376 -0.060101
0.394303 0.201790 -0.119411
0.482242 0.199328 -0.150439
0.572039 0.194102 -0.171748
0.663375 0.186815 -0.188156
0.755557 0.176632 -0.202680
0.847886 0.162069 -0.216739
0.938718 0.140928 -0.230608
1.020368 0.111836 -0.243533
1.045176 0.107547 -0.248465
-0.055760 0.244123 0.089277
-0.024251 0.244182 0.089527
0.082471 0.244444 0.090292
0.132314 0.245039 0.089597
0.182808 0.245932 0.086976
0.234998 0.246984 0.078389
0.304529 0.259802 0.062745
0.379948 0.270870 0.036712
0.467692 0.275947 -0.118697
0.563457 0.274960 -0.169826
0.660971 0.270073 -0.202033
0.757572 0.262285 -0.225003
0.852407 0.252220 -0.242339
0.944253 0.239747 -0.256435
1.026080 0.225654 -0.268456
1.050938 0.225960 -0.273431
0.050636 0.313536 0.154262
0.066645 0.313576 0.154680
0.107216 0.313786 0.155826
0.151033 0.314261 0.155053
0.199483 0.314991 0.152307
0.250953 0.315953 0.143270
0.305444 0.317055 0.097174
0.378966 0.330888 0.081212
0.457522 0.341961 0.059359
0.546558 0.349426 -0.107640
0.647543 0.349803 -0.182235
0.749821 0.344950 -0.226689
0.850028 0.336410 -0.256720
0.945873 0.325082 -0.278393
1.029976 0.313260 -0.293536
1.055133 0.315003 -0.299077
0.091805 0.385351 0.192257
0.101649 0.385365 0.192465
0.132149 0.385541 0.193005
0.171120 0.385946 0.192703
0.217382 0.386537 0.191749
0.268145 0.387407 0.189113
0.322356 0.388496 0.182395
0.379997 0.389623 0.164157
0.456802 0.403093 0.099507
0.540014 0.414614 0.077168
0.630737 0.423051 -0.087639
0.733418 0.424109 -0.188886
0.838249 0.418898 -0.246287
0.939265 0.409214 -0.283740
1.027683 0.398006 -0.308356
1.053397 0.400754 -0.315227
0.125002 0.458464 0.221804
0.132393 0.458496 0.221969
0.157001 0.458648 0.222311
0.191952 0.458978 0.222152
0.235777 0.459516 0.221629
0.285366 0.460269 0.220299
0.339270 0.461247 0.217144
0.396624 0.462390 0.210063
0.457868 0.463587 0.193475
0.539428 0.477242 0.165824
0.626615 0.488532 0.094126
0.717964 0.496686 -0.051522
0.820319 0.497501 -0.190909
0.924695 0.491281 -0.261084
1.017487 0.481768 -0.303584
1.043794 0.485669 -0.312581
0.155640 0.533521 0.249058
0.161643 0.533519 0.249189
0.182335 0.533647 0.249436
0.213815 0.533928 0.249330
0.255155 0.534399 0.249006
0.303347 0.535028 0.248199
0.356507 0.535945 0.246368
0.413734 0.537035 0.242506
0.474886 0.538247 0.234474
0.540413 0.539490 0.217019
0.626050 0.552671 0.192297
0.715289 0.562795 0.151853
0.806685 0.569498 0.060470
0.906239 0.569178 -0.188645
1.000779 0.563060 -0.266587
1.027377 0.568267 -0.279294
0.185020 0.609540 0.275181
0.190083 0.609551 0.275299
0.207931 0.609694 0.275492
0.236425 0.609956 0.275410
0.275235 0.610313 0.275195
0.321728 0.610890 0.274657
0.373944 0.611685 0.273470
0.430751 0.612716 0.271074
0.491730 0.613917 0.266284
0.557107 0.615245 0.256875
0.626944 0.616504 0.237795
0.714733 0.628260 0.213523
0.804833 0.636340 0.179552
0.894610 0.640647 0.088877
0.983504 0.639803 -0.172556
1.009023 0.646555 -0.193235
0.213341 0.685372 0.300370
0.217724 0.685427 0.300450
0.233344 0.685514 0.300609
0.259246 0.685757 0.300556
0.295529 0.686086 0.300395
0.340073 0.686555 0.300025
0.390929 0.687298 0.299224
0.446998 0.688174 0.297581
0.507641 0.689310 0.294468
0.572711 0.690668 0.288584
0.642071 0.692100 0.277462
0.715534 0.693358 0.256655
0.804327 0.702631 0.231806
0.893145 0.707835 0.199658
0.974790 0.710157 0.148389
0.999190 0.718462 0.130223
0.240549 0.759667 0.324564
0.244409 0.759694 0.324655
0.258256 0.759780 0.324789
0.281814 0.759999 0.324731
0.315606 0.760309 0.324621
0.357994 0.760790 0.324340
0.407296 0.761413 0.323757
0.462116 0.762277 0.322608
0.521938 0.763311 0.320444
0.586436 0.764524 0.316476
0.655378 0.765990 0.309273
0.728020 0.767370 0.296349
0.804921 0.768645 0.273795
0.892556 0.774743 0.248110
0.973454 0.777560 0.219471
0.997760 0.786887 0.216284
0.266382 0.831307 0.347557
0.269803 0.831334 0.347615
0.282191 0.831432 0.347745
0.303651 0.831596 0.347704
0.335070 0.831901 0.347597
0.375197 0.832312 0.347383
0.422486 0.832888 0.346963
0.475805 0.833627 0.346111
0.534439 0.834564 0.344532
0.597956 0.835701 0.341746
0.665966 0.837061 0.336781
0.737772 0.838519 0.328216
0.813325 0.839987 0.313227
0.893057 0.841218 0.289268
0.972920 0.844701 0.265142
0.997103 0.854784 0.263243
0.289887 0.897179 0.368448
0.292997 0.897188 0.368527
0.304219 0.897266 0.368606
0.323857 0.897454 0.368593
0.353118 0.897641 0.368510
0.391064 0.898110 0.368352
0.436417 0.898605 0.368003
0.488054 0.899262 0.367372
0.545290 0.900155 0.366205
0.607595 0.901223 0.364088
0.674552 0.902438 0.360477
0.745274 0.903883 0.354356
0.819647 0.905410 0.344073
0.898029 0.906826 0.326464
0.973268 0.907887 0.303513
0.997268 0.916007 0.300688
0.322190 0.988303 0.397192
0.324951 0.988333 0.397259
0.334986 0.988400 0.397327
0.352855 0.988526 0.397307
0.379901 0.988702 0.397254
0.415587 0.989059 0.397104
0.458913 0.989566 0.396859
0.508873 0.990259 0.396389
0.564794 0.991054 0.395503
0.626245 0.991984 0.393982
0.692318 0.993134 0.391406
0.762537 0.994512 0.387120
0.836594 0.996012 0.380127
0.914147 0.997617 0.368716
0.983182 0.998815 0.353293
0.999112 0.999122 0.348760
-0.099723 -0.099723 0.064302
-0.083646 -0.099302 0.065074
0.067988 -0.101354 0.060175
0.119255 -0.102471 0.049391
0.178166 -0.104771 0.042036
0.244854 -0.108733 0.026848
0.317604 -0.114666 -0.037696
0.394834 -0.122619 -0.061577
0.475639 -0.132492 -0.082063
0.561406 -0.144354 -0.102046
0.651388 -0.157994 -0.122101
0.743603 -0.172919 -0.142117
0.836602 -0.188705 -0.161980
0.928297 -0.204806 -0.181350
1.010888 -0.219838 -0.198819
1.035699 -0.224420 -0.203908
-0.098287 -0.082354 0.066854
-0.081795 -0.081795 0.067587
0.066190 -0.083146 0.065770
0.118325 -0.084652 0.063607
0.177617 -0.087630 0.058806
0.244497 -0.092638 0.048441
0.317359 -0.099930 0.014434
0.394646 -0.109406 -0.054481
0.475500 -0.120797 -0.078869
0.561281 -0.134110 -0.100605
0.651264 -0.149047 -0.121578
0.743419 -0.165103 -0.142079
0.836526 -0.181820 -0.162182
0.928288 -0.198716 -0.181628
1.010838 -0.214324 -0.199123
1.035650 -0.219066 -0.204361
-0.095100 0.065012 0.066834
-0.077183 0.065599 0.073065
0.060330 0.067324 0.071745
0.119329 0.042634 0.048884
0.179457 0.035482 0.041585
0.246519 0.029962 -0.003680
0.319419 -0.014059 -0.050261
0.396623 -0.048439 -0.072295
0.477340 -0.071218 -0.091775
0.562979 -0.092596 -0.110945
0.652867 -0.113744 -0.130225
0.744956 -0.134710 -0.149485
0.837771 -0.155431 -0.168602
0.929335 -0.175566 -0.187239
1.011830 -0.193685 -0.204120
1.036653 -0.198620 -0.209356
-0.090635 0.119614 0.068907
-0.071018 0.119909 0.079007
0.051408 0.120501 0.079634
0.112229 0.121656 0.076288
0.169924 0.124074 0.069242
0.243326 0.127344 -0.042977
0.322224 0.126608 -0.085653
0.402128 0.123132 -0.106544
0.483396 0.117018 -0.122092
0.568800 0.106768 -0.137232
0.658210 0.088893 -0.153018
0.749775 0.052435 -0.169334
0.842143 -0.076053 -0.185983
0.933226 -0.117432 -0.202556
1.015305 -0.146134 -0.217838
1.040109 -0.151829 -0.222964
-0.080391 0.178874 0.081150
-0.055398 0.179042 0.089469
0.066001 0.179400 0.090058
0.119126 0.180168 0.089036
0.170169 0.181203 0.084443
0.234306 0.191288 0.075982
0.307958 0.200568 0.041878
0.394060 0.202950 -0.103466
0.482103 0.200274 -0.139378
0.571968 0.194831 -0.162775
0.663420 0.187310 -0.180442
0.755494 0.176959 -0.195787
0.847898 0.162267 -0.210521
0.938688 0.141079 -0.224954
1.020370 0.111951 -0.238319
1.045169 0.107403 -0.243371
-0.055597 0.244143 0.098790
0.031516 0.244254 0.135589
0.086976 0.244519 0.137268
0.134432 0.245099 0.135547
0.183649 0.245973 0.127481
0.235016 0.247005 0.096416
0.304523 0.260256 0.086189
0.379934 0.271381 0.073302
0.467539 0.276461 -0.103380
0.563363 0.275397 -0.160721
0.660925 0.270389 -0.194906
0.757585 0.262494 -0.218924
0.852398 0.252328 -0.236910
0.944246 0.239791 -0.251455
1.026080 0.225724 -0.263839
1.050930 0.225905 -0.268899
0.050786 0.313539 0.169113
0.073102 0.313620 0.175288
0.110125 0.313812 0.175872
0.152728 0.314297 0.175433
0.200417 0.315021 0.173802
0.251370 0.315988 0.168878
0.305447 0.317064 0.153681
0.378977 0.331119 0.099073
0.457516 0.342224 0.084294
0.546514 0.349657 -0.090584
0.647474 0.349984 -0.174267
0.749815 0.345066 -0.220725
0.850030 0.336498 -0.251681
0.945889 0.325116 -0.273894
1.029970 0.313302 -0.289397
1.055125 0.314937 -0.294992
0.091894 0.385357 0.200902
0.104971 0.385397 0.203990
0.134010 0.385600 0.204375
0.172388 0.385985 0.204149
0.218202 0.386586 0.203371
0.268617 0.387445 0.201244
0.322597 0.388485 0.195868
0.379996 0.389645 0.182262
0.456801 0.403214 0.158450
0.540011 0.414757 0.096285
0.630710 0.423178 -0.063493
0.733362 0.424198 -0.181521
0.838231 0.418935 -0.241092
0.939236 0.409207 -0.279396
1.027671 0.398048 -0.304471
1.053389 0.400727 -0.311456
0.125066 0.458467 0.228280
0.134306 0.458521 0.230083
0.158224 0.458680 0.230364
0.192836 0.458994 0.230221
0.236397 0.459530 0.229763
0.285809 0.460287 0.228591
0.339489 0.461253 0.225785
0.396778 0.462406 0.219516
0.457873 0.463597 0.205282
0.539434 0.477318 0.183849
0.626616 0.488593 0.149256
0.717936 0.496748 0.049043
0.820298 0.497536 -0.183879
0.924660 0.491296 -0.256378
1.017473 0.481783 -0.299678
1.043787 0.485637 -0.308825
0.155703 0.533516 0.254306
0.162779 0.533548 0.255406
0.183108 0.533687 0.255616
0.214426 0.533937 0.255515
0.255611 0.534438 0.255223
0.303680 0.535055 0.254497
0.356733 0.535937 0.252800
0.413916 0.537056 0.249206
0.474946 0.538264 0.241789
0.540423 0.539501 0.225962
0.626053 0.552712 0.204532
0.715292 0.562829 0.174889
0.806681 0.569524 0.085076
0.906252 0.569189 -0.181614
1.000762 0.563095 -0.262097
1.027372 0.568257 -0.275112
0.185057 0.609535 0.279613
0.190745 0.609558 0.280284
0.208396 0.609708 0.280469
0.236826 0.609969 0.280401
0.275543 0.610352 0.280197
0.321975 0.610902 0.279674
0.374135 0.611697 0.278576
0.430869 0.612726 0.276286
0.491836 0.613918 0.271755
0.557132 0.615251 0.262843
0.626949 0.616509 0.245036
0.714740 0.628285 0.223004
0.804834 0.636344 0.194335
0.894609 0.640659 0.137967
0.983491 0.639824 -0.164676
1.009021 0.646553 -0.186535
0.213370 0.685381 0.304220
0.218114 0.685440 0.304626
0.233638 0.685526 0.304773
0.259495 0.685769 0.304718
0.295745 0.686079 0.304570
0.340259 0.686567 0.304199
0.391059 0.687309 0.303434
0.447099 0.688165 0.301867
0.507697 0.689319 0.298862
0.572753 0.690677 0.293205
0.642092 0.692106 0.282549
0.715544 0.693362 0.262764
0.804330 0.702635 0.239624
0.893146 0.707895 0.210975
0.974793 0.710127 0.172948
0.999191 0.718464 0.164736
0.240577 0.759676 0.327958
0.244635 0.759702 0.328221
0.258439 0.759791 0.328334
0.281962 0.760007 0.328293
0.315755 0.760319 0.328191
0.358129 0.760801 0.327919
0.407370 0.761423 0.327354
0.462187 0.762288 0.326219
0.521974 0.763319 0.324145
0.586469 0.764533 0.320264
0.655432 0.765997 0.313313
0.728091 0.767376 0.300768
0.804925 0.768649 0.279123
0.892559 0.774757 0.254822
0.973455 0.777577 0.228445
0.997765 0.786888 0.225570
0.266414 0.831316 0.350562
0.269962 0.831345 0.350744
0.282318 0.831443 0.350830
0.303747 0.831606 0.350796
0.335144 0.831888 0.350717
0.375286 0.832323 0.350527
0.422540 0.832898 0.350077
0.475867 0.833637 0.349253
0.534484 0.834574 0.347752
0.598007 0.835711 0.344986
0.665975 0.837039 0.340155
0.737783 0.838526 0.331769
0.813345 0.839993 0.317171
0.893061 0.841222 0.294029
0.972923 0.844672 0.270941
0.997106 0.854787 0.269124
0.289912 0.897189 0.371144
0.293096 0.897199 0.371277
0.304284 0.897276 0.371411
0.323942 0.897437 0.371377
0.353194 0.897652 0.371279
0.391118 0.898121 0.371110
0.436486 0.898616 0.370806
0.488108 0.899272 0.370150
0.545329 0.900144 0.369029
0.607615 0.901232 0.366969
0.674532 0.902445 0.363428
0.745231 0.903890 0.357432
0.819674 0.905417 0.347350
0.898020 0.906832 0.330140
0.973273 0.907891 0.307838
0.997272 0.916011 0.305113
0.322226 0.988314 0.399574
0.324970 0.988344 0.399660
0.335025 0.988410 0.399752
0.352861 0.988536 0.399730
0.379924 0.988714 0.399658
0.415597 0.989069 0.399541
0.458932 0.989551 0.399257
0.508877 0.990191 0.398778
0.564817 0.991063 0.397921
0.626254 0.991993 0.396432
0.692355 0.993143 0.393881
0.762541 0.994520 0.389675
0.836601 0.996019 0.382825
0.914154 0.997623 0.371585
0.983187 0.998820 0.356438
0.999117 0.999068 0.351994
-0.099112 -0.099112 0.180981
-0.087155 -0.098782 0.181309
0.060155 -0.099764 0.190030
0.112295 -0.099869 0.150616
0.174168 -0.102503 0.150076
0.240519 -0.105129 0.161392
0.313100 -0.109672 0.170390
0.390565 -0.116777 0.173771
0.471772 -0.126418 0.170259
0.558022 -0.138477 0.157250
0.648462 -0.152627 0.098146
0.741198 -0.168278 0.066979
0.834680 -0.184913 -0.067647
0.926836 -0.201921 -0.113426
1.009846 -0.217769 -0.143850
1.034637 -0.222304 -0.149264
-0.098015 -0.086222 0.182090
-0.080985 -0.080985 0.182871
0.060252 -0.081702 0.190089
0.112290 -0.081790 0.165526
0.170654 -0.082189 0.168184
0.237989 -0.085488 0.176334
0.311471 -0.091723 0.181852
0.389508 -0.100966 0.182782
0.471095 -0.112792 0.177846
0.557586 -0.126893 0.164464
0.648225 -0.142806 0.117886
0.740983 -0.159920 0.069717
0.834519 -0.177694 -0.066539
0.926747 -0.195621 -0.113364
1.009770 -0.212124 -0.143980
1.034590 -0.216900 -0.149964
-0.093343 0.065448 0.186486
-0.075248 0.066108 0.186896
0.061106 0.067876 0.187962
0.115577 0.065534 0.187768
0.178685 0.057329 0.179177
0.251073 0.028167 0.158493
0.325040 -0.051456 0.100326
0.401942 -0.075363 0.084016
0.481904 -0.094369 0.057817
0.566810 -0.112753 -0.052351
0.656173 -0.131447 -0.091807
0.747739 -0.150278 -0.120048
0.840020 -0.169069 -0.144545
0.931249 -0.187542 -0.166891
1.012401 -0.204113 -0.186033
1.035500 -0.204956 -0.181526
-0.089856 0.119763 0.157582
-0.069582 0.120015 0.170029
0.060988 0.122519 0.182784
0.113155 0.122588 0.179125
0.175428 0.126699 0.166429
0.251787 0.124877 0.093843
0.329326 0.119790 0.064289
0.407352 0.113111 -0.034739
0.487485 0.103404 -0.075780
0.572146 0.087933 -0.101304
0.661010 0.058786 -0.123682
0.752162 -0.061772 -0.144650
0.844081 -0.105439 -0.164723
0.934919 -0.136443 -0.183938
1.015738 -0.160658 -0.200951
1.038570 -0.159505 -0.196204
-0.079589 0.178970 0.169283
-0.053335 0.179111 0.181662
0.065432 0.181882 0.178879
0.119844 0.182102 0.177405
0.171306 0.182344 0.172403
0.237444 0.192211 0.161092
0.313277 0.198954 0.094231
0.399888 0.198449 -0.060451
0.487157 0.193634 -0.112576
0.575907 0.186664 -0.139708
0.666435 0.177798 -0.159287
0.758000 0.165903 -0.176494
0.849775 0.149038 -0.192938
0.940193 0.124274 -0.208914
1.020830 0.087656 -0.223381
1.043818 0.093137 -0.219820
-0.053671 0.244201 0.192540
0.034939 0.244295 0.200833
0.080688 0.246673 0.187740
0.132218 0.247006 0.187176
0.183513 0.247528 0.185174
0.236134 0.248129 0.178771
0.306616 0.260555 0.167033
0.382802 0.270337 0.147703
0.471757 0.273453 -0.069644
0.567487 0.270785 -0.143206
0.664495 0.264572 -0.179876
0.760518 0.255813 -0.204721
0.854470 0.245105 -0.223028
0.945870 0.231950 -0.238177
1.026664 0.217278 -0.251035
1.049924 0.220341 -0.248791
0.052900 0.313566 0.216045
0.074778 0.313651 0.221384
0.101791 0.315502 0.204463
0.148421 0.315836 0.204199
0.198545 0.316391 0.203225
0.251106 0.317146 0.200336
0.306349 0.317976 0.192371
0.380411 0.331171 0.179562
0.459371 0.341365 0.163136
0.549409 0.347537 -0.046653
0.650706 0.346599 -0.160675
0.752773 0.340797 -0.209541
0.852385 0.331579 -0.241062
0.947790 0.319738 -0.263437
1.030847 0.307747 -0.278859
1.054681 0.310732 -0.278265
0.093243 0.385360 0.238657
0.106280 0.385438 0.242125
0.125306 0.386836 0.224391
0.166901 0.387152 0.224246
0.215013 0.387677 0.223699
0.267080 0.388440 0.222148
0.322287 0.389357 0.218214
0.380669 0.390324 0.208628
0.457914 0.403200 0.194306
0.541375 0.413994 0.176381
0.632653 0.421576 0.060998
0.736111 0.421645 -0.169764
0.840583 0.415646 -0.231999
0.941354 0.405427 -0.270890
1.028886 0.393984 -0.295944
1.053687 0.397139 -0.297809
0.126158 0.458489 0.260627
0.135380 0.458523 0.262925
0.149802 0.459621 0.245639
0.186833 0.459908 0.245549
0.232408 0.460374 0.245219
0.283368 0.461050 0.244294
0.338210 0.461963 0.242030
0.396429 0.463019 0.236926
0.458415 0.464081 0.225570
0.540182 0.477192 0.209787
0.627577 0.487923 0.190341
0.719479 0.495446 0.093654
0.822138 0.495531 -0.172346
0.926562 0.488717 -0.248491
1.018693 0.478896 -0.292245
1.044506 0.482745 -0.296968
0.156631 0.533528 0.282813
0.163708 0.533565 0.284286
0.175136 0.534359 0.267894
0.208260 0.534620 0.267842
0.251123 0.535015 0.267617
0.300562 0.535646 0.267021
0.354757 0.536501 0.265591
0.412804 0.537556 0.262507
0.474665 0.538675 0.256088
0.540850 0.539854 0.242613
0.626677 0.552529 0.225285
0.716164 0.562230 0.204456
0.807569 0.568486 0.161903
0.907660 0.567564 -0.169700
1.001859 0.561052 -0.254412
1.028220 0.566111 -0.263198
0.185872 0.609543 0.305076
0.191592 0.609617 0.305986
0.201009 0.610229 0.290735
0.230748 0.610435 0.290695
0.270842 0.610856 0.290530
0.318448 0.611441 0.290130
0.371603 0.612163 0.289170
0.429214 0.613141 0.287157
0.490941 0.614317 0.283094
0.556865 0.615532 0.275122
0.627272 0.616822 0.259350
0.715304 0.628105 0.240522
0.805400 0.635803 0.218309
0.895298 0.639805 0.186865
0.984277 0.638550 -0.149637
1.009617 0.645054 -0.166570
0.214100 0.685389 0.327109
0.218856 0.685446 0.327683
0.226859 0.685933 0.313621
0.253667 0.686143 0.313586
0.291011 0.686517 0.313477
0.336533 0.687075 0.313218
0.388229 0.687716 0.312502
0.445035 0.688614 0.311146
0.506253 0.689652 0.308409
0.571939 0.690979 0.303243
0.641801 0.692237 0.293427
0.715851 0.693589 0.275474
0.804620 0.702581 0.255166
0.893552 0.707387 0.231523
0.974978 0.709319 0.205030
0.999269 0.717688 0.212572
0.241241 0.759683 0.348627
0.245287 0.759708 0.349000
0.252249 0.760113 0.336176
0.276479 0.760276 0.336128
0.311102 0.760621 0.336058
0.354362 0.761137 0.335833
0.404309 0.761729 0.335344
0.459843 0.762525 0.334349
0.520224 0.763509 0.332428
0.585276 0.764755 0.328859
0.654610 0.766144 0.322368
0.727813 0.767564 0.310690
0.805061 0.768780 0.290737
0.892810 0.774500 0.268868
0.973570 0.777252 0.246353
0.997832 0.786251 0.251370
0.267003 0.831322 0.369219
0.270536 0.831351 0.369490
0.276732 0.831702 0.357893
0.298689 0.831852 0.357883
0.330728 0.832146 0.357797
0.371522 0.832505 0.357603
0.419475 0.833073 0.357259
0.473378 0.833818 0.356510
0.532519 0.834708 0.355132
0.596533 0.835859 0.352584
0.664870 0.837198 0.348085
0.737114 0.838639 0.340181
0.813062 0.840129 0.326460
0.893196 0.841361 0.304884
0.973055 0.844606 0.283798
0.997139 0.854356 0.287179
0.290455 0.897176 0.388189
0.293631 0.897205 0.388364
0.299252 0.897371 0.377916
0.319281 0.897559 0.377895
0.349023 0.897789 0.377816
0.387533 0.898229 0.377720
0.433407 0.898704 0.377418
0.485556 0.899375 0.376870
0.543235 0.900253 0.375791
0.605986 0.901342 0.373875
0.673268 0.902524 0.370542
0.744339 0.903878 0.364882
0.819197 0.905494 0.355336
0.897878 0.906887 0.339055
0.973290 0.907946 0.318119
0.997292 0.915912 0.319239
0.322702 0.988319 0.415048
0.325474 0.988349 0.415123
0.331617 0.988361 0.407982
0.349701 0.988488 0.407962
0.376981 0.988743 0.407908
0.412966 0.989020 0.407793
0.456583 0.989528 0.407582
0.506890 0.990223 0.407110
0.563091 0.991020 0.406313
0.624844 0.992036 0.404921
0.691232 0.993167 0.402553
0.761670 0.994501 0.398508
0.835893 0.996007 0.391993
0.913768 0.997623 0.381352
0.983121 0.998835 0.366985
0.999076 0.999086 0.362781
-0.098121 -0.098121 0.243228
-0.089383 -0.097888 0.243339
0.019065 -0.096864 0.243800
0.112923 -0.100289 0.253877
0.180802 -0.108790 0.261428
0.236214 -0.101146 0.261268
0.305611 -0.099836 0.269862
0.380372 -0.099843 0.277976
0.458777 -0.100479 0.284532
0.544830 -0.109498 0.288774
0.636373 -0.124969 0.289566
0.730421 -0.143290 0.286506
0.825208 -0.162770 0.279214
0.918486 -0.182386 0.267146
1.002470 -0.200309 0.251046
1.027354 -0.204996 0.249916
-0.097306 -0.088724 0.243602
-0.079676 -0.079676 0.244088
0.037335 -0.078429 0.244502
0.112823 -0.082288 0.253834
0.180731 -0.093231 0.264081
0.236581 -0.084024 0.264364
0.305611 -0.081762 0.272412
0.380369 -0.081767 0.279991
0.458694 -0.082341 0.286096
0.544602 -0.093414 0.289976
0.636233 -0.111976 0.290384
0.730302 -0.132840 0.286988
0.825082 -0.154186 0.279432
0.918416 -0.175152 0.267187
1.002410 -0.193991 0.251004
1.027316 -0.198942 0.249489
-0.093736 0.036104 0.245166
-0.075236 0.048348 0.245527
0.061466 0.068106 0.250691
0.114744 0.065346 0.255306
0.186201 0.037846 0.269448
0.244614 0.046046 0.266127
0.313927 0.041281 0.269327
0.387730 0.036821 0.272869
0.466278 0.015900 0.275521
0.552532 -0.062440 0.275509
0.643721 -0.093852 0.272211
0.737219 -0.120695 0.265099
0.831023 -0.145147 0.253484
0.923685 -0.167950 0.235895
1.005951 -0.187639 0.211892
1.028955 -0.187692 0.220137
-0.086533 0.120288 0.248062
-0.065668 0.120591 0.248248
0.063009 0.122773 0.250267
0.113347 0.122370 0.249331
0.177278 0.118186 0.251850
0.243837 0.113867 0.244006
0.323068 0.098798 0.230604
0.406677 0.069936 0.209875
0.490335 -0.040705 0.180998
0.576909 -0.090761 0.097372
0.666540 -0.120076 0.030644
0.757856 -0.144030 -0.094790
0.849370 -0.165098 -0.129964
0.939680 -0.184929 -0.157324
1.016639 -0.201625 -0.178381
1.035140 -0.189242 -0.138796
-0.074182 0.179070 0.252107
-0.044309 0.179252 0.254610
0.069694 0.181834 0.255700
0.112241 0.183190 0.243851
0.172449 0.183492 0.240601
0.244238 0.185928 0.228253
0.329889 0.181135 0.193095
0.414153 0.173236 0.128556
0.497441 0.163873 0.053423
0.583290 0.152643 -0.079982
0.672372 0.137917 -0.116084
0.763084 0.116817 -0.142670
0.854298 0.082102 -0.165488
0.944488 -0.060637 -0.186082
1.021458 -0.112660 -0.203181
1.039402 -0.067874 -0.168002
-0.041797 0.244223 0.265686
0.044971 0.244340 0.268376
0.085115 0.246618 0.265545
0.109537 0.250021 0.232506
0.176411 0.250165 0.230018
0.238195 0.250198 0.223986
0.311297 0.256975 0.213272
0.392416 0.260898 0.183529
0.484919 0.257522 -0.036694
0.579456 0.250394 -0.127737
0.674030 0.241173 -0.163282
0.767672 0.230434 -0.186676
0.859987 0.217598 -0.205077
0.950370 0.201508 -0.221395
1.027838 0.183603 -0.235140
1.046511 0.198653 -0.207625
0.060819 0.313562 0.281888
0.080121 0.313658 0.284118
0.105762 0.315430 0.278347
0.118497 0.319030 0.232402
0.184674 0.319262 0.231098
0.246443 0.319658 0.228071
