assets/luts/Xpro.cube
LUT_3D_SIZE 6
-0.099866 -0.099866 0.015350
0.119312 -0.102404 -0.028886
0.317616 -0.114594 -0.066730
0.561415 -0.144294 -0.115149
0.836612 -0.188649 -0.170136
1.035704 -0.224377 -0.210195
-0.090717 0.119567 0.052864
0.112173 0.121613 0.047071
0.322509 0.123809 -0.105362
0.568717 0.105315 -0.147893
0.842117 -0.076689 -0.193162
1.040115 -0.151749 -0.228624
0.050636 0.313536 0.154262
0.151033 0.314261 0.155053
0.305444 0.317055 0.097174
0.546558 0.349426 -0.107640
0.850028 0.336410 -0.256720
1.055133 0.315003 -0.299077
0.155640 0.533521 0.249058
0.213815 0.533928 0.249330
0.356507 0.535945 0.246368
0.540413 0.539490 0.217019
0.806685 0.569498 0.060470
1.027377 0.568267 -0.279294
0.240549 0.759667 0.324564
0.281814 0.759999 0.324731
0.407296 0.761413 0.323757
0.586436 0.764524 0.316476
0.804921 0.768645 0.273795
0.997760 0.786887 0.216284
0.322190 0.988303 0.397192
0.352855 0.988526 0.397307
0.458913 0.989566 0.396859
0.626245 0.991984 0.393982
0.836594 0.996012 0.380127
0.999112 0.999122 0.348760
-0.098121 -0.098121 0.243228
0.112923 -0.100289 0.253877
0.305611 -0.099836 0.269862
0.544830 -0.109498 0.288774
0.825208 -0.162770 0.279214
1.027354 -0.204996 0.249916
-0.086533 0.120288 0.248062
0.113347 0.122370 0.249331
0.323068 0.098798 0.230604
0.576909 -0.090761 0.097372
0.849370 -0.165098 -0.129964
1.035140 -0.189242 -0.138796
0.060819 0.313562 0.281888
0.118497 0.319030 0.232402
0.308388 0.319986 0.220657
0.558895 0.337161 -0.049653
0.859711 0.313067 -0.233502
1.052975 0.295614 -0.246723
0.159473 0.533525 0.333200
0.179844 0.536514 0.276210
0.345795 0.538038 0.274029
0.541972 0.540902 0.251637
0.810817 0.564261 0.164586
1.030867 0.558526 -0.250508
0.243049 0.759664 0.387737
0.254308 0.761306 0.339791
0.392367 0.762560 0.339060
0.580423 0.765412 0.332811
0.805604 0.769293 0.295049
0.997890 0.783946 0.278554
0.323976 0.988291 0.445560
0.337611 0.988396 0.418971
0.448006 0.989429 0.418695
0.619586 0.991894 0.416376
0.833372 0.995966 0.404333
0.999105 0.999115 0.376715
-0.089578 -0.089578 0.422979
0.124873 -0.085411 0.423492
0.316871 -0.123022 0.454510
0.544854 -0.111159 0.469911
0.807202 -0.099687 0.483726
1.000973 -0.106656 0.490037
-0.072885 0.140031 0.424870
0.109521 0.117823 0.435333
0.329126 0.061972 0.464638
0.557996 0.064819 0.465011
0.819024 0.059485 0.471454
1.002816 0.083601 0.476156
0.080198 0.314538 0.432708
0.130020 0.319123 0.436530
0.307137 0.318095 0.435258
0.560871 0.303027 0.428347
0.861924 0.243559 0.385681
1.025836 0.236754 0.385162
0.171020 0.533666 0.476671
0.191403 0.536387 0.468247
0.288468 0.546766 0.413575
0.549075 0.547307 0.396444
0.845945 0.536449 0.313271
1.046517 0.515290 0.277452
0.251142 0.759666 0.517214
0.262996 0.761250 0.504982
0.303505 0.770405 0.412137
0.548708 0.771628 0.406059
0.810395 0.773238 0.374885
0.998648 0.772312 0.421271
0.329970 0.988279 0.558124
0.343761 0.988351 0.548665
0.399767 0.988826 0.500189
0.590928 0.991388 0.499374
0.820111 0.995704 0.492097
0.999196 0.999205 0.472744
-0.068778 -0.068778 0.584616
0.150211 -0.060913 0.584971
0.333798 -0.064450 0.597163
0.574689 -0.189515 0.642246
0.810404 -0.116979 0.632386
0.999965 -0.099406 0.639990
-0.024426 0.165454 0.585940
0.109689 0.116835 0.602975
0.333445 0.111730 0.608636
0.587051 -0.162736 0.649752
0.820106 -0.011611 0.631743
0.999965 0.104283 0.634845
0.110083 0.349985 0.591567
0.143395 0.343456 0.598206
0.288819 0.299978 0.605351
0.589426 0.255573 0.649752
0.843470 0.261307 0.621452
0.999965 0.282102 0.612989
0.182283 0.534476 0.603098
0.201757 0.536863 0.604818
0.294530 0.545993 0.611591
0.541301 0.540616 0.608280
0.838402 0.522069 0.598091
1.019874 0.500324 0.582276
0.261149 0.759956 0.641907
0.272877 0.761323 0.638511
0.314031 0.769740 0.619729
0.514240 0.774885 0.594396
0.814705 0.776745 0.575692
1.004687 0.759715 0.582818
0.338042 0.988351 0.675952
0.351557 0.988417 0.671846
0.407374 0.988809 0.653230
0.552955 0.990590 0.625803
0.802702 0.995417 0.622966
0.999429 0.999436 0.610318
0.031035 0.034098 0.730173
0.169147 0.047751 0.730497
0.352015 0.074418 0.734321
0.586026 -0.152646 0.780363
0.840209 -0.218805 0.787946
1.006179 -0.139896 0.777195
0.066297 0.184075 0.731211
0.114615 0.120517 0.746293
0.343330 0.130629 0.745216
0.587616 -0.108744 0.786934
0.848437 -0.198419 0.791858
1.005659 0.035851 0.775011
0.132117 0.372065 0.735550
0.156192 0.358751 0.742202
0.279963 0.290949 0.752442
0.562058 0.268438 0.784413
0.870341 0.176841 0.801437
1.002916 0.274205 0.766095
0.202410 0.564663 0.744682
0.217375 0.561196 0.747078
0.287578 0.545100 0.759086
0.513175 0.515087 0.759092
0.847288 0.493457 0.785507
0.999965 0.506903 0.756740
0.271102 0.760581 0.759223
0.282544 0.761775 0.759969
0.322322 0.769170 0.764819
0.517223 0.773969 0.768788
0.807017 0.769410 0.763921
1.029417 0.751327 0.742851
0.347066 0.988532 0.790358
0.360361 0.988594 0.788861
0.415288 0.989007 0.782584
0.559257 0.990679 0.774708
0.797507 0.995329 0.772126
0.999810 0.999814 0.764785
0.100646 0.105000 0.955396
0.192761 0.109297 0.955582
0.367394 0.126214 0.956480
0.576908 0.120686 0.973365
0.856085 -0.230136 1.039264
1.057383 -0.311895 1.057384
0.115379 0.206411 0.956130
0.156772 0.163058 0.955824
0.353329 0.173518 0.956694
0.568749 0.174322 0.971621
0.850928 -0.192091 1.037563
1.056894 -0.290836 1.056895
0.161325 0.387586 0.959089
0.191196 0.372488 0.958851
0.286188 0.296746 0.957805
0.534430 0.304979 0.964056
0.828121 0.228858 1.028476
1.054534 -0.122772 1.054535
0.223458 0.581253 0.965414
0.244507 0.574333 0.965205
0.321824 0.543867 0.964366
0.498372 0.501657 0.964178
0.791612 0.490394 1.005631
1.046836 0.437491 1.046837
0.291881 0.779797 0.975664
0.307622 0.777088 0.975515
0.370718 0.765671 0.975213
0.528798 0.751359 0.975621
0.779295 0.750479 0.979040
1.029263 0.728223 1.029264
0.363607 0.989667 0.990803
0.376236 0.989815 0.990930
0.428967 0.990291 0.991338
0.569221 0.991847 0.992749
0.804814 0.995893 0.996324
0.999965 0.999965 0.999967
